apps/web/public/brand-library/luts/cool-modern.cube
TITLE "Cool Modern"
LUT_3D_SIZE 33
DOMAIN_MIN 0.0 0.0 0.0
DOMAIN_MAX 1.0 1.0 1.0
0.018235 0.024706 0.034118
0.018235 0.024706 0.034118
0.018235 0.024706 0.034118
0.025015 0.024811 0.034211
0.052781 0.025241 0.034592
0.080814 0.025676 0.034977
0.109063 0.026113 0.035364
0.137498 0.026553 0.035754
0.166094 0.026995 0.036147
0.194836 0.027440 0.036541
0.223711 0.027886 0.036937
0.252707 0.028334 0.037334
0.281818 0.028783 0.037733
0.311036 0.029234 0.038134
0.340355 0.029686 0.038535
0.369771 0.030140 0.038938
0.399278 0.030595 0.039343
0.428873 0.031050 0.039748
0.458552 0.031507 0.040155
0.488314 0.031965 0.040562
0.518154 0.032424 0.040971
0.548070 0.032884 0.041380
0.578061 0.033345 0.041791
0.608124 0.033807 0.042202
0.638257 0.034270 0.042615
0.668458 0.034734 0.043028
0.698727 0.035198 0.043442
0.729061 0.035664 0.043857
0.759459 0.036130 0.044273
0.789919 0.036597 0.044690
0.820441 0.037064 0.045107
0.851024 0.037533 0.045526
0.881666 0.038002 0.045945
0.018235 0.024706 0.034118
0.018235 0.024706 0.034118
0.018235 0.024706 0.034118
0.026126 0.024828 0.034226
0.053893 0.025259 0.034607
0.081927 0.025693 0.034992
0.110178 0.026130 0.035380
0.138613 0.026570 0.035770
0.167211 0.027013 0.036162
0.195954 0.027457 0.036556
0.224830 0.027903 0.036952
0.253827 0.028351 0.037350
0.282939 0.028801 0.037749
0.312158 0.029251 0.038149
0.341479 0.029704 0.038551
0.370895 0.030157 0.038954
0.400403 0.030612 0.039358
0.430000 0.031068 0.039763
0.459680 0.031525 0.040170
0.489443 0.031983 0.040578
0.519284 0.032442 0.040986
0.549202 0.032902 0.041396
0.579193 0.033363 0.041806
0.609257 0.033825 0.042218
0.639391 0.034288 0.042630
0.669594 0.034751 0.043044
0.699863 0.035216 0.043458
0.730198 0.035681 0.043873
0.760597 0.036147 0.044289
0.791059 0.036614 0.044705
0.821582 0.037082 0.045123
0.852166 0.037550 0.045541
0.882809 0.038019 0.045961
0.018235 0.024706 0.034118
0.018235 0.024706 0.034118
0.018235 0.024706 0.034118
0.027237 0.024845 0.034241
0.055005 0.025276 0.034622
0.083040 0.025710 0.035007
0.111292 0.026147 0.035395
0.139729 0.026588 0.035785
0.168328 0.027030 0.036177
0.197072 0.027474 0.036571
0.225948 0.027920 0.036967
0.254948 0.028368 0.037365
0.284070 0.028961 0.037770
0.313314 0.029745 0.038186
0.342660 0.030532 0.038602
0.372104 0.031321 0.039021
0.401640 0.032113 0.039440
0.431266 0.032906 0.039861
0.460977 0.033702 0.040282
0.490771 0.034500 0.040705
0.520644 0.035300 0.041129
0.550596 0.036101 0.041554
0.580622 0.036905 0.041980
0.610722 0.037710 0.042407
0.640893 0.038517 0.042835
0.671133 0.039326 0.043264
0.701442 0.040136 0.043694
0.731816 0.040948 0.044124
0.762256 0.041761 0.044556
0.792760 0.042576 0.044989
0.823326 0.043393 0.045422
0.853953 0.044210 0.045856
0.884641 0.045030 0.046291
0.019732 0.052855 0.035372
0.019742 0.053053 0.035381
0.019759 0.053362 0.035395
0.029906 0.053839 0.035548
0.057741 0.054604 0.035945
0.085845 0.055376 0.036345
0.114166 0.056153 0.036748
0.142674 0.056935 0.037154
0.171344 0.057722 0.037562
0.200161 0.058512 0.037972
0.229112 0.059305 0.038384
0.258186 0.060102 0.038798
0.287375 0.060901 0.039213
0.316671 0.061703 0.039630
0.346070 0.062508 0.040048
0.375566 0.063315 0.040467
0.405155 0.064124 0.040888
0.434832 0.064936 0.041310
0.464595 0.065749 0.041733
0.494441 0.066565 0.042157
0.524365 0.067382 0.042582
0.554367 0.068201 0.043008
0.584444 0.069022 0.043436
0.614594 0.069845 0.043864
0.644815 0.070669 0.044293
0.675105 0.071495 0.044724
0.705462 0.072323 0.045155
0.735886 0.073152 0.045587
0.766374 0.073983 0.046020
0.796926 0.074815 0.046454
0.827540 0.075648 0.046888
0.858215 0.076483 0.047324
0.888949 0.077320 0.047760
0.021423 0.084728 0.036792
0.021433 0.084926 0.036801
0.021450 0.085237 0.036815
0.032731 0.085740 0.036984
0.060620 0.086521 0.037382
0.088777 0.087310 0.037783
0.117152 0.088105 0.038188
0.145713 0.088904 0.038595
0.174437 0.089708 0.039004
0.203307 0.090516 0.039416
0.232311 0.091327 0.039829
0.261438 0.092141 0.040244
0.290679 0.092957 0.040660
0.320028 0.093777 0.041078
0.349479 0.094599 0.041498
0.379027 0.095423 0.041918
0.408668 0.096250 0.042340
0.438396 0.097078 0.042763
0.468210 0.097909 0.043188
0.498106 0.098742 0.043613
0.528081 0.099576 0.044040
0.558133 0.100413 0.044467
0.588260 0.101251 0.044896
0.618459 0.102091 0.045326
0.648729 0.102932 0.045756
0.679068 0.103775 0.046188
0.709474 0.104619 0.046620
0.739946 0.105466 0.047054
0.770482 0.106313 0.047488
0.801081 0.107162 0.047923
0.831742 0.108012 0.048359
0.862463 0.108864 0.048796
0.893245 0.109717 0.049234
0.023116 0.116717 0.038217
0.023126 0.116916 0.038226
0.023143 0.117227 0.038239
0.035562 0.117757 0.038424
0.063504 0.118555 0.038823
0.091714 0.119361 0.039226
0.120142 0.120173 0.039632
0.148756 0.120989 0.040040
0.177533 0.121810 0.040451
0.206456 0.122634 0.040864
0.235512 0.123462 0.041278
0.264691 0.124293 0.041694
0.293984 0.125127 0.042112
0.323385 0.125964 0.042531
0.352888 0.126802 0.042952
0.382487 0.127644 0.043374
0.412178 0.128487 0.043797
0.441957 0.129333 0.044222
0.471821 0.130180 0.044647
0.501767 0.131030 0.045074
0.531792 0.131881 0.045502
0.561894 0.132734 0.045931
0.592070 0.133589 0.046361
0.622318 0.134445 0.046792
0.652636 0.135303 0.047224
0.683023 0.136163 0.047656
0.713476 0.137024 0.048090
0.743996 0.137886 0.048525
0.774579 0.138750 0.048960
0.805225 0.139616 0.049397
0.835932 0.140482 0.049834
0.866700 0.141350 0.050273
0.897526 0.142219 0.050712
0.024811 0.148819 0.039645
0.024822 0.149019 0.039654
0.024839 0.149331 0.039668
0.038400 0.149889 0.039869
0.066394 0.150704 0.040269
0.094656 0.151526 0.040673
0.123137 0.152354 0.041080
0.151803 0.153187 0.041490
0.180631 0.154025 0.041902
0.209606 0.154866 0.042316
0.238714 0.155710 0.042732
0.267945 0.156558 0.043149
0.297289 0.157408 0.043568
0.326741 0.158261 0.043989
0.356295 0.159116 0.044411
0.385944 0.159974 0.044834
0.415686 0.160834 0.045259
0.445515 0.161696 0.045684
0.475429 0.162560 0.046111
0.505424 0.163426 0.046539
0.535498 0.164294 0.046968
0.565648 0.165163 0.047399
0.595873 0.166034 0.047830
0.626169 0.166907 0.048262
0.656535 0.167781 0.048695
0.686969 0.168657 0.049130
0.717470 0.169534 0.049565
0.748036 0.170412 0.050001
0.778665 0.171292 0.050438
0.809357 0.172173 0.050875
0.840110 0.173056 0.051314
0.870923 0.173940 0.051754
0.901795 0.174825 0.052194
0.026509 0.181034 0.041079
0.026520 0.181234 0.041087
0.026536 0.181548 0.041101
0.041244 0.182134 0.041318
0.069289 0.182965 0.041720
0.097603 0.183803 0.042125
0.126135 0.184647 0.042533
0.154853 0.185497 0.042944
0.183733 0.186350 0.043357
0.212759 0.187207 0.043773
0.241918 0.188068 0.044190
0.271199 0.188932 0.044609
0.300595 0.189798 0.045029
0.330097 0.190667 0.045451
0.359701 0.191539 0.045874
0.389400 0.192413 0.046299
0.419191 0.193289 0.046724
0.449070 0.194167 0.047151
0.479032 0.195047 0.047580
0.509076 0.195929 0.048009
0.539199 0.196812 0.048439
0.569397 0.197697 0.048871
0.599669 0.198584 0.049304
0.630012 0.199473 0.049737
0.660425 0.200363 0.050172
0.690906 0.201254 0.050607
0.721454 0.202147 0.051044
0.752066 0.203041 0.051481
0.782741 0.203937 0.051919
0.813478 0.204833 0.052358
0.844276 0.205732 0.052798
0.875134 0.206631 0.053239
0.906049 0.207531 0.053681
0.028210 0.213358 0.042516
0.028220 0.213559 0.042525
0.028237 0.213874 0.042539
0.044093 0.214489 0.042772
0.072190 0.215336 0.043175
0.100555 0.216190 0.043581
0.129138 0.217050 0.043991
0.157906 0.217915 0.044403
0.186837 0.218784 0.044818
0.215914 0.219657 0.045234
0.245123 0.220534 0.045652
0.274455 0.221413 0.046072
0.303900 0.222296 0.046494
0.333452 0.223181 0.046917
0.363105 0.224068 0.047342
0.392854 0.224957 0.047768
0.422694 0.225849 0.048195
0.452621 0.226743 0.048623
0.482632 0.227638 0.049053
0.512724 0.228536 0.049483
0.542894 0.229435 0.049915
0.573140 0.230335 0.050348
0.603459 0.231238 0.050782
0.633849 0.232142 0.051217
0.664308 0.233047 0.051652
0.694835 0.233954 0.052089
0.725428 0.234862 0.052527
0.756085 0.235771 0.052966
0.786806 0.236682 0.053405
0.817588 0.237594 0.053846
0.848430 0.238507 0.054287
0.879331 0.239421 0.054729
0.910291 0.240336 0.055172
0.029912 0.245790 0.043958
0.029923 0.245992 0.043967
0.029939 0.246308 0.043981
0.046949 0.246954 0.044230
0.075096 0.247816 0.044634
0.103512 0.248685 0.045042
0.132145 0.249560 0.045453
0.160964 0.250441 0.045866
0.189945 0.251325 0.046282
0.219071 0.252214 0.046700
0.248330 0.253106 0.047119
0.277711 0.254001 0.047541
0.307206 0.254898 0.047964
0.336807 0.255798 0.048388
0.366509 0.256701 0.048814
0.396306 0.257606 0.049241
0.426194 0.258513 0.049669
0.456169 0.259422 0.050099
0.486228 0.260332 0.050530
0.516367 0.261245 0.050962
0.546584 0.262159 0.051395
0.576876 0.263075 0.051829
0.607242 0.263992 0.052264
0.637678 0.264911 0.052701
0.668183 0.265831 0.053138
0.698755 0.266753 0.053576
0.729393 0.267676 0.054015
0.760095 0.268600 0.054455
0.790860 0.269525 0.054896
0.821686 0.270452 0.055338
0.852571 0.271380 0.055780
0.883516 0.272309 0.056224
0.914518 0.273238 0.056668
0.031617 0.278328 0.045404
0.031628 0.278531 0.045413
0.031644 0.278847 0.045427
0.049811 0.279525 0.045693
0.078008 0.280401 0.046098
0.106473 0.281286 0.046507
0.135156 0.282176 0.046919
0.164024 0.283071 0.047334
0.193054 0.283971 0.047751
0.222230 0.284875 0.048170
0.251538 0.285781 0.048591
0.280968 0.286691 0.049013
0.310512 0.287604 0.049438
0.340161 0.288519 0.049863
0.369911 0.289436 0.050290
0.399756 0.290356 0.050719
0.429691 0.291278 0.051149
0.459714 0.292201 0.051580
0.489819 0.293127 0.052012
0.520005 0.294054 0.052445
0.550269 0.294983 0.052879
0.580607 0.295913 0.053315
0.611018 0.296845 0.053751
0.641499 0.297779 0.054189
0.672049 0.298713 0.054627
0.702666 0.299649 0.055067
0.733349 0.300587 0.055507
0.764095 0.301525 0.055949
0.794903 0.302465 0.056391
0.825772 0.303406 0.056834
0.856701 0.304348 0.057278
0.887688 0.305291 0.057723
0.918732 0.306235 0.058168
0.033324 0.310970 0.046855
0.033335 0.311173 0.046864
0.033352 0.311491 0.046878
0.052679 0.312200 0.047160
0.080924 0.313091 0.047567
0.109438 0.313990 0.047977
0.138170 0.314895 0.048390
0.167088 0.315805 0.048806
0.196167 0.316719 0.049224
0.225391 0.317637 0.049645
0.254748 0.318559 0.050067
0.284226 0.319483 0.050491
0.313817 0.320410 0.050916
0.343514 0.321340 0.051343
0.373311 0.322272 0.051772
0.403203 0.323206 0.052201
0.433186 0.324142 0.052632
0.463255 0.325080 0.053065
0.493407 0.326020 0.053498
0.523639 0.326961 0.053933
0.553948 0.327905 0.054368
0.584331 0.328849 0.054805
0.614787 0.329795 0.055243
0.645313 0.330743 0.055682
0.675908 0.331692 0.056122
0.706569 0.332642 0.056562
0.737295 0.333593 0.057004
0.768084 0.334546 0.057447
0.798935 0.335499 0.057890
0.829847 0.336454 0.058335
0.860817 0.337410 0.058780
0.891847 0.338367 0.059226
0.922933 0.339324 0.059673
0.035034 0.343713 0.048310
0.035045 0.343917 0.048319
0.035061 0.344236 0.048333
0.055552 0.344978 0.048632
0.083846 0.345883 0.049040
0.112409 0.346796 0.049451
0.141189 0.347715 0.049866
0.170154 0.348639 0.050283
0.199282 0.349568 0.050702
0.228554 0.350500 0.051124
0.257958 0.351436 0.051547
0.287484 0.352374 0.051972
0.317122 0.353315 0.052399
0.346867 0.354259 0.052828
0.376711 0.355205 0.053257
0.406649 0.356153 0.053688
0.436678 0.357103 0.054121
0.466792 0.358055 0.054554
0.496990 0.359009 0.054989
0.527267 0.359965 0.055425
0.557621 0.360922 0.055862
0.588049 0.361880 0.056300
0.618549 0.362840 0.056739
0.649120 0.363801 0.057179
0.679758 0.364764 0.057620
0.710462 0.365727 0.058062
0.741231 0.366692 0.058505
0.772062 0.367658 0.058949
0.802956 0.368626 0.059394
0.833909 0.369594 0.059840
0.864922 0.370563 0.060287
0.895992 0.371533 0.060734
0.927119 0.372504 0.061182
0.036746 0.376556 0.049769
0.036756 0.376761 0.049778
0.036773 0.377080 0.049792
0.058432 0.377857 0.050108
0.086773 0.378775 0.050517
0.115383 0.379702 0.050930
0.144211 0.380635 0.051345
0.173224 0.381573 0.051764
0.202399 0.382515 0.052185
0.231719 0.383461 0.052608
0.261170 0.384410 0.053032
0.290743 0.385362 0.053459
0.320428 0.386317 0.053887
0.350218 0.387275 0.054316
0.380108 0.388234 0.054747
0.410092 0.389196 0.055180
0.440166 0.390160 0.055613
0.470326 0.391126 0.056048
0.500569 0.392093 0.056484
0.530891 0.393062 0.056921
0.561289 0.394032 0.057360
0.591761 0.395004 0.057799
0.622305 0.395977 0.058240
0.652918 0.396952 0.058681
0.683599 0.397928 0.059123
0.714346 0.398905 0.059567
0.745157 0.399883 0.060011
0.776031 0.400862 0.060456
0.806966 0.401842 0.060903
0.837960 0.402823 0.061350
0.869014 0.403805 0.061798
0.900124 0.404788 0.062246
0.930366 0.405754 0.062683
0.038460 0.409497 0.051233
0.038471 0.409702 0.051242
0.038487 0.410022 0.051256
0.061316 0.410833 0.051589
0.089705 0.411765 0.051999
0.118362 0.412705 0.052413
0.147237 0.413651 0.052830
0.176297 0.414603 0.053249
0.205519 0.415558 0.053672
0.234885 0.416517 0.054096
0.264383 0.417480 0.054522
0.294001 0.418446 0.054949
0.323732 0.419414 0.055379
0.353569 0.420385 0.055810
0.383504 0.421357 0.056242
0.413533 0.422333 0.056676
0.443652 0.423309 0.057110
0.473857 0.424288 0.057547
0.504143 0.425269 0.057984
0.534509 0.426251 0.058423
0.564951 0.427234 0.058862
0.595466 0.428219 0.059303
0.626053 0.429205 0.059745
0.656709 0.430192 0.060187
0.687432 0.431181 0.060631
0.718221 0.432171 0.061076
0.749074 0.433162 0.061521
0.779988 0.434154 0.061968
0.810964 0.435146 0.062416
0.841999 0.436140 0.062864
0.873093 0.437135 0.063313
0.904243 0.438130 0.063763
0.933361 0.439084 0.064185
0.040177 0.442533 0.052701
0.040187 0.442738 0.052710
0.040204 0.443060 0.052724
0.064207 0.443906 0.053074
0.092642 0.444851 0.053485
0.121345 0.445804 0.053900
0.150267 0.446763 0.054319
0.179373 0.447727 0.054740
0.208641 0.448695 0.055163
0.238053 0.449668 0.055588
0.267597 0.450643 0.056016
0.297261 0.451622 0.056445
0.327037 0.452603 0.056875
0.356918 0.453587 0.057307
0.386898 0.454572 0.057741
0.416972 0.455560 0.058176
0.447135 0.456550 0.058612
0.477383 0.457541 0.059050
0.507714 0.458534 0.059488
0.538122 0.459529 0.059928
0.568607 0.460525 0.060369
0.599165 0.461523 0.060811
0.629794 0.462521 0.061254
0.660492 0.463521 0.061698
0.691257 0.464522 0.062143
0.722087 0.465524 0.062589
0.752980 0.466527 0.063036
0.783936 0.467532 0.063484
0.814951 0.468537 0.063933
0.846026 0.469543 0.064383
0.877159 0.470549 0.064833
0.908349 0.471557 0.065285
0.936338 0.472498 0.065692
0.041896 0.475662 0.054173
0.041906 0.475868 0.054183
0.041923 0.476191 0.054197
0.067103 0.477072 0.054563
0.095583 0.478030 0.054976
0.124333 0.478995 0.055392
0.153300 0.479967 0.055812
0.182452 0.480944 0.056234
0.211765 0.481925 0.056659
0.241223 0.482910 0.057085
0.270811 0.483898 0.057514
0.300520 0.484889 0.057944
0.330341 0.485882 0.058376
0.360266 0.486879 0.058810
0.390290 0.487877 0.059244
0.420408 0.488877 0.059681
0.450615 0.489879 0.060118
0.480906 0.490883 0.060557
0.511279 0.491888 0.060997
0.541730 0.492895 0.061438
0.572257 0.493903 0.061880
0.602857 0.494913 0.062324
0.633528 0.495924 0.062768
0.664267 0.496936 0.063213
0.695072 0.497949 0.063660
0.725943 0.498963 0.064107
0.756877 0.499978 0.064555
0.787872 0.500994 0.065005
0.818927 0.502011 0.065455
0.850041 0.503028 0.065906
0.881213 0.504047 0.066358
0.912441 0.505066 0.066811
0.939298 0.505993 0.067202
0.043617 0.508883 0.055650
0.043628 0.509090 0.055660
0.043644 0.509413 0.055674
0.070004 0.510331 0.056057
0.098530 0.511301 0.056471
0.127324 0.512278 0.056889
0.156337 0.513262 0.057310
0.185533 0.514251 0.057733
0.214891 0.515244 0.058159
0.244394 0.516241 0.058587
0.274026 0.517242 0.059017
0.303779 0.518245 0.059448
0.333644 0.519250 0.059882
0.363613 0.520258 0.060316
0.393681 0.521269 0.060752
0.423842 0.522281 0.061190
0.454091 0.523295 0.061629
0.484425 0.524311 0.062069
0.514840 0.525328 0.062510
0.545333 0.526347 0.062953
0.575902 0.527367 0.063396
0.606543 0.528388 0.063841
0.637254 0.529410 0.064286
0.668034 0.530434 0.064733
0.698880 0.531459 0.065181
0.729790 0.532484 0.065630
0.760763 0.533511 0.066079
0.791798 0.534538 0.066530
0.822892 0.535567 0.066981
0.854044 0.536596 0.067434
0.885254 0.537625 0.067887
0.916520 0.538656 0.068341
0.942242 0.539567 0.068717
0.045341 0.542194 0.057132
0.045351 0.542401 0.057141
0.045368 0.542725 0.057155
0.072911 0.543680 0.057556
0.101481 0.544661 0.057971
0.130320 0.545650 0.058390
0.159377 0.546646 0.058812
0.188618 0.547647 0.059237
0.218020 0.548652 0.059664
0.247566 0.549660 0.060093
0.277242 0.550672 0.060524
0.307039 0.551687 0.060957
0.336947 0.552705 0.061391
0.366959 0.553724 0.061827
0.397069 0.554746 0.062265
0.427272 0.555770 0.062704
0.457564 0.556795 0.063144
0.487940 0.557823 0.063585
0.518396 0.558851 0.064028
0.548931 0.559881 0.064472
0.579540 0.560913 0.064916
0.610221 0.561945 0.065362
0.640973 0.562979 0.065809
0.671793 0.564014 0.066257
0.702678 0.565050 0.066706
0.733627 0.566087 0.067156
0.764639 0.567124 0.067607
0.795712 0.568163 0.068059
0.826845 0.569202 0.068512
0.858035 0.570242 0.068966
0.889282 0.571283 0.069420
0.920585 0.572324 0.069876
0.945169 0.573219 0.070237
0.047067 0.575591 0.058617
0.047077 0.575799 0.058626
0.047569 0.576135 0.058648
0.075822 0.577116 0.059059
0.104436 0.578109 0.059475
0.133319 0.579109 0.059895
0.162420 0.580116 0.060319
0.191705 0.581128 0.060745
0.221150 0.582145 0.061173
0.250740 0.583165 0.061603
0.280459 0.584188 0.062036
0.310299 0.585214 0.062470
0.340249 0.586243 0.062906
0.370303 0.587274 0.063343
0.400456 0.588307 0.063782
0.430701 0.589342 0.064222
0.461033 0.590379 0.064663
0.491450 0.591417 0.065106
0.521948 0.592457 0.065550
0.552523 0.593498 0.065995
0.583172 0.594540 0.066441
0.613893 0.595584 0.066888
0.644685 0.596628 0.067337
0.675543 0.597674 0.067786
0.706467 0.598720 0.068236
0.737455 0.599768 0.068688
0.768505 0.600816 0.069140
0.799616 0.601865 0.069593
0.830786 0.602915 0.070047
0.862013 0.603965 0.070502
0.893297 0.605017 0.070958
0.924636 0.606068 0.071415
0.948078 0.606946 0.071761
0.048795 0.609074 0.060107
0.048806 0.609283 0.060117
0.050443 0.609646 0.060154
0.078739 0.610638 0.060566
0.107397 0.611642 0.060984
0.136323 0.612653 0.061405
0.165466 0.613671 0.061830
0.194794 0.614694 0.062257
0.224283 0.615722 0.062687
0.253914 0.616753 0.063118
0.283676 0.617787 0.063552
0.313558 0.618824 0.063988
0.343550 0.619863 0.064425
0.373646 0.620905 0.064863
0.403840 0.621949 0.065303
0.434126 0.622995 0.065745
0.464499 0.624042 0.066187
0.494957 0.625091 0.066631
0.525494 0.626141 0.067077
0.556109 0.627193 0.067523
0.586798 0.628246 0.067970
0.617559 0.629300 0.068419
0.648388 0.630355 0.068869
0.679286 0.631411 0.069319
0.710248 0.632468 0.069771
0.741274 0.633526 0.070223
0.772361 0.634584 0.070677
0.803509 0.635643 0.071132
0.834715 0.636703 0.071587
0.865979 0.637764 0.072043
0.897299 0.638825 0.072501
0.928674 0.639887 0.072959
0.950971 0.640746 0.073289
0.050525 0.642641 0.061602
0.050536 0.642849 0.061611
0.053323 0.643241 0.061665
0.081662 0.644244 0.062078
0.110361 0.645258 0.062497
0.139330 0.646280 0.062919
0.168516 0.647309 0.063345
0.197886 0.648342 0.063774
0.227417 0.649380 0.064205
0.257090 0.650422 0.064638
0.286894 0.651466 0.065073
0.316817 0.652514 0.065510
0.346851 0.653564 0.065948
0.376988 0.654616 0.066388
0.407222 0.655670 0.066829
0.437548 0.656726 0.067272
0.467962 0.657784 0.067716
0.498459 0.658843 0.068161
0.529036 0.659904 0.068608
0.559690 0.660966 0.069055
0.590418 0.662029 0.069504
0.621217 0.663093 0.069954
0.652085 0.664158 0.070405
0.683020 0.665224 0.070857
0.714019 0.666291 0.071310
0.745082 0.667358 0.071764
0.776207 0.668426 0.072219
0.807391 0.669496 0.072674
0.838633 0.670565 0.073131
0.869933 0.671635 0.073589
0.901288 0.672706 0.074047
0.932697 0.673777 0.074507
0.953847 0.674617 0.074822
0.052258 0.676288 0.063100
0.052269 0.676497 0.063110
0.056209 0.676919 0.063180
0.084589 0.677931 0.063594
0.113330 0.678955 0.064014
0.142341 0.679988 0.064438
0.171569 0.681026 0.064865
0.200980 0.682070 0.065295
0.230552 0.683118 0.065728
0.260268 0.684170 0.066162
0.290112 0.685224 0.066598
0.320076 0.686282 0.067036
0.350150 0.687342 0.067476
0.380328 0.688404 0.067917
0.410602 0.689468 0.068360
0.440968 0.690534 0.068804
0.471421 0.691602 0.069249
0.501957 0.692671 0.069695
0.532573 0.693741 0.070143
0.563265 0.694813 0.070592
0.594031 0.695886 0.071042
0.624868 0.696959 0.071493
0.655773 0.698034 0.071946
0.686745 0.699110 0.072399
0.717782 0.700186 0.072853
0.748881 0.701263 0.073309
0.780041 0.702341 0.073765
0.811261 0.703419 0.074222
0.842539 0.704498 0.074680
0.873873 0.705578 0.075139
0.905263 0.706657 0.075599
0.936707 0.707738 0.076060
0.956706 0.708557 0.076359
0.053994 0.710015 0.064604
0.054005 0.710224 0.064613
0.059100 0.710676 0.064699
0.087521 0.711698 0.065115
0.116304 0.712732 0.065536
0.145355 0.713774 0.065962
0.174624 0.714822 0.066390
0.204077 0.715876 0.066821
0.233690 0.716933 0.067255
0.263446 0.717995 0.067690
0.293331 0.719059 0.068128
0.323335 0.720126 0.068567
0.353449 0.721196 0.069008
0.383666 0.722268 0.069450
0.413979 0.723342 0.069894
0.444384 0.724417 0.070340
0.474876 0.725494 0.070786
0.505451 0.726573 0.071234
0.536105 0.727653 0.071683
0.566835 0.728733 0.072134
0.597638 0.729815 0.072585
0.628512 0.730898 0.073037
0.659454 0.731982 0.073491
0.690463 0.733067 0.073946
0.721535 0.734152 0.074401
0.752670 0.735239 0.074858
0.783866 0.736325 0.075315
0.815121 0.737413 0.075774
0.846433 0.738500 0.076233
0.877802 0.739589 0.076693
0.909225 0.740677 0.077155
0.940703 0.741766 0.077617
0.959548 0.742565 0.077900
0.055731 0.743818 0.066111
0.055742 0.744029 0.066121
0.061996 0.744510 0.066223
0.090458 0.745542 0.066641
0.119281 0.746585 0.067063
0.148374 0.747636 0.067490
0.177683 0.748694 0.067919
0.207176 0.749757 0.068352
0.236829 0.750824 0.068786
0.266625 0.751895 0.069223
0.296550 0.752969 0.069662
0.326593 0.754045 0.070102
0.356746 0.755124 0.070545
0.387002 0.756205 0.070988
0.417354 0.757288 0.071434
0.447798 0.758373 0.071880
0.478328 0.759459 0.072328
0.508940 0.760546 0.072777
0.539631 0.761635 0.073228
0.570398 0.762725 0.073679
0.601238 0.763816 0.074132
0.632149 0.764907 0.074586
0.663127 0.766000 0.075041
0.694171 0.767093 0.075497
0.725279 0.768188 0.075954
0.756449 0.769282 0.076411
0.787680 0.770378 0.076870
0.818969 0.771473 0.077330
0.850315 0.772570 0.077791
0.881717 0.773666 0.078252
0.913174 0.774763 0.078715
0.944684 0.775861 0.079178
0.962373 0.776637 0.079446
0.057472 0.777697 0.067623
0.057482 0.777908 0.067633
0.064898 0.778420 0.067752
0.093400 0.779461 0.068170
0.122263 0.780513 0.068594
0.151395 0.781573 0.069022
0.180744 0.782640 0.069453
0.210277 0.783712 0.069886
0.239970 0.784788 0.070322
0.269805 0.785868 0.070760
0.299769 0.786950 0.071201
0.329851 0.788036 0.071642
0.360043 0.789123 0.072086
0.390337 0.790213 0.072531
0.420727 0.791305 0.072977
0.451208 0.792398 0.073425
0.481775 0.793493 0.073875
0.512425 0.794589 0.074325
0.543153 0.795686 0.074777
0.573956 0.796785 0.075230
0.604832 0.797884 0.075684
0.635778 0.798984 0.076139
0.666792 0.800085 0.076595
0.697871 0.801187 0.077052
0.729014 0.802289 0.077510
0.760218 0.803392 0.077970
0.791483 0.804496 0.078430
0.822805 0.805600 0.078891
0.854185 0.806704 0.079353
0.885620 0.807809 0.079816
0.917110 0.808913 0.080280
0.948652 0.810019 0.080801
0.965185 0.810775 0.081394
0.059214 0.811649 0.069139
0.059225 0.811860 0.069149
0.067805 0.812404 0.069285
0.096346 0.813453 0.069705
0.125249 0.814514 0.070130
0.154420 0.815583 0.070559
0.183809 0.816658 0.070991
0.213380 0.817739 0.071426
0.243112 0.818823 0.071863
0.272985 0.819911 0.072302
0.302988 0.821003 0.072744
0.333108 0.822096 0.073187
0.363338 0.823192 0.073632
0.393670 0.824291 0.074078
0.424097 0.825391 0.074526
0.454615 0.826492 0.074975
0.485219 0.827595 0.075425
0.515905 0.828699 0.075877
0.546669 0.829805 0.076330
0.577508 0.830911 0.076784
0.608419 0.832019 0.077240
0.639401 0.833127 0.077696
0.670449 0.834236 0.078154
0.701563 0.835346 0.078612
0.732739 0.836456 0.079072
0.763977 0.837566 0.079532
0.795275 0.838678 0.079994
