apps/web/public/brand-library/luts/cool-modern.cube
TITLE "Cool Modern"
LUT_3D_SIZE 5
DOMAIN_MIN 0.0 0.0 0.0
DOMAIN_MAX 1.0 1.0 1.0
0.018235 0.024706 0.034118
0.166094 0.026995 0.036147
0.399278 0.030595 0.039343
0.638257 0.034270 0.042615
0.881666 0.038002 0.045945
0.028210 0.213358 0.042516
0.186837 0.218784 0.044818
0.422694 0.225849 0.048195
0.664308 0.233047 0.051652
0.910291 0.240336 0.055172
0.041896 0.475662 0.054173
0.211765 0.481925 0.056659
0.450615 0.489879 0.060118
0.695072 0.497949 0.063660
0.939298 0.505993 0.067202
0.055731 0.743818 0.066111
0.236829 0.750824 0.068786
0.478328 0.759459 0.072328
0.725279 0.768188 0.075954
0.962373 0.776637 0.079446
0.066806 0.959857 0.075774
0.258553 0.964791 0.078903
0.501728 0.970966 0.085036
0.750188 0.977160 0.091307
0.979072 0.982768 0.097344
0.019466 0.025870 0.252861
0.168528 0.028191 0.257838
0.402047 0.031809 0.264510
0.641356 0.035504 0.271311
0.885087 0.039255 0.278202
0.029555 0.215861 0.272611
0.189411 0.221326 0.277932
0.425602 0.228413 0.284811
0.667542 0.235633 0.291821
0.913840 0.242944 0.298921
0.043306 0.478548 0.296384
0.214413 0.484848 0.301909
0.453572 0.492816 0.308837
0.698330 0.500899 0.315893
0.941810 0.508934 0.322943
0.057208 0.747034 0.320321
0.239548 0.754072 0.326042
0.481329 0.762710 0.333008
0.728551 0.771442 0.340100
0.964851 0.779871 0.347021
0.068291 0.962211 0.341237
0.261273 0.967165 0.347001
0.504681 0.973309 0.353839
0.753359 0.979471 0.360797
0.981380 0.985025 0.367419
0.020846 0.027177 0.498534
0.171080 0.029515 0.504200
0.404943 0.033139 0.511885
0.644583 0.036840 0.519688
0.888628 0.040598 0.527562
0.030998 0.218435 0.521021
0.192040 0.223922 0.527051
0.428560 0.231014 0.534901
0.670815 0.238239 0.542867
0.917408 0.245556 0.550901
0.044765 0.481454 0.548077
0.217058 0.487771 0.554271
0.456510 0.495732 0.562065
0.701545 0.503808 0.569970
0.944291 0.511817 0.577809
0.058683 0.750196 0.574939
0.242204 0.757244 0.581282
0.484242 0.765865 0.589008
0.731704 0.774578 0.596841
0.967218 0.782966 0.604420
0.069724 0.964471 0.597846
0.263877 0.969427 0.604172
0.507506 0.975540 0.611664
0.756387 0.981672 0.619259
0.983578 0.987175 0.626418
0.022200 0.028460 0.740280
0.173584 0.030817 0.746618
0.407783 0.034447 0.755277
0.647743 0.038153 0.764041
0.892093 0.041917 0.772859
0.032415 0.220962 0.765425
0.194621 0.226471 0.772144
0.431461 0.233569 0.780924
0.674020 0.240799 0.789806
0.920899 0.248120 0.798734
0.046198 0.484302 0.795629
0.219655 0.490636 0.802471
0.459390 0.498591 0.811092
0.704692 0.506661 0.819808
0.946714 0.514642 0.828393
0.060132 0.753291 0.825288
0.244812 0.760350 0.832230
0.487097 0.768953 0.840680
0.734790 0.777648 0.849218
0.969528 0.785996 0.857418
0.071132 0.966678 0.850073
0.266433 0.971635 0.856939
0.510274 0.977719 0.865053
0.759352 0.983821 0.873251
0.985723 0.989273 0.880914
0.023054 0.029269 0.892779
0.175218 0.031626 0.897187
0.409603 0.035245 0.903870
0.649734 0.038942 0.910588
0.894238 0.042695 0.917300
0.033262 0.222572 0.910622
0.196250 0.228081 0.915372
0.433257 0.235166 0.922090
0.675967 0.242382 0.928836
0.922981 0.249690 0.935571
0.047003 0.486036 0.933578
0.221236 0.492364 0.938375
0.461108 0.500297 0.944813
0.706531 0.508344 0.951275
0.947972 0.516288 0.957522
0.060895 0.755088 0.955583
0.246342 0.762136 0.960406
0.488736 0.770709 0.966563
0.736524 0.779374 0.972741
0.970646 0.787676 0.978488
0.071813 0.967740 0.972054
0.267868 0.972682 0.976735
0.511791 0.978730 0.982464
0.760938 0.984795 0.988213
0.986667 0.990196 0.993333
