apps/web/public/brand-library/luts/cool-modern.cube
TITLE "Cool Modern"
LUT_3D_SIZE 9
DOMAIN_MIN 0.0 0.0 0.0
DOMAIN_MAX 1.0 1.0 1.0
0.018235 0.024706 0.034118
0.052781 0.025241 0.034592
0.166094 0.026995 0.036147
0.281818 0.028783 0.037733
0.399278 0.030595 0.039343
0.518154 0.032424 0.040971
0.638257 0.034270 0.042615
0.759459 0.036130 0.044273
0.881666 0.038002 0.045945
0.021423 0.084728 0.036792
0.060620 0.086521 0.037382
0.174437 0.089708 0.039004
0.290679 0.092957 0.040660
0.408668 0.096250 0.042340
0.528081 0.099576 0.044040
0.648729 0.102932 0.045756
0.770482 0.106313 0.047488
0.893245 0.109717 0.049234
0.028210 0.213358 0.042516
0.072190 0.215336 0.043175
0.186837 0.218784 0.044818
0.303900 0.222296 0.046494
0.422694 0.225849 0.048195
0.542894 0.229435 0.049915
0.664308 0.233047 0.051652
0.786806 0.236682 0.053405
0.910291 0.240336 0.055172
0.035034 0.343713 0.048310
0.083846 0.345883 0.049040
0.199282 0.349568 0.050702
0.317122 0.353315 0.052399
0.436678 0.357103 0.054121
0.557621 0.360922 0.055862
0.679758 0.364764 0.057620
0.802956 0.368626 0.059394
0.927119 0.372504 0.061182
0.041896 0.475662 0.054173
0.095583 0.478030 0.054976
0.211765 0.481925 0.056659
0.330341 0.485882 0.058376
0.450615 0.489879 0.060118
0.572257 0.493903 0.061880
0.695072 0.497949 0.063660
0.818927 0.502011 0.065455
0.939298 0.505993 0.067202
0.048795 0.609074 0.060107
0.107397 0.611642 0.060984
0.224283 0.615722 0.062687
0.343550 0.619863 0.064425
0.464499 0.624042 0.066187
0.586798 0.628246 0.067970
0.710248 0.632468 0.069771
0.834715 0.636703 0.071587
0.950971 0.640746 0.073289
0.055731 0.743818 0.066111
0.119281 0.746585 0.067063
0.236829 0.750824 0.068786
0.356746 0.755124 0.070545
0.478328 0.759459 0.072328
0.601238 0.763816 0.074132
0.725279 0.768188 0.075954
0.850315 0.772570 0.077791
0.962373 0.776637 0.079446
0.062706 0.879763 0.072185
0.131232 0.882726 0.073214
0.249400 0.887099 0.074957
0.369924 0.891531 0.076736
0.492094 0.895995 0.078541
0.615574 0.900479 0.080365
0.740170 0.904983 0.083339
0.865743 0.909497 0.086562
0.973538 0.913567 0.089542
0.066806 0.959857 0.075774
0.140120 0.961751 0.076821
0.258553 0.964791 0.078903
0.379328 0.967872 0.081948
0.501728 0.970966 0.085036
0.625415 0.974064 0.088157
0.750188 0.977160 0.091307
0.875912 0.980251 0.094483
0.979072 0.982768 0.097344
0.018760 0.025202 0.127291
0.053832 0.025751 0.128920
0.167222 0.027513 0.131913
0.283025 0.029309 0.134965
0.400563 0.031128 0.138058
0.519519 0.032966 0.141184
0.639701 0.034820 0.144338
0.760983 0.036688 0.147516
0.883270 0.038568 0.150718
0.022001 0.085805 0.134739
0.061731 0.087614 0.136504
0.175630 0.090811 0.139581
0.291955 0.094070 0.142719
0.410027 0.097372 0.145899
0.529524 0.100709 0.149113
0.650256 0.104074 0.152356
0.772091 0.107466 0.155624
0.894937 0.110880 0.158914
0.028816 0.214544 0.145628
0.073336 0.216539 0.147478
0.188064 0.219997 0.150583
0.305209 0.223518 0.153748
0.424085 0.227081 0.156956
0.544367 0.230676 0.160198
0.665864 0.234298 0.163468
0.788442 0.237942 0.166763
0.912008 0.241607 0.170080
0.035669 0.345006 0.156613
0.085026 0.347194 0.158549
0.200542 0.350888 0.161680
0.318463 0.354644 0.164872
0.438100 0.358442 0.168107
0.559123 0.362269 0.171374
0.681340 0.366120 0.174670
0.804618 0.369991 0.177991
0.928575 0.373873 0.181329
0.042559 0.477059 0.167690
0.096798 0.479446 0.169712
0.213058 0.483349 0.172868
0.331713 0.487315 0.176086
0.452066 0.491320 0.179345
0.573787 0.495353 0.182637
0.696681 0.499407 0.185958
0.820613 0.503477 0.189303
0.940534 0.507457 0.192592
0.049487 0.610572 0.178854
0.108645 0.613159 0.180962
0.225608 0.617246 0.184143
0.344953 0.621396 0.187384
0.465980 0.625582 0.190666
0.588354 0.629793 0.193982
0.711880 0.634023 0.197326
0.836422 0.638265 0.200693
0.952220 0.642304 0.203932
0.056453 0.745412 0.190100
0.120564 0.748198 0.192296
0.238187 0.752444 0.195498
0.358179 0.756750 0.198761
0.479835 0.761091 0.202066
0.602820 0.765455 0.205404
0.726933 0.769833 0.208769
0.852041 0.774221 0.212158
0.963634 0.778283 0.215343
0.063457 0.881447 0.201423
0.132548 0.884429 0.203706
0.250789 0.888808 0.206930
0.371386 0.893245 0.210214
0.493628 0.897714 0.213540
0.617178 0.902203 0.216898
0.741836 0.906703 0.220283
0.867464 0.911210 0.223692
0.974776 0.915262 0.226821
0.067557 0.961049 0.209964
0.141438 0.962961 0.212269
0.259939 0.966002 0.215437
0.380774 0.969075 0.218664
0.503233 0.972161 0.221932
0.626977 0.975251 0.225231
0.751805 0.978339 0.228556
0.877580 0.981422 0.231903
0.980249 0.983920 0.234894
0.019466 0.025870 0.252861
0.055047 0.026428 0.254582
0.168528 0.028191 0.257838
0.284421 0.029988 0.261153
0.402047 0.031809 0.264510
0.521089 0.033649 0.267897
0.641356 0.035504 0.271311
0.762720 0.037373 0.274747
0.885087 0.039255 0.278202
0.022736 0.087022 0.260798
0.062980 0.088841 0.262671
0.176971 0.092041 0.266014
0.293387 0.095303 0.269419
0.411548 0.098608 0.272865
0.531132 0.101947 0.276343
0.651948 0.105316 0.279847
0.773867 0.108710 0.283374
0.896792 0.112127 0.286921
0.029555 0.215861 0.272611
0.074595 0.217867 0.274574
0.189411 0.221326 0.277932
0.306641 0.224848 0.281351
0.425602 0.228413 0.284811
0.545966 0.232009 0.288303
0.667542 0.235633 0.291821
0.790199 0.239278 0.295361
0.913840 0.242944 0.298921
0.036411 0.346414 0.284474
0.086294 0.348613 0.286527
0.201893 0.352307 0.289898
0.319896 0.356063 0.293330
0.439611 0.359860 0.296803
0.560713 0.363687 0.300308
0.683005 0.367538 0.303838
0.806355 0.371409 0.307390
0.929880 0.375281 0.310948
0.043306 0.478548 0.296384
0.098074 0.480946 0.298526
0.214413 0.484848 0.301909
0.333144 0.488812 0.305352
0.453572 0.492816 0.308837
0.575366 0.496847 0.312353
0.698330 0.500899 0.315893
0.822330 0.504967 0.319456
0.941810 0.508934 0.322943
0.050238 0.612132 0.308334
0.109930 0.614730 0.310565
0.226966 0.618814 0.313958
0.346383 0.622961 0.317412
0.467480 0.627144 0.320907
0.589923 0.631352 0.324432
0.713514 0.635578 0.327982
0.838119 0.639817 0.331554
0.953467 0.643842 0.334969
0.057208 0.747034 0.320321
0.121856 0.749831 0.322639
0.239548 0.754072 0.326042
0.359608 0.758374 0.329505
0.481329 0.762710 0.333008
0.604377 0.767069 0.336542
0.728551 0.771442 0.340100
0.853717 0.775826 0.343679
0.964851 0.779871 0.347021
0.064216 0.883121 0.332340
0.133847 0.886113 0.334745
0.252152 0.890485 0.338155
0.372812 0.894917 0.341626
0.495114 0.899380 0.345136
0.618723 0.903862 0.348677
0.743437 0.908356 0.352241
0.869119 0.912856 0.355826
0.975963 0.916891 0.359094
0.068291 0.962211 0.341237
0.142713 0.964132 0.343660
0.261273 0.967165 0.347001
0.382167 0.970231 0.350401
0.504681 0.973309 0.353839
0.628479 0.976391 0.357306
0.753359 0.979471 0.360797
0.879184 0.982546 0.364307
0.981380 0.985025 0.367419
0.020160 0.026527 0.376356
0.056242 0.027092 0.378169
0.169812 0.028857 0.381680
0.285791 0.030656 0.385253
0.403504 0.032478 0.388864
0.522631 0.034319 0.392506
0.642980 0.036176 0.396172
0.764424 0.038047 0.399858
0.886869 0.039930 0.403560
0.023457 0.088219 0.384775
0.064209 0.090047 0.386756
0.178289 0.093249 0.390358
0.294793 0.096514 0.394022
0.413041 0.099822 0.397726
0.532710 0.103165 0.401460
0.653609 0.106536 0.405219
0.775608 0.109933 0.408997
0.898611 0.113352 0.412793
0.030280 0.217156 0.397486
0.075832 0.219171 0.399562
0.190733 0.222632 0.403165
0.308048 0.226156 0.406830
0.427090 0.229721 0.410535
0.547535 0.233319 0.414270
0.669189 0.236944 0.418029
0.791922 0.240591 0.421807
0.915636 0.244258 0.425601
0.037141 0.347797 0.410203
0.087541 0.350006 0.412371
0.203220 0.353700 0.415975
0.321302 0.357456 0.419640
0.441095 0.361253 0.423345
0.562272 0.365080 0.427079
0.684637 0.368931 0.430836
0.808059 0.372801 0.434612
0.931159 0.376663 0.438380
0.044040 0.480010 0.422920
0.099329 0.482418 0.425180
0.215743 0.486318 0.428783
0.334550 0.490281 0.432447
0.455051 0.494283 0.436149
0.576916 0.498312 0.439881
0.699948 0.502363 0.443636
0.824014 0.506430 0.447409
0.943060 0.510385 0.451086
0.050976 0.613664 0.435634
0.111192 0.616271 0.437984
0.228300 0.620353 0.441584
0.347787 0.624496 0.445245
0.468952 0.628676 0.448944
0.591461 0.632881 0.452672
0.715116 0.637104 0.456423
0.839783 0.641340 0.460191
0.954688 0.645350 0.463776
0.057950 0.748625 0.448339
0.123125 0.751432 0.450777
0.240884 0.755669 0.454373
0.361010 0.759966 0.458030
0.482795 0.764298 0.461725
0.605904 0.768652 0.465448
0.730138 0.773021 0.469192
0.855360 0.777399 0.472954
0.966043 0.781429 0.476448
0.064962 0.884763 0.461030
0.135123 0.887764 0.463555
0.253491 0.892131 0.467146
0.374212 0.896556 0.470797
0.496573 0.901013 0.474486
0.620239 0.905490 0.478202
0.745007 0.909977 0.481939
0.870742 0.914471 0.485694
0.977126 0.918488 0.489095
0.069012 0.963349 0.470265
0.143965 0.965278 0.472806
0.262583 0.968304 0.476314
0.383533 0.971362 0.479880
0.506102 0.974433 0.483483
0.629953 0.977507 0.487113
0.754883 0.980580 0.490764
0.880757 0.983647 0.494432
0.982487 0.986108 0.497660
0.020846 0.027177 0.498534
0.057423 0.027749 0.500439
0.171080 0.029515 0.504200
0.287145 0.031316 0.508023
0.404943 0.033139 0.511885
0.524152 0.034982 0.515776
0.644583 0.036840 0.519688
0.766106 0.038713 0.523618
0.888628 0.040598 0.527562
0.024171 0.089402 0.507432
0.065423 0.091239 0.509521
0.179591 0.094445 0.513375
0.296183 0.097712 0.517292
0.414516 0.101023 0.521249
0.534268 0.104368 0.525234
0.655248 0.107742 0.529240
0.777326 0.111142 0.533264
0.900406 0.114564 0.537302
0.030998 0.218435 0.521021
0.077056 0.220460 0.523208
0.192040 0.223922 0.527051
0.309437 0.227447 0.530957
0.428560 0.231014 0.534901
0.549084 0.234614 0.538873
0.670815 0.238239 0.542867
0.793622 0.241888 0.546877
0.917408 0.245556 0.550901
0.037862 0.349163 0.534571
0.088773 0.351382 0.536854
0.204531 0.355076 0.540685
0.322691 0.358832 0.544578
0.442560 0.362629 0.548508
0.563811 0.366456 0.552466
0.686249 0.370306 0.556445
0.809740 0.374177 0.560440
0.932419 0.378029 0.564412
0.044765 0.481454 0.548077
0.100569 0.483872 0.550454
0.217058 0.487771 0.554271
0.335938 0.491732 0.558149
0.456510 0.495732 0.562065
0.578445 0.499760 0.566007
0.701545 0.503808 0.569970
0.825676 0.507874 0.573948
0.944291 0.511817 0.577809
0.051705 0.615175 0.561535
0.112440 0.617793 0.564003
0.229618 0.621872 0.567805
0.349174 0.626012 0.571667
0.470406 0.630189 0.575567
0.592980 0.634391 0.579492
0.716698 0.638611 0.583437
0.841425 0.642844 0.587397
0.955891 0.646840 0.591146
0.058683 0.750196 0.574939
0.124380 0.753012 0.577497
0.242204 0.757244 0.581282
0.362394 0.761537 0.585127
0.484242 0.765865 0.589008
0.607412 0.770214 0.592915
0.731704 0.774578 0.596841
0.856982 0.778952 0.600782
0.967218 0.782966 0.604420
0.065699 0.886383 0.588286
0.136385 0.889393 0.590929
0.254814 0.893754 0.594696
0.375594 0.898173 0.598523
0.498014 0.902624 0.602385
0.621735 0.907095 0.606272
0.746557 0.911576 0.610177
0.872342 0.916064 0.614097
0.978272 0.920064 0.617626
0.069724 0.964471 0.597846
0.145203 0.966408 0.600501
0.263877 0.969427 0.604172
0.384883 0.972477 0.607901
0.507506 0.975540 0.611664
0.631408 0.978607 0.615452
0.756387 0.981672 0.619259
0.882308 0.984732 0.623079
0.983578 0.987175 0.626418
0.021525 0.027820 0.619768
0.058594 0.028401 0.621765
0.172336 0.030168 0.625772
0.288487 0.031970 0.629841
0.406368 0.033795 0.633948
0.525659 0.035639 0.638082
0.646170 0.037499 0.642236
0.767770 0.039373 0.646405
0.890368 0.041260 0.650586
0.024878 0.090575 0.629143
0.066627 0.092422 0.631339
0.180882 0.095630 0.635441
0.297559 0.098900 0.639606
0.415976 0.102214 0.643810
0.535811 0.105561 0.648041
0.656871 0.108938 0.652290
0.779026 0.112340 0.656555
0.902182 0.115765 0.660830
0.031709 0.219703 0.643592
0.078269 0.221738 0.645891
0.193335 0.225201 0.649969
0.310814 0.228728 0.654110
0.430016 0.232296 0.658289
0.550618 0.235897 0.662493
0.672424 0.239524 0.666716
0.795304 0.243173 0.670954
0.919161 0.246842 0.675202
0.038578 0.350517 0.657959
0.089994 0.352746 0.660356
0.205830 0.356439 0.664410
0.324067 0.360195 0.668525
0.444011 0.363992 0.672677
0.565335 0.367819 0.676854
0.687844 0.371669 0.681049
0.811403 0.375539 0.685258
0.933665 0.379381 0.689427
0.045484 0.482884 0.672237
0.101798 0.485311 0.674731
0.218361 0.489209 0.678758
0.337313 0.493169 0.682845
0.457956 0.497167 0.686969
0.579959 0.501193 0.691118
0.703125 0.505240 0.695284
0.827320 0.509304 0.699463
0.945509 0.513235 0.703500
0.052428 0.616672 0.686423
0.113676 0.619300 0.689009
0.230924 0.623375 0.693008
0.350548 0.627513 0.697067
0.471846 0.631687 0.701162
0.594484 0.635885 0.705280
0.718263 0.640102 0.709415
0.843049 0.644332 0.713563
0.957080 0.648314 0.717470
0.059410 0.751750 0.700512
0.125624 0.754575 0.703187
0.243513 0.758804 0.707157
0.363766 0.763092 0.711185
0.485675 0.767415 0.715249
0.608904 0.771760 0.719336
0.733253 0.776120 0.723439
0.858586 0.780489 0.727554
0.968378 0.784488 0.731332
0.066430 0.887986 0.714499
0.137635 0.891004 0.717259
0.256124 0.895359 0.721198
0.376963 0.899773 0.725195
0.499440 0.904219 0.729226
0.623216 0.908683 0.733280
0.748090 0.913158 0.737349
0.873926 0.917640 0.741430
0.979404 0.921623 0.745081
0.070431 0.965580 0.724371
0.146430 0.967525 0.727140
0.265160 0.970536 0.730969
0.386220 0.973579 0.734856
0.508895 0.976635 0.738776
0.632848 0.979694 0.742718
0.757876 0.982752 0.746676
0.883843 0.985804 0.750645
0.984656 0.988229 0.754091
0.022200 0.028460 0.740280
0.059757 0.029048 0.742370
0.173584 0.030817 0.746618
0.289819 0.032620 0.750929
0.407783 0.034447 0.755277
0.527154 0.036292 0.759650
0.647743 0.038153 0.764041
0.769421 0.040029 0.768445
0.892093 0.041917 0.772859
0.025580 0.091740 0.750130
0.067823 0.093596 0.752434
0.182164 0.096807 0.756779
0.298925 0.100080 0.761189
0.417425 0.103396 0.765635
0.537341 0.106747 0.770107
0.658480 0.110126 0.774595
0.780712 0.113531 0.779096
0.903942 0.116959 0.783604
0.032415 0.220962 0.765425
0.079473 0.223006 0.767835
0.194621 0.226471 0.772144
0.312180 0.229999 0.776516
0.431461 0.233569 0.780924
0.552139 0.237170 0.785357
0.674020 0.240799 0.789806
0.796972 0.244449 0.794266
0.920899 0.248120 0.798734
0.039288 0.351860 0.780593
0.091207 0.354099 0.783105
0.207120 0.357792 0.787376
0.325433 0.361549 0.791709
0.445451 0.365345 0.796078
0.566847 0.369172 0.800470
0.689425 0.373022 0.804878
0.813052 0.376891 0.809297
0.934898 0.380724 0.813658
0.046198 0.484302 0.795629
0.103019 0.486740 0.798239
0.219655 0.490636 0.802471
0.338678 0.494594 0.806764
0.459390 0.498591 0.811092
0.581461 0.502616 0.815442
0.704692 0.506661 0.819808
0.828950 0.510722 0.824183
0.946714 0.514642 0.828393
0.053146 0.618157 0.810529
0.114905 0.620794 0.813232
0.232220 0.624867 0.817424
0.351911 0.629001 0.821675
0.473274 0.633172 0.825961
0.595975 0.637368 0.830268
0.719815 0.641581 0.834589
0.844660 0.645808 0.838920
0.958257 0.649777 0.842981
0.060132 0.753291 0.825288
0.126859 0.756126 0.828079
0.244812 0.760350 0.832230
0.365128 0.764634 0.836438
0.487097 0.768953 0.840680
0.610385 0.773293 0.844942
0.734790 0.777648 0.849218
0.860177 0.782012 0.853503
0.969528 0.785996 0.857418
0.067155 0.889574 0.839901
0.138876 0.892602 0.842777
0.257425 0.896951 0.846883
0.378322 0.901359 0.851048
0.500855 0.905799 0.855244
0.624685 0.910257 0.859460
0.749611 0.914726 0.863690
0.875496 0.919202 0.867928
0.980525 0.923169 0.871698
0.071132 0.966678 0.850073
0.147648 0.968630 0.852954
0.266433 0.971635 0.856939
0.387546 0.974671 0.860981
0.510274 0.977719 0.865053
0.634276 0.980771 0.869146
0.759352 0.983821 0.873251
0.885364 0.986866 0.877365
0.985723 0.989273 0.880914
0.022872 0.029096 0.860218
0.060914 0.029692 0.862401
0.174825 0.031462 0.866886
0.291143 0.033266 0.871435
0.409188 0.035095 0.876020
0.528639 0.036941 0.880629
0.649306 0.038804 0.885253
0.771059 0.040681 0.889888
0.893805 0.042571 0.894530
0.026279 0.092899 0.870543
0.069012 0.094764 0.872954
0.183438 0.097978 0.877539
0.300283 0.101254 0.882188
0.418865 0.104573 0.886873
0.538861 0.107926 0.891581
0.660078 0.111308 0.896304
0.782386 0.114715 0.901036
0.905689 0.118146 0.905774
0.033117 0.222214 0.886668
0.080672 0.224268 0.889189
0.195900 0.227734 0.893725
0.313538 0.231263 0.898324
0.432896 0.234834 0.902959
0.553650 0.238437 0.907615
0.675604 0.242066 0.912285
0.798627 0.245718 0.916964
0.922623 0.249390 0.921648
0.039994 0.353195 0.902624
0.092414 0.355444 0.905249
0.208402 0.359137 0.909735
0.326790 0.362893 0.914283
0.446881 0.366690 0.918864
0.568349 0.370516 0.923467
0.690996 0.374366 0.928084
0.814689 0.378235 0.932708
0.936121 0.382058 0.937255
0.046908 0.485712 0.918404
0.104233 0.488159 0.921129
0.220940 0.492054 0.925563
0.340034 0.496010 0.930058
0.460815 0.500006 0.934586
0.582952 0.504028 0.939134
0.706248 0.508072 0.943695
0.830568 0.512132 0.948263
0.947909 0.516040 0.952640
0.053860 0.619631 0.934004
0.116126 0.622278 0.936824
0.233509 0.626348 0.941205
0.353266 0.630479 0.945645
0.474693 0.634647 0.950118
0.597456 0.638840 0.954610
0.721356 0.643050 0.959114
0.846258 0.647273 0.963624
0.959424 0.651229 0.967833
0.060849 0.754822 0.949420
0.128087 0.757666 0.952328
0.246103 0.761885 0.956655
0.366480 0.766165 0.961039
0.488509 0.770479 0.965455
0.611853 0.774813 0.969631
0.736302 0.779152 0.972719
0.861730 0.783501 0.975803
0.970629 0.787460 0.978472
0.067877 0.891151 0.964646
0.140111 0.894187 0.967637
0.258713 0.898524 0.971034
0.379658 0.902915 0.974037
0.502235 0.907338 0.977052
0.626107 0.911779 0.980071
0.751071 0.916231 0.983088
0.876991 0.920689 0.986100
0.981560 0.924629 0.988598
0.071813 0.967740 0.972054
0.148834 0.969690 0.973901
0.267664 0.972677 0.976730
0.388819 0.975694 0.979588
0.511585 0.978725 0.982460
0.635623 0.981758 0.985334
0.760732 0.984790 0.988208
0.886774 0.987817 0.991078
0.986667 0.990196 0.993333
0.023054 0.029269 0.892779
0.061293 0.029862 0.893892
0.175218 0.031626 0.897187
0.291548 0.033424 0.900520
0.409603 0.035245 0.903870
0.529062 0.037086 0.907228
0.649734 0.038942 0.910588
0.771491 0.040812 0.913946
0.894238 0.042695 0.917300
0.026447 0.093263 0.898786
0.069378 0.095126 0.900124
0.183816 0.098333 0.903506
0.300671 0.101602 0.906926
0.419260 0.104914 0.910363
0.539262 0.108261 0.913807
0.660482 0.111636 0.917252
0.782792 0.115037 0.920694
0.906095 0.118460 0.924131
0.033262 0.222572 0.910622
0.081014 0.224623 0.912059
0.196250 0.228081 0.915372
0.313894 0.231602 0.918723
0.433257 0.235166 0.922090
0.554013 0.238761 0.925463
0.675967 0.242382 0.928836
0.798988 0.246026 0.932207
0.922981 0.249690 0.935571
0.040114 0.353540 0.922219
0.092732 0.355785 0.923750
0.208725 0.359470 0.926996
0.327115 0.363217 0.930276
0.447208 0.367005 0.933573
0.568674 0.370822 0.936875
0.691318 0.374663 0.940177
0.815008 0.378523 0.943476
0.936229 0.382333 0.946681
0.047003 0.486036 0.933578
0.104527 0.488479 0.935199
0.221236 0.492364 0.938375
0.340329 0.496312 0.941587
0.461108 0.500297 0.944813
0.583241 0.504310 0.948044
0.706531 0.508344 0.951275
0.830845 0.512394 0.954502
0.947972 0.516288 0.957522
0.053930 0.619929 0.944700
0.116395 0.622571 0.946404
0.233776 0.626631 0.949512
0.353530 0.630752 0.952654
0.474952 0.634910 0.955810
0.597709 0.639092 0.958970
0.721601 0.643292 0.962130
0.846495 0.647505 0.965285
0.959445 0.651446 0.968124
0.060895 0.755088 0.955583
0.128330 0.757927 0.957366
0.246342 0.762136 0.960406
0.366714 0.766406 0.963478
0.488736 0.770709 0.966563
0.612073 0.775034 0.969653
0.736524 0.779374 0.972741
0.861953 0.783723 0.975824
0.970646 0.787676 0.978488
0.067897 0.891382 0.966228
0.140329 0.894413 0.968084
0.258929 0.898746 0.971056
0.379876 0.903138 0.974058
0.502455 0.907560 0.977073
0.626328 0.912002 0.980092
0.751293 0.916454 0.983109
0.877214 0.920913 0.986121
0.981577 0.924847 0.988614
0.071813 0.967740 0.972054
0.149039 0.969696 0.973906
0.267868 0.972682 0.976735
0.389024 0.975700 0.979593
0.511791 0.978730 0.982464
0.635829 0.981763 0.985339
0.760938 0.984795 0.988213
0.886981 0.987822 0.991082
0.986667 0.990196 0.993333
