apps/web/public/brand-library/luts/filmic-teal-orange.cube
TITLE "Filmic Teal-Orange"
LUT_3D_SIZE 33
DOMAIN_MIN 0.0 0.0 0.0
DOMAIN_MAX 1.0 1.0 1.0
0.024706 0.049412 0.060882
0.024706 0.049412 0.060882
0.024706 0.049412 0.060882
0.040499 0.049746 0.061001
0.068219 0.050333 0.061211
0.096569 0.050934 0.061427
0.125423 0.051546 0.061648
0.154699 0.052168 0.061873
0.184342 0.052799 0.062103
0.214310 0.053438 0.062337
0.244569 0.054083 0.062574
0.275094 0.054735 0.062815
0.305863 0.055393 0.063060
0.336858 0.056057 0.063308
0.368065 0.056726 0.063559
0.399469 0.057400 0.063814
0.431060 0.058080 0.064072
0.462827 0.058764 0.064332
0.494762 0.059453 0.064596
0.526855 0.060146 0.064863
0.559100 0.060844 0.065133
0.591489 0.061546 0.065406
0.624017 0.062252 0.065682
0.656678 0.062963 0.065960
0.689465 0.063677 0.066242
0.722376 0.064395 0.066526
0.755404 0.065117 0.066813
0.788545 0.065842 0.067104
0.821795 0.066572 0.067397
0.844017 0.067060 0.067593
0.844017 0.067060 0.067593
0.844017 0.067060 0.067593
0.844017 0.067060 0.067593
0.024706 0.049412 0.060882
0.024706 0.049412 0.060882
0.024706 0.049412 0.060882
0.039707 0.049729 0.060995
0.067427 0.050316 0.061205
0.095776 0.050917 0.061421
0.124629 0.051530 0.061641
0.153905 0.052152 0.061867
0.183547 0.052782 0.062097
0.213514 0.053421 0.062330
0.243772 0.054066 0.062568
0.274297 0.054718 0.062809
0.305065 0.055376 0.063054
0.336060 0.056040 0.063302
0.367266 0.056709 0.063553
0.398670 0.057383 0.063807
0.430260 0.058063 0.064065
0.462027 0.058747 0.064326
0.493960 0.059436 0.064590
0.526053 0.060129 0.064856
0.558297 0.060827 0.065126
0.590686 0.061529 0.065399
0.623214 0.062235 0.065675
0.655874 0.062945 0.065953
0.688661 0.063659 0.066235
0.721571 0.064377 0.066519
0.754599 0.065099 0.066806
0.787740 0.065825 0.067097
0.820990 0.066554 0.067389
0.844017 0.067060 0.067593
0.844017 0.067060 0.067593
0.844017 0.067060 0.067593
0.844017 0.067060 0.067593
0.024886 0.050663 0.060913
0.024867 0.050535 0.060910
0.024829 0.050267 0.060903
0.038820 0.050282 0.061002
0.066497 0.050578 0.061205
0.094804 0.050897 0.061413
0.123656 0.051509 0.061634
0.152931 0.052131 0.061859
0.182573 0.052761 0.062089
0.212538 0.053400 0.062323
0.242796 0.054045 0.062560
0.273319 0.054697 0.062801
0.304087 0.055355 0.063046
0.335081 0.056019 0.063294
0.366286 0.056688 0.063545
0.397689 0.057362 0.063799
0.429279 0.058042 0.064057
0.461045 0.058726 0.064318
0.492978 0.059415 0.064581
0.525070 0.060108 0.064848
0.557314 0.060806 0.065118
0.589702 0.061507 0.065391
0.622229 0.062214 0.065666
0.654888 0.062924 0.065945
0.687675 0.063638 0.066226
0.720585 0.064356 0.066511
0.753612 0.065078 0.066798
0.786752 0.065803 0.067088
0.820002 0.066532 0.067381
0.844017 0.067060 0.067593
0.844017 0.067060 0.067593
0.844017 0.067060 0.067593
0.844017 0.067060 0.067593
0.029000 0.079305 0.061626
0.028981 0.079177 0.061623
0.028943 0.078908 0.061616
0.041972 0.078909 0.061709
0.069690 0.079220 0.061916
0.098036 0.079538 0.062129
0.126883 0.079862 0.062347
0.156152 0.080192 0.062570
0.185784 0.080526 0.062797
0.215738 0.080865 0.063027
0.245982 0.081207 0.063261
0.276490 0.081553 0.063499
0.307239 0.081902 0.063740
0.338212 0.082255 0.063984
0.369395 0.082610 0.064231
0.400773 0.082969 0.064481
0.432335 0.083330 0.064735
0.464072 0.083694 0.064991
0.495974 0.084061 0.065250
0.528032 0.084430 0.065512
0.560240 0.084802 0.065777
0.592591 0.085176 0.066045
0.625078 0.085552 0.066316
0.657697 0.085931 0.066589
0.690440 0.086313 0.066865
0.723305 0.086697 0.067144
0.756285 0.087083 0.067425
0.789377 0.087471 0.067709
0.822576 0.087861 0.067996
0.847538 0.088068 0.068211
0.847480 0.087718 0.068200
0.847421 0.087367 0.068190
0.847408 0.087286 0.068188
0.033151 0.108252 0.062360
0.033132 0.108123 0.062357
0.033094 0.107853 0.062350
0.045151 0.107838 0.062438
0.072908 0.108163 0.062650
0.101293 0.108495 0.062868
0.130179 0.108833 0.063091
0.159485 0.109177 0.063318
0.189154 0.109525 0.063550
0.219145 0.109877 0.063785
0.249423 0.110233 0.064024
0.279964 0.110593 0.064267
0.310746 0.110956 0.064513
0.341751 0.111322 0.064763
0.372963 0.111691 0.065015
0.404370 0.112062 0.065271
0.435960 0.112437 0.065529
0.467723 0.112814 0.065791
0.499649 0.113193 0.066056
0.531731 0.113575 0.066323
0.563960 0.113959 0.066593
0.596331 0.114346 0.066867
0.628837 0.114735 0.067143
0.661473 0.115126 0.067421
0.694232 0.115519 0.067703
0.727110 0.115915 0.067987
0.760103 0.116312 0.068274
0.793206 0.116712 0.068564
0.826414 0.117113 0.068856
0.852390 0.117351 0.069084
0.852332 0.117000 0.069074
0.852274 0.116648 0.069063
0.852261 0.116567 0.069060
0.037331 0.137442 0.063116
0.037312 0.137313 0.063112
0.037274 0.137043 0.063105
0.048349 0.137010 0.063187
0.076145 0.137347 0.063404
0.104567 0.137692 0.063626
0.133489 0.138043 0.063854
0.162831 0.138399 0.064087
0.192535 0.138760 0.064323
0.222560 0.139125 0.064564
0.252871 0.139494 0.064808
0.283444 0.139866 0.065056
0.314256 0.140241 0.065307
0.345290 0.140619 0.065562
0.376530 0.141000 0.065820
0.407964 0.141384 0.066081
0.439579 0.141770 0.066345
0.471365 0.142159 0.066612
0.503314 0.142550 0.066882
0.535416 0.142943 0.067155
0.567665 0.143339 0.067431
0.600054 0.143737 0.067709
0.632577 0.144136 0.067991
0.665227 0.144538 0.068275
0.698000 0.144942 0.068562
0.730890 0.145347 0.068852
0.763893 0.145755 0.069144
0.797004 0.146165 0.069440
0.830219 0.146576 0.069737
0.857212 0.146844 0.069979
0.857155 0.146493 0.069968
0.857098 0.146140 0.069957
0.857084 0.146059 0.069955
0.041536 0.166839 0.063892
0.041517 0.166709 0.063888
0.041479 0.166438 0.063881
0.051565 0.166386 0.063956
0.079396 0.166735 0.064177
0.107853 0.167091 0.064405
0.136811 0.167454 0.064638
0.166186 0.167822 0.064875
0.195923 0.168194 0.065117
0.225979 0.168571 0.065363
0.256322 0.168951 0.065612
0.286924 0.169334 0.065865
0.317765 0.169720 0.066122
0.348826 0.170110 0.066382
0.380092 0.170502 0.066645
0.411549 0.170896 0.066911
0.443187 0.171293 0.067180
0.474995 0.171692 0.067453
0.506964 0.172093 0.067728
0.539085 0.172496 0.068007
0.571351 0.172902 0.068288
0.603756 0.173309 0.068572
0.636292 0.173718 0.068859
0.668955 0.174130 0.069149
0.701739 0.174542 0.069441
0.734638 0.174957 0.069737
0.767649 0.175374 0.070035
0.800766 0.175792 0.070336
0.833986 0.176211 0.070639
0.861999 0.176510 0.070895
0.861942 0.176158 0.070884
0.861885 0.175805 0.070873
0.861872 0.175723 0.070870
0.045763 0.196415 0.064687
0.045744 0.196285 0.064684
0.045705 0.196014 0.064676
0.054795 0.195941 0.064745
0.082660 0.196300 0.064971
0.111151 0.196667 0.065203
0.140141 0.197040 0.065441
0.169548 0.197418 0.065683
0.199316 0.197801 0.065930
0.229402 0.198187 0.066181
0.259773 0.198577 0.066436
0.290402 0.198970 0.066694
0.321269 0.199367 0.066956
0.352355 0.199766 0.067221
0.383644 0.200167 0.067489
0.415124 0.200571 0.067761
0.446783 0.200977 0.068036
0.478610 0.201385 0.068314
0.510597 0.201795 0.068594
0.542734 0.202207 0.068878
0.575015 0.202621 0.069165
0.607433 0.203037 0.069455
0.639981 0.203454 0.069747
0.672654 0.203873 0.070042
0.705446 0.204294 0.070340
0.738353 0.204716 0.070641
0.771368 0.205140 0.070945
0.804490 0.205565 0.071252
0.837712 0.205992 0.071561
0.866745 0.206320 0.071831
0.866690 0.205968 0.071820
0.866634 0.205614 0.071809
0.866621 0.205532 0.071806
0.050009 0.226150 0.065502
0.049990 0.226019 0.065499
0.049952 0.225747 0.065491
0.058039 0.225653 0.065553
0.085936 0.226021 0.065784
0.114458 0.226397 0.066021
0.143479 0.226779 0.066263
0.172916 0.227167 0.066511
0.202712 0.227558 0.066763
0.232825 0.227954 0.067019
0.263223 0.228352 0.067279
0.293877 0.228754 0.067542
0.324768 0.229159 0.067809
0.355876 0.229566 0.068080
0.387187 0.229976 0.068354
0.418687 0.230388 0.068631
0.450364 0.230802 0.068911
0.482208 0.231217 0.069194
0.514210 0.231635 0.069480
0.546361 0.232054 0.069769
0.578655 0.232476 0.070062
0.611083 0.232898 0.070357
0.643641 0.233322 0.070655
0.676322 0.233748 0.070956
0.709120 0.234175 0.071259
0.742031 0.234604 0.071566
0.775050 0.235034 0.071875
0.808172 0.235465 0.072187
0.841394 0.235897 0.072502
0.871450 0.236254 0.072787
0.871395 0.235901 0.072776
0.871339 0.235547 0.072765
0.871327 0.235465 0.072762
0.054274 0.256025 0.066337
0.054255 0.255895 0.066334
0.054216 0.255622 0.066326
0.061296 0.255506 0.066380
0.089222 0.255882 0.066615
0.117774 0.256265 0.066857
0.146823 0.256655 0.067105
0.176287 0.257050 0.067358
0.206110 0.257450 0.067615
0.236249 0.257853 0.067876
0.266670 0.258259 0.068141
0.297348 0.258668 0.068410
0.328260 0.259080 0.068682
0.359389 0.259494 0.068958
0.390718 0.259911 0.069237
0.422235 0.260329 0.069519
0.453929 0.260750 0.069805
0.485787 0.261172 0.070094
0.517802 0.261596 0.070385
0.549965 0.262021 0.070680
0.582269 0.262448 0.070978
0.614706 0.262876 0.071278
0.647271 0.263306 0.071582
0.679957 0.263737 0.071888
0.712759 0.264169 0.072198
0.745672 0.264602 0.072510
0.778691 0.265036 0.072825
0.811812 0.265472 0.073142
0.845031 0.265908 0.073463
0.876109 0.266293 0.073764
0.876055 0.265940 0.073752
0.876000 0.265585 0.073740
0.875987 0.265504 0.073738
0.058555 0.286027 0.067191
0.058536 0.285897 0.067188
0.058497 0.285623 0.067180
0.064564 0.285483 0.067226
0.092519 0.285866 0.067466
0.121097 0.286256 0.067713
0.150172 0.286653 0.067966
0.179662 0.287054 0.068224
0.209509 0.287460 0.068486
0.239671 0.287869 0.068752
0.270115 0.288282 0.069022
0.300813 0.288697 0.069296
0.331744 0.289115 0.069574
0.362891 0.289534 0.069855
0.394237 0.289956 0.070140
0.425770 0.290380 0.070427
0.457476 0.290806 0.070718
0.489347 0.291233 0.071012
0.521373 0.291662 0.071310
0.553545 0.292092 0.071610
0.585857 0.292523 0.071913
0.618300 0.292955 0.072219
0.650869 0.293389 0.072528
0.683558 0.293823 0.072840
0.716361 0.294259 0.073155
0.749274 0.294696 0.073473
0.782291 0.295133 0.073793
0.815408 0.295572 0.074117
0.848621 0.296011 0.074443
0.880722 0.296422 0.074759
0.880668 0.296069 0.074748
0.880614 0.295714 0.074736
0.880602 0.295632 0.074733
0.062853 0.316142 0.068065
0.062834 0.316011 0.068061
0.062795 0.315737 0.068053
0.067844 0.315573 0.068091
0.095824 0.315961 0.068336
0.124428 0.316357 0.068588
0.153527 0.316759 0.068846
0.183040 0.317165 0.069108
0.212909 0.317576 0.069376
0.243092 0.317990 0.069647
0.273555 0.318408 0.069923
0.304272 0.318827 0.070202
0.335220 0.319250 0.070485
0.366383 0.319674 0.070771
0.397743 0.320100 0.071061
0.429288 0.320528 0.071354
0.461006 0.320957 0.071651
0.492887 0.321388 0.071950
0.524921 0.321820 0.072253
0.557100 0.322253 0.072559
0.589417 0.322687 0.072867
0.621864 0.323122 0.073179
0.654435 0.323558 0.073494
0.687124 0.323995 0.073811
0.719926 0.324433 0.074132
0.752836 0.324872 0.074455
0.785849 0.325311 0.074781
0.818960 0.325751 0.075110
0.852165 0.326191 0.075442
0.885286 0.326628 0.075775
0.885233 0.326274 0.075763
0.885180 0.325920 0.075751
0.885168 0.325838 0.075748
0.067165 0.346356 0.068958
0.067147 0.346225 0.068954
0.067108 0.345951 0.068946
0.071135 0.345763 0.068975
0.099139 0.346155 0.069225
0.127765 0.346555 0.069481
0.156886 0.346961 0.069744
0.186421 0.347371 0.070012
0.216310 0.347786 0.070284
0.246511 0.348203 0.070561
0.276991 0.348624 0.070842
0.307724 0.349047 0.071126
0.338687 0.349473 0.071415
0.369863 0.349900 0.071706
0.401235 0.350329 0.072002
0.432791 0.350759 0.072300
0.464518 0.351191 0.072602
0.496406 0.351623 0.072907
0.528446 0.352057 0.073215
0.560630 0.352492 0.073527
0.592949 0.352928 0.073841
0.625397 0.353365 0.074158
0.657968 0.353802 0.074478
0.690655 0.354240 0.074802
0.723453 0.354678 0.075128
0.756358 0.355117 0.075457
0.789363 0.355557 0.075788
0.822466 0.355996 0.076123
0.855661 0.356437 0.076461
0.888944 0.356877 0.076801
0.889749 0.356544 0.076798
0.889697 0.356189 0.076786
0.889685 0.356108 0.076783
0.071493 0.376660 0.069870
0.071474 0.376529 0.069866
0.071435 0.376255 0.069857
0.074436 0.376041 0.069877
0.102462 0.376436 0.070132
0.131109 0.376839 0.070394
0.160250 0.377247 0.070662
0.189803 0.377660 0.070934
0.219710 0.378077 0.071212
0.249927 0.378497 0.071494
0.280423 0.378920 0.071780
0.311169 0.379345 0.072070
0.342145 0.379772 0.072363
0.373332 0.380201 0.072661
0.404714 0.380631 0.072961
0.436277 0.381063 0.073265
0.468011 0.381495 0.073572
0.499904 0.381929 0.073883
0.531948 0.382364 0.074197
0.564133 0.382799 0.074513
0.596453 0.383235 0.074833
0.628900 0.383671 0.075156
0.661467 0.384108 0.075482
0.694150 0.384545 0.075811
0.726942 0.384983 0.076142
0.759839 0.385421 0.076477
0.792835 0.385859 0.076815
0.825926 0.386298 0.077155
0.859108 0.386736 0.077498
0.892376 0.387175 0.077844
0.894215 0.386866 0.077852
0.894163 0.386512 0.077840
0.894151 0.386430 0.077837
0.075834 0.407042 0.070801
0.075816 0.406911 0.070797
0.075776 0.406636 0.070788
0.077749 0.406396 0.070799
0.105794 0.406793 0.071058
0.134459 0.407198 0.071325
0.163618 0.407608 0.071598
0.193188 0.408022 0.071876
0.223110 0.408440 0.072159
0.253341 0.408862 0.072446
0.283850 0.409285 0.072737
0.314607 0.409711 0.073032
0.345593 0.410138 0.073331
0.376788 0.410567 0.073634
0.408177 0.410997 0.073940
0.439747 0.411428 0.074249
0.471485 0.411861 0.074562
0.503381 0.412294 0.074878
0.535425 0.412727 0.075197
0.567610 0.413161 0.075519
0.599928 0.413596 0.075845
0.632371 0.414031 0.076173
0.664933 0.414466 0.076504
0.697609 0.414901 0.076839
0.730392 0.415337 0.077176
0.763278 0.415772 0.077517
0.796262 0.416208 0.077860
0.829339 0.416643 0.078206
0.862506 0.417079 0.078555
0.895757 0.417514 0.078906
0.898629 0.417230 0.078926
0.898578 0.416875 0.078913
0.898566 0.416793 0.078910
0.080189 0.437492 0.071751
0.080171 0.437360 0.071747
0.080131 0.437085 0.071738
0.081072 0.436820 0.071739
0.109134 0.437218 0.072003
0.137816 0.437622 0.072275
0.166990 0.438032 0.072553
0.196574 0.438447 0.072836
0.226509 0.438865 0.073124
0.256752 0.439286 0.073416
0.287271 0.439709 0.073713
0.318038 0.440133 0.074013
0.349032 0.440560 0.074317
0.380233 0.440987 0.074625
0.411627 0.441416 0.074937
0.443199 0.441846 0.075252
0.474939 0.442276 0.075570
0.506835 0.442707 0.075891
0.538878 0.443138 0.076216
0.571060 0.443570 0.076544
0.603373 0.444002 0.076875
0.635810 0.444434 0.077209
0.668364 0.444866 0.077546
0.701030 0.445298 0.077886
0.733803 0.445729 0.078229
0.766676 0.446161 0.078575
0.799645 0.446592 0.078924
0.832706 0.447023 0.079276
0.865854 0.447454 0.079630
0.899086 0.447885 0.079988
0.902992 0.447624 0.080019
0.902941 0.447270 0.080006
0.902930 0.447188 0.080003
0.084558 0.467999 0.072721
0.084539 0.467868 0.072717
0.084500 0.467593 0.072708
0.084458 0.467303 0.072698
0.112482 0.467698 0.072967
0.141179 0.468102 0.073244
0.170366 0.468511 0.073527
0.199962 0.468924 0.073815
0.229908 0.469341 0.074108
0.260161 0.469760 0.074406
0.290687 0.470181 0.074707
0.321461 0.470603 0.075013
0.352460 0.471027 0.075323
0.383665 0.471452 0.075636
0.415061 0.471878 0.075953
0.446635 0.472305 0.076273
0.478374 0.472732 0.076597
0.510268 0.473159 0.076924
0.542307 0.473587 0.077254
0.574483 0.474015 0.077587
0.606789 0.474442 0.077924
0.639217 0.474870 0.078264
0.671761 0.475297 0.078606
0.704415 0.475724 0.078952
0.737174 0.476151 0.079301
0.770031 0.476577 0.079652
0.802983 0.477003 0.080007
0.836025 0.477428 0.080364
0.869153 0.477852 0.080725
0.902362 0.478276 0.081088
0.907302 0.478040 0.081131
0.907252 0.477686 0.081118
0.907240 0.477604 0.081115
0.088939 0.498555 0.073709
0.088920 0.498424 0.073705
0.088881 0.498149 0.073696
0.088839 0.497859 0.073687
0.115839 0.498226 0.073950
0.144548 0.498628 0.074232
0.173746 0.499035 0.074519
0.203351 0.499445 0.074813
0.233306 0.499859 0.075111
0.263566 0.500274 0.075414
0.294098 0.500692 0.075721
0.324877 0.501111 0.076032
0.355878 0.501531 0.076347
0.387085 0.501952 0.076665
0.418481 0.502374 0.076988
0.450053 0.502796 0.077314
0.481789 0.503219 0.077643
0.513678 0.503641 0.077975
0.545711 0.504064 0.078311
0.577879 0.504486 0.078650
0.610175 0.504908 0.078992
0.642592 0.505329 0.079337
0.675123 0.505751 0.079686
0.707763 0.506171 0.080037
0.740505 0.506591 0.080391
0.773345 0.507010 0.080748
0.806277 0.507429 0.081109
0.839298 0.507847 0.081472
0.872402 0.508264 0.081838
0.905586 0.508680 0.082207
0.911558 0.508466 0.082263
0.911509 0.508113 0.082250
0.911498 0.508031 0.082247
0.093333 0.529150 0.074717
0.093314 0.529018 0.074713
0.093275 0.528743 0.074704
0.093233 0.528454 0.074694
0.119204 0.528793 0.074951
0.147923 0.529191 0.075238
0.177130 0.529594 0.075531
0.206742 0.530000 0.075829
0.236703 0.530409 0.076133
0.266968 0.530821 0.076441
0.297504 0.531234 0.076753
0.328284 0.531648 0.077069
0.359286 0.532063 0.077390
0.390492 0.532478 0.077714
0.421886 0.532894 0.078041
0.453454 0.533311 0.078373
0.485184 0.533727 0.078707
0.517066 0.534143 0.079045
0.549090 0.534559 0.079387
0.581248 0.534974 0.079731
0.613532 0.535389 0.080079
0.645935 0.535803 0.080430
0.678451 0.536217 0.080784
0.711073 0.536630 0.081141
0.743796 0.537041 0.081501
0.776615 0.537452 0.081864
0.809525 0.537862 0.082230
0.842522 0.538271 0.082598
0.875600 0.538679 0.082970
0.908757 0.539086 0.083345
0.915761 0.538895 0.083414
0.915712 0.538542 0.083401
0.915701 0.538460 0.083398
0.097739 0.559774 0.075744
0.097720 0.559643 0.075739
0.097681 0.559368 0.075730
0.097639 0.559078 0.075720
0.122578 0.559388 0.075971
0.151304 0.559781 0.076263
0.180517 0.560179 0.076561
0.210135 0.560580 0.076864
0.240100 0.560984 0.077173
0.270367 0.561389 0.077486
0.300904 0.561796 0.077804
0.331684 0.562204 0.078126
0.362684 0.562612 0.078451
0.393887 0.563021 0.078781
0.425276 0.563430 0.079114
0.456837 0.563839 0.079451
0.488559 0.564248 0.079791
0.520431 0.564656 0.080134
0.552444 0.565064 0.080481
0.584589 0.565471 0.080831
0.616859 0.565877 0.081185
0.649246 0.566282 0.081541
0.681743 0.566687 0.081901
0.714346 0.567090 0.082263
0.747048 0.567493 0.082629
0.779844 0.567894 0.082998
0.812729 0.568294 0.083369
0.845699 0.568692 0.083744
0.878749 0.569089 0.084121
0.911875 0.569485 0.084502
0.919909 0.569315 0.084584
0.919862 0.568963 0.084571
0.919851 0.568881 0.084568
0.102157 0.590420 0.076790
0.102138 0.590288 0.076785
0.102099 0.590014 0.076776
0.102057 0.589724 0.076766
0.125960 0.590003 0.077010
0.154691 0.590390 0.077307
0.183909 0.590782 0.077610
0.213530 0.591176 0.077918
0.243496 0.591573 0.078232
0.273763 0.591971 0.078551
0.304299 0.592370 0.078874
0.335076 0.592771 0.079201
0.366072 0.593171 0.079532
0.397269 0.593572 0.079867
0.428650 0.593972 0.080205
0.460203 0.594372 0.080547
0.491914 0.594772 0.080893
0.523774 0.595171 0.081242
0.555773 0.595569 0.081594
0.587903 0.595966 0.081950
0.620155 0.596363 0.082309
0.652523 0.596758 0.082671
0.685001 0.597152 0.083036
0.717581 0.597544 0.083405
0.750259 0.597936 0.083776
0.783029 0.598325 0.084150
0.815887 0.598714 0.084528
0.848827 0.599100 0.084908
0.881846 0.599485 0.085291
0.914940 0.599869 0.085678
0.924003 0.599719 0.085774
0.923956 0.599367 0.085760
0.923945 0.599286 0.085757
0.106587 0.621077 0.077855
0.106568 0.620946 0.077850
0.106529 0.620671 0.077841
0.106487 0.620382 0.077831
0.129350 0.620630 0.078068
0.158085 0.621010 0.078369
0.187304 0.621393 0.078677
0.216926 0.621780 0.078991
0.246891 0.622168 0.079310
0.277156 0.622558 0.079634
0.307689 0.622948 0.079962
0.338460 0.623339 0.080295
0.369450 0.623730 0.080631
0.400638 0.624121 0.080971
0.432010 0.624512 0.081315
0.463551 0.624902 0.081663
0.495250 0.625291 0.082014
0.527095 0.625679 0.082369
0.559078 0.626067 0.082727
0.591189 0.626453 0.083088
0.623422 0.626837 0.083452
0.655769 0.627221 0.083820
0.688223 0.627603 0.084191
0.720778 0.627983 0.084565
0.753430 0.628362 0.084942
0.786172 0.628739 0.085322
0.818999 0.629114 0.085705
0.851908 0.629487 0.086091
0.884893 0.629859 0.086480
0.917951 0.630228 0.086872
0.928042 0.630097 0.086983
0.927995 0.629746 0.086969
0.927985 0.629665 0.086966
0.111029 0.651737 0.078939
0.111010 0.651606 0.078934
0.110970 0.651332 0.078925
0.110929 0.651043 0.078914
0.132749 0.651260 0.079144
0.161485 0.651631 0.079450
0.190704 0.652005 0.079764
0.220324 0.652382 0.080083
0.250286 0.652761 0.080407
0.280547 0.653141 0.080736
0.311073 0.653521 0.081069
0.341837 0.653901 0.081407
0.372817 0.654282 0.081749
0.403995 0.654662 0.082095
0.435355 0.655041 0.082444
0.466882 0.655419 0.082797
0.498565 0.655796 0.083154
0.530393 0.656173 0.083514
0.562357 0.656547 0.083878
0.594448 0.656921 0.084244
0.626659 0.657292 0.084615
0.658982 0.657663 0.084988
0.691410 0.658031 0.085364
0.723938 0.658397 0.085744
0.756561 0.658762 0.086127
0.789272 0.659125 0.086513
0.822066 0.659485 0.086901
0.854941 0.659844 0.087293
0.887890 0.660200 0.087688
0.920910 0.660554 0.088086
0.932025 0.660441 0.088211
0.931979 0.660091 0.088197
0.931968 0.660010 0.088193
0.115483 0.682393 0.080042
0.115463 0.682262 0.080038
0.115424 0.681988 0.080028
0.115382 0.681699 0.080017
0.136157 0.681884 0.080239
0.164891 0.682245 0.080550
0.194108 0.682609 0.080869
0.223724 0.682975 0.081193
0.253680 0.683343 0.081522
0.283934 0.683711 0.081857
0.314452 0.684080 0.082195
0.345206 0.684448 0.082539
0.376175 0.684817 0.082886
0.407340 0.685184 0.083237
0.438684 0.685550 0.083592
0.470195 0.685916 0.083950
0.501860 0.686280 0.084313
0.533669 0.686642 0.084678
0.565612 0.687003 0.085047
0.597680 0.687362 0.085420
0.629866 0.687719 0.085796
0.662162 0.688075 0.086174
0.694562 0.688428 0.086557
0.727060 0.688779 0.086942
0.759651 0.689128 0.087330
0.792329 0.689475 0.087722
0.825088 0.689820 0.088116
0.857925 0.690162 0.088514
0.890836 0.690501 0.088915
0.923815 0.690838 0.089318
0.935952 0.690742 0.089458
0.935907 0.690392 0.089444
0.935896 0.690311 0.089441
0.119947 0.713034 0.081165
0.119928 0.712903 0.081160
0.119888 0.712629 0.081150
0.119846 0.712341 0.081139
0.139574 0.712494 0.081353
0.168304 0.712844 0.081669
0.197516 0.713196 0.081993
0.227125 0.713550 0.082322
0.257074 0.713906 0.082657
0.287319 0.714261 0.082996
0.317826 0.714617 0.083340
0.348568 0.714972 0.083689
0.379523 0.715326 0.084041
0.410672 0.715680 0.084398
0.441999 0.716032 0.084758
0.473491 0.716383 0.085122
0.505136 0.716732 0.085490
0.536922 0.717079 0.085861
0.568841 0.717425 0.086236
0.600884 0.717768 0.086614
0.633042 0.718110 0.086995
0.665310 0.718449 0.087380
0.697679 0.718786 0.087768
0.730145 0.719120 0.088159
0.762701 0.719452 0.088553
0.795343 0.719781 0.088950
0.828064 0.720108 0.089350
0.860862 0.720432 0.089754
0.893731 0.720754 0.090160
0.926667 0.721073 0.090569
0.939823 0.720990 0.090725
0.939779 0.720642 0.090710
0.939768 0.720561 0.090707
0.124423 0.743652 0.082306
0.124404 0.743522 0.082302
0.124364 0.743249 0.082291
0.124322 0.742961 0.082280
0.142999 0.743082 0.082485
0.171724 0.743419 0.082807
0.200929 0.743758 0.083135
0.230529 0.744099 0.083470
0.260468 0.744440 0.083809
0.290701 0.744782 0.084154
0.321195 0.745123 0.084504
0.351922 0.745463 0.084858
0.382860 0.745803 0.085216
0.413991 0.746141 0.085578
0.445299 0.746477 0.085943
0.476770 0.746812 0.086313
0.508392 0.747145 0.086686
0.540154 0.747476 0.087063
0.572046 0.747805 0.087443
0.604061 0.748131 0.087827
0.636189 0.748455 0.088214
0.668425 0.748776 0.088604
0.700761 0.749095 0.088998
0.733192 0.749411 0.089394
0.765711 0.749725 0.089794
0.798314 0.750035 0.090197
0.830995 0.750343 0.090603
0.863750 0.750648 0.091012
0.896575 0.750949 0.091424
0.929465 0.751248 0.091840
0.943637 0.751179 0.092011
0.943594 0.750831 0.091996
0.943584 0.750751 0.091993
0.128910 0.774240 0.083467
0.128891 0.774110 0.083462
0.128851 0.773837 0.083452
0.128809 0.773550 0.083441
0.146434 0.773639 0.083636
0.175151 0.773962 0.083963
0.204346 0.774287 0.084297
0.233935 0.774613 0.084636
0.263862 0.774939 0.084981
0.294081 0.775265 0.085331
0.324559 0.775591 0.085686
0.355269 0.775915 0.086045
0.386188 0.776238 0.086409
0.417299 0.776559 0.086776
0.448585 0.776878 0.087148
0.480032 0.777196 0.087523
0.511628 0.777511 0.087901
0.543362 0.777824 0.088284
0.575226 0.778134 0.088670
0.607210 0.778442 0.089059
0.639306 0.778747 0.089451
0.671508 0.779049 0.089847
0.703808 0.779348 0.090246
0.736201 0.779645 0.090649
0.768681 0.779938 0.091054
0.801242 0.780228 0.091463
0.833881 0.780515 0.091875
