apps/web/public/brand-library/luts/filmic-teal-orange.cube
TITLE "Filmic Teal-Orange"
LUT_3D_SIZE 5
DOMAIN_MIN 0.0 0.0 0.0
DOMAIN_MAX 1.0 1.0 1.0
0.024706 0.049412 0.060882
0.184342 0.052799 0.062103
0.431060 0.058080 0.064072
0.689465 0.063677 0.066242
0.844017 0.067060 0.067593
0.050009 0.226150 0.065502
0.202712 0.227558 0.066763
0.450364 0.230802 0.068911
0.709120 0.234175 0.071259
0.871327 0.235465 0.072762
0.084558 0.467999 0.072721
0.229908 0.469341 0.074108
0.478374 0.472732 0.076597
0.737174 0.476151 0.079301
0.907240 0.477604 0.081115
0.119947 0.713034 0.081165
0.257074 0.713906 0.082657
0.505136 0.716732 0.085490
0.762701 0.719452 0.088553
0.939768 0.720561 0.090707
0.147261 0.898089 0.088383
0.275954 0.900534 0.090004
0.523226 0.905000 0.093216
0.779279 0.909306 0.096680
0.963180 0.912198 0.099260
0.027825 0.050918 0.261566
0.186804 0.054290 0.261253
0.433681 0.059578 0.261512
0.692174 0.065182 0.261773
0.847535 0.068580 0.261099
0.052924 0.226959 0.260344
0.204896 0.228329 0.259849
0.452621 0.231550 0.260000
0.711386 0.234902 0.260159
0.874361 0.236191 0.259478
0.087388 0.468806 0.260932
0.231934 0.470093 0.260350
0.480374 0.473436 0.260519
0.739084 0.476806 0.260710
0.909855 0.478241 0.260146
0.122688 0.713650 0.261608
0.258954 0.714459 0.260961
0.506898 0.717214 0.261188
0.764283 0.719864 0.261451
0.941986 0.720938 0.261038
0.150023 0.899257 0.260343
0.277821 0.901632 0.259722
0.524904 0.906006 0.260121
0.780703 0.910217 0.260577
0.965170 0.913052 0.260431
0.031122 0.052515 0.473918
0.189510 0.055889 0.474096
0.436592 0.061205 0.475039
0.695218 0.066838 0.475895
0.851396 0.070270 0.475527
0.056140 0.227960 0.474250
0.207450 0.229310 0.474050
0.455294 0.232530 0.474620
0.714106 0.235882 0.475104
0.877849 0.237189 0.474577
0.090646 0.469873 0.476028
0.234454 0.471122 0.475530
0.482900 0.474432 0.475780
0.741541 0.477769 0.475944
0.912997 0.479202 0.475309
0.125989 0.714563 0.476768
0.261452 0.715319 0.476016
0.509287 0.718011 0.475982
0.766485 0.720596 0.475861
0.944778 0.721642 0.475128
0.153476 0.900687 0.474805
0.280425 0.902997 0.473939
0.527304 0.907272 0.473791
0.782809 0.911381 0.473558
0.967768 0.914153 0.472844
0.034361 0.054092 0.682745
0.192161 0.057467 0.683357
0.439433 0.062810 0.684906
0.698177 0.068471 0.686275
0.855149 0.071937 0.686169
0.059299 0.228941 0.684436
0.209952 0.230272 0.684484
0.457902 0.233491 0.685403
0.716751 0.236843 0.686143
0.881241 0.238169 0.685726
0.093847 0.470909 0.687176
0.236924 0.472121 0.686724
0.485365 0.475400 0.686992
0.743927 0.478706 0.687064
0.916049 0.480137 0.686318
0.129233 0.715438 0.687772
0.263901 0.716145 0.686884
0.511620 0.718775 0.686531
0.768622 0.721296 0.685971
0.947486 0.722314 0.684876
0.156868 0.902060 0.684953
0.282980 0.904307 0.683817
0.529647 0.908486 0.683066
0.784853 0.912495 0.682088
0.970283 0.915203 0.680761
0.036820 0.055292 0.841414
0.194029 0.058681 0.844381
0.441480 0.064063 0.848780
0.700353 0.069766 0.853038
0.858139 0.073282 0.855466
0.061788 0.229568 0.851532
0.211802 0.230897 0.853818
0.459867 0.234136 0.857413
0.718780 0.237510 0.860855
0.884043 0.238874 0.862859
0.096494 0.471641 0.862808
0.238873 0.472837 0.864441
0.487341 0.476110 0.867116
0.745867 0.479411 0.869601
0.918684 0.480861 0.871075
0.132042 0.716092 0.871112
0.265958 0.716769 0.872150
0.513604 0.719363 0.873896
0.770461 0.721846 0.875413
0.949927 0.722856 0.876286
0.159949 0.903281 0.875413
0.285271 0.905483 0.876060
0.531769 0.909587 0.877110
0.786721 0.913515 0.877880
0.972647 0.916176 0.878235
