apps/web/public/brand-library/luts/filmic-teal-orange.cube
TITLE "Filmic Teal-Orange"
LUT_3D_SIZE 9
DOMAIN_MIN 0.0 0.0 0.0
DOMAIN_MAX 1.0 1.0 1.0
0.024706 0.049412 0.060882
0.068219 0.050333 0.061211
0.184342 0.052799 0.062103
0.305863 0.055393 0.063060
0.431060 0.058080 0.064072
0.559100 0.060844 0.065133
0.689465 0.063677 0.066242
0.821795 0.066572 0.067397
0.844017 0.067060 0.067593
0.033151 0.108252 0.062360
0.072908 0.108163 0.062650
0.189154 0.109525 0.063550
0.310746 0.110956 0.064513
0.435960 0.112437 0.065529
0.563960 0.113959 0.066593
0.694232 0.115519 0.067703
0.826414 0.117113 0.068856
0.852261 0.116567 0.069060
0.050009 0.226150 0.065502
0.085936 0.226021 0.065784
0.202712 0.227558 0.066763
0.324768 0.229159 0.067809
0.450364 0.230802 0.068911
0.578655 0.232476 0.070062
0.709120 0.234175 0.071259
0.841394 0.235897 0.072502
0.871327 0.235465 0.072762
0.067165 0.346356 0.068958
0.099139 0.346155 0.069225
0.216310 0.347786 0.070284
0.338687 0.349473 0.071415
0.464518 0.351191 0.072602
0.592949 0.352928 0.073841
0.723453 0.354678 0.075128
0.855661 0.356437 0.076461
0.889685 0.356108 0.076783
0.084558 0.467999 0.072721
0.112482 0.467698 0.072967
0.229908 0.469341 0.074108
0.352460 0.471027 0.075323
0.478374 0.472732 0.076597
0.606789 0.474442 0.077924
0.737174 0.476151 0.079301
0.869153 0.477852 0.080725
0.907240 0.477604 0.081115
0.102157 0.590420 0.076790
0.125960 0.590003 0.077010
0.243496 0.591573 0.078232
0.366072 0.593171 0.079532
0.491914 0.594772 0.080893
0.620155 0.596363 0.082309
0.750259 0.597936 0.083776
0.881846 0.599485 0.085291
0.923945 0.599286 0.085757
0.119947 0.713034 0.081165
0.139574 0.712494 0.081353
0.257074 0.713906 0.082657
0.379523 0.715326 0.084041
0.505136 0.716732 0.085490
0.633042 0.718110 0.086995
0.762701 0.719452 0.088553
0.893731 0.720754 0.090160
0.939768 0.720561 0.090707
0.137917 0.835289 0.085846
0.153331 0.834629 0.085995
0.270649 0.835796 0.087381
0.392815 0.836949 0.088851
0.518041 0.838067 0.090388
0.645451 0.839137 0.091983
0.774500 0.840154 0.093631
0.904804 0.841110 0.095331
0.954688 0.840872 0.095965
0.147261 0.898089 0.088383
0.158608 0.898308 0.088525
0.275954 0.900534 0.090004
0.398092 0.902778 0.091575
0.523226 0.905000 0.093216
0.650472 0.907180 0.094919
0.779279 0.909306 0.096680
0.909256 0.911367 0.098495
0.963180 0.912198 0.099260
0.026138 0.050102 0.153002
0.069255 0.051010 0.152491
0.185415 0.053474 0.152418
0.306965 0.056064 0.152354
0.432184 0.058748 0.152300
0.560235 0.061508 0.152258
0.690604 0.064337 0.152229
0.822928 0.067227 0.152216
0.845545 0.067717 0.151382
0.034472 0.108532 0.151170
0.073826 0.108427 0.150597
0.190100 0.109783 0.150501
0.311712 0.111207 0.150412
0.436939 0.112681 0.150332
0.564944 0.114196 0.150264
0.695212 0.115749 0.150208
0.827383 0.117335 0.150167
0.853625 0.116790 0.149337
0.051279 0.226446 0.150916
0.086795 0.226300 0.150314
0.203586 0.227826 0.150254
0.325650 0.229417 0.150204
0.451247 0.231049 0.150166
0.579531 0.232712 0.150141
0.709983 0.234401 0.150132
0.842235 0.236111 0.150140
0.872562 0.235681 0.149358
0.068382 0.346644 0.150791
0.099938 0.346423 0.150157
0.217113 0.348041 0.150138
0.339488 0.349714 0.150132
0.465309 0.351419 0.150141
0.593723 0.353142 0.150166
0.724203 0.354879 0.150209
0.856380 0.356623 0.150270
0.890796 0.356295 0.149543
0.085721 0.468256 0.150813
0.113223 0.467936 0.150147
0.230642 0.469563 0.150174
0.353181 0.471233 0.150217
0.479075 0.472922 0.150277
0.607464 0.474616 0.150357
0.737816 0.476308 0.150456
0.869757 0.477994 0.150577
0.908233 0.477745 0.149910
0.103265 0.590627 0.151001
0.126642 0.590191 0.150300
0.244162 0.591743 0.150377
0.366716 0.593324 0.150474
0.492530 0.594907 0.150592
0.620737 0.596480 0.150731
0.750800 0.598035 0.150893
0.882342 0.599567 0.151078
0.924825 0.599367 0.150480
0.120999 0.713175 0.151374
0.140198 0.712617 0.150635
0.257674 0.714010 0.150768
0.380092 0.715412 0.150924
0.505669 0.716799 0.151104
0.633534 0.718157 0.151308
0.763147 0.719481 0.151537
0.894125 0.720765 0.151793
0.940543 0.720570 0.151269
0.138911 0.835352 0.151949
0.153898 0.834676 0.151170
0.271184 0.835823 0.151363
0.393313 0.836957 0.151583
0.518496 0.838055 0.151830
0.645858 0.839106 0.152105
0.774856 0.840103 0.152407
0.905104 0.841042 0.152737
0.955363 0.840800 0.152296
0.148257 0.898512 0.150400
0.159177 0.898716 0.149615
0.276487 0.900921 0.149892
0.398583 0.903144 0.150202
0.523670 0.905345 0.150544
0.650864 0.907504 0.150918
0.779615 0.909609 0.151325
0.909532 0.911650 0.151764
0.963826 0.912476 0.151448
0.027825 0.050918 0.261566
0.070578 0.051820 0.261127
0.186804 0.054290 0.261253
0.308412 0.056887 0.261382
0.433681 0.059578 0.261512
0.561774 0.062346 0.261642
0.692174 0.065182 0.261773
0.824518 0.068080 0.261905
0.847535 0.068580 0.261099
0.036107 0.108986 0.260045
0.075090 0.108873 0.259526
0.191420 0.110232 0.259602
0.313083 0.111659 0.259680
0.438353 0.113137 0.259758
0.566391 0.114656 0.259836
0.696684 0.116212 0.259916
0.828870 0.117803 0.259996
0.855512 0.117268 0.259189
0.052924 0.226959 0.260344
0.088061 0.226803 0.259777
0.204896 0.228329 0.259849
0.326996 0.229919 0.259923
0.452621 0.231550 0.260000
0.580925 0.233213 0.260078
0.711386 0.234902 0.260159
0.843637 0.236613 0.260242
0.874361 0.236191 0.259478
0.070039 0.347189 0.260634
0.101209 0.346958 0.260021
0.218413 0.348571 0.260093
0.340810 0.350240 0.260169
0.466645 0.351940 0.260249
0.595063 0.353660 0.260332
0.725538 0.355392 0.260419
0.857699 0.357132 0.260510
0.892507 0.356812 0.259792
0.087388 0.468806 0.260932
0.114499 0.468475 0.260273
0.231934 0.470093 0.260350
0.354481 0.471756 0.260432
0.480374 0.473436 0.260519
0.608753 0.475121 0.260612
0.739084 0.476806 0.260710
0.870994 0.478483 0.260815
0.909855 0.478241 0.260146
0.104943 0.591154 0.261251
0.127925 0.590707 0.260548
0.245447 0.592247 0.260634
0.367995 0.593815 0.260727
0.493793 0.595386 0.260827
0.621974 0.596946 0.260934
0.752002 0.598489 0.261049
0.883497 0.600009 0.261172
0.926358 0.599813 0.260556
0.122688 0.713650 0.261608
0.141490 0.713082 0.260862
0.258954 0.714459 0.260961
0.381351 0.715844 0.261070
0.506898 0.717214 0.261188
0.634722 0.718556 0.261315
0.764283 0.719864 0.261451
0.895199 0.721130 0.261597
0.941986 0.720938 0.261038
0.140611 0.835746 0.262020
0.155200 0.835060 0.261230
0.272460 0.836188 0.261348
0.394553 0.837302 0.261478
0.519691 0.838380 0.261618
0.646998 0.839410 0.261769
0.775929 0.840386 0.261932
0.906099 0.841303 0.262107
0.956716 0.841061 0.261608
0.150023 0.899257 0.260343
0.160546 0.899450 0.259545
0.277821 0.901632 0.259722
0.399873 0.903830 0.259915
0.524904 0.906006 0.260121
0.652031 0.908139 0.260342
0.780703 0.910217 0.260577
0.910529 0.912231 0.260826
0.965170 0.913052 0.260431
0.029483 0.051720 0.368325
0.071877 0.052617 0.367952
0.188166 0.055093 0.368265
0.309830 0.057698 0.368575
0.435148 0.060395 0.368876
0.563279 0.063170 0.369167
0.693709 0.066014 0.369446
0.826072 0.068919 0.369711
0.849482 0.069429 0.368930
0.037713 0.109432 0.367092
0.076332 0.109312 0.366622
0.192716 0.110674 0.366859
0.314427 0.112104 0.367093
0.439737 0.113586 0.367318
0.567808 0.115109 0.367532
0.698124 0.116669 0.367735
0.830322 0.118264 0.367925
0.857356 0.117738 0.367141
0.054541 0.227462 0.367906
0.089306 0.227297 0.367371
0.206181 0.228822 0.367564
0.328316 0.230412 0.367753
0.453967 0.232043 0.367934
0.582289 0.233706 0.368105
0.712757 0.235395 0.368265
0.845007 0.237106 0.368414
0.876120 0.236693 0.367666
0.071666 0.347724 0.368578
0.102457 0.347481 0.367982
0.219689 0.349091 0.368136
0.342107 0.350755 0.368285
0.467953 0.352451 0.368426
0.596375 0.354166 0.368557
0.726843 0.355894 0.368679
0.858987 0.357631 0.368791
0.894179 0.357319 0.368080
0.089026 0.469344 0.369119
0.115753 0.469001 0.368466
0.233202 0.470612 0.368584
0.355755 0.472266 0.368697
0.481646 0.473938 0.368802
0.610013 0.475616 0.368899
0.740323 0.477291 0.368988
0.872201 0.478961 0.369067
0.911440 0.478726 0.368393
0.106593 0.591668 0.369539
0.129186 0.591209 0.368834
0.246709 0.592738 0.368920
0.369249 0.594294 0.369001
0.495030 0.595852 0.369076
0.623185 0.597400 0.369143
0.753176 0.598931 0.369203
0.884624 0.600438 0.369256
0.927855 0.600247 0.368619
0.124348 0.714112 0.369854
0.142759 0.713532 0.369099
0.260211 0.714894 0.369159
0.382586 0.716264 0.369213
0.508101 0.717618 0.369262
0.635884 0.718944 0.369304
0.765394 0.720234 0.369340
0.896247 0.721484 0.369370
0.943394 0.721294 0.368772
0.142282 0.836127 0.370078
0.156479 0.835432 0.369277
0.273713 0.836541 0.369314
0.395770 0.837635 0.369346
0.520862 0.838692 0.369374
0.648113 0.839702 0.369396
0.776977 0.840657 0.369413
0.907069 0.841554 0.369426
0.958036 0.841311 0.368867
0.151760 0.899980 0.368259
0.161891 0.900164 0.367449
0.279131 0.902322 0.367519
0.401138 0.904496 0.367587
0.526112 0.906647 0.367652
0.653172 0.908754 0.367713
0.781766 0.910806 0.367770
0.911502 0.912794 0.367824
0.966481 0.913609 0.367345
0.031122 0.052515 0.473918
0.073161 0.053406 0.473607
0.189510 0.055889 0.474096
0.311229 0.058500 0.474576
0.436592 0.061205 0.475039
0.564761 0.063987 0.475479
0.695218 0.066838 0.475895
0.827598 0.069751 0.476283
0.851396 0.070270 0.475527
0.039301 0.109874 0.472953
0.077559 0.109746 0.472528
0.193996 0.111111 0.472917
0.315753 0.112545 0.473297
0.441101 0.114030 0.473658
0.569202 0.115557 0.473999
0.699539 0.117121 0.474315
0.831749 0.118721 0.474607
0.859171 0.118204 0.473844
0.056140 0.227960 0.474250
0.090535 0.227785 0.473743
0.207450 0.229310 0.474050
0.329618 0.230899 0.474344
0.455294 0.232530 0.474620
0.583631 0.234193 0.474874
0.714106 0.235882 0.475104
0.846353 0.237593 0.475310
0.877849 0.237189 0.474577
0.073275 0.348250 0.475274
0.103691 0.347997 0.474692
0.220949 0.349602 0.474919
0.343385 0.351263 0.475132
0.469243 0.352955 0.475325
0.597665 0.354666 0.475497
0.728126 0.356390 0.475645
0.860252 0.358123 0.475769
0.895823 0.357819 0.475063
0.090646 0.469873 0.476028
0.116992 0.469519 0.475379
0.234454 0.471122 0.475530
0.357013 0.472768 0.475665
0.482900 0.474432 0.475780
0.611254 0.476101 0.475874
0.741541 0.477769 0.475944
0.873385 0.479431 0.475991
0.912997 0.479202 0.475309
0.108223 0.592171 0.476522
0.130433 0.591701 0.475812
0.247955 0.593219 0.475892
0.370486 0.594763 0.475954
0.496249 0.596310 0.475995
0.624376 0.597846 0.476015
0.754329 0.599364 0.476012
0.885730 0.600860 0.475987
0.929326 0.600673 0.475327
0.125989 0.714563 0.476768
0.144014 0.713973 0.476004
0.261452 0.715319 0.476016
0.383804 0.716673 0.476009
0.509287 0.718011 0.475982
0.637028 0.719321 0.475932
0.766485 0.720596 0.475861
0.897276 0.721830 0.475768
0.944778 0.721642 0.475128
0.143934 0.836497 0.476780
0.157744 0.835792 0.475967
0.274951 0.836883 0.475917
0.396971 0.837957 0.475846
0.522016 0.838995 0.475753
0.649210 0.839984 0.475640
0.778006 0.840920 0.475505
0.908021 0.841796 0.475349
0.959332 0.841552 0.474727
0.153476 0.900687 0.474805
0.163221 0.900862 0.473982
0.280425 0.902997 0.473939
0.402386 0.905147 0.473876
0.527304 0.907272 0.473791
0.654295 0.909355 0.473686
0.782809 0.911381 0.473558
0.912454 0.913343 0.473409
0.967768 0.914153 0.472844
0.032747 0.053305 0.578662
0.074434 0.054190 0.578408
0.190841 0.056680 0.579064
0.312612 0.059298 0.579705
0.438020 0.062009 0.580319
0.566224 0.064799 0.580899
0.696706 0.067656 0.581441
0.829102 0.070576 0.581942
0.853284 0.071106 0.581209
0.040875 0.110313 0.577946
0.078775 0.110177 0.577562
0.195262 0.111545 0.578095
0.317064 0.112983 0.578611
0.442449 0.114471 0.579101
0.570579 0.116002 0.579558
0.700935 0.117571 0.579979
0.833155 0.119175 0.580362
0.860960 0.118667 0.579619
0.057724 0.228452 0.579696
0.091754 0.228268 0.579215
0.208706 0.229793 0.579626
0.330905 0.231381 0.580017
0.456604 0.233012 0.580379
0.584956 0.234675 0.580707
0.715436 0.236364 0.580999
0.847678 0.238076 0.581253
0.879555 0.237681 0.580532
0.074871 0.348770 0.581042
0.104914 0.348507 0.580473
0.222197 0.350108 0.580765
0.344650 0.351765 0.581033
0.470517 0.353452 0.581271
0.598940 0.355159 0.581474
0.729391 0.356880 0.581640
0.861498 0.358609 0.581768
0.897443 0.358313 0.581065
0.092252 0.470394 0.581983
0.118221 0.470029 0.581335
0.235694 0.471624 0.581512
0.358256 0.473263 0.581662
0.484139 0.474919 0.581779
0.612478 0.476580 0.581860
0.742741 0.478240 0.581905
0.874552 0.479894 0.581911
0.914532 0.479672 0.581219
0.109840 0.592667 0.582524
0.131668 0.592186 0.581808
0.249189 0.593692 0.581874
0.371710 0.595225 0.581909
0.497454 0.596759 0.581909
0.625552 0.598284 0.581874
0.755467 0.599790 0.581801
0.886818 0.601273 0.581690
0.930775 0.601092 0.581005
0.127617 0.715004 0.582676
0.145258 0.714404 0.581902
0.262681 0.715736 0.581860
0.385009 0.717075 0.581785
0.510459 0.718397 0.581673
0.638157 0.719691 0.581525
0.767560 0.720949 0.581340
0.898287 0.722167 0.581116
0.946141 0.721981 0.580431
0.145572 0.836858 0.582451
0.158998 0.836144 0.581627
0.276177 0.837216 0.581482
0.398159 0.838271 0.581301
0.523157 0.839289 0.581082
0.650293 0.840259 0.580826
0.779021 0.841174 0.580533
0.908957 0.842030 0.580202
0.960609 0.841785 0.579512
0.155178 0.901379 0.580305
0.164539 0.901546 0.579470
0.281708 0.903658 0.579307
0.403621 0.905784 0.579105
0.528481 0.907885 0.578865
0.655404 0.909942 0.578585
0.783838 0.911944 0.578266
0.913391 0.913880 0.577908
0.969035 0.914684 0.577251
0.034361 0.054092 0.682745
0.075696 0.054971 0.682544
0.192161 0.057467 0.683357
0.313983 0.060091 0.684150
0.439433 0.062810 0.684906
0.567671 0.065606 0.685616
0.698177 0.068471 0.686275
0.830587 0.071398 0.686880
0.855149 0.071937 0.686169
0.042439 0.110750 0.682261
0.079982 0.110606 0.681914
0.196518 0.111978 0.682582
0.318363 0.113419 0.683227
0.443784 0.114911 0.683836
0.571940 0.116445 0.684401
0.702315 0.118018 0.684918
0.834543 0.119626 0.685383
0.862729 0.119128 0.684659
0.059299 0.228941 0.684436
0.092964 0.228747 0.683977
0.209952 0.230272 0.684484
0.332181 0.231860 0.684964
0.457902 0.233491 0.685403
0.586266 0.235154 0.685798
0.716751 0.236843 0.686143
0.848987 0.238555 0.686436
0.881241 0.238169 0.685726
0.076455 0.349285 0.686077
0.106128 0.349012 0.685517
0.223434 0.350609 0.685867
0.345904 0.352261 0.686183
0.471778 0.353945 0.686456
0.600200 0.355648 0.686683
0.730640 0.357365 0.686859
0.862727 0.359090 0.686982
0.899044 0.358802 0.686280
0.093847 0.470909 0.687176
0.119441 0.470533 0.686529
0.236924 0.472121 0.686724
0.359489 0.473752 0.686880
0.485365 0.475400 0.686992
0.613689 0.477054 0.687054
0.743927 0.478706 0.687064
0.875703 0.480352 0.687022
0.916049 0.480137 0.686318
0.111445 0.593155 0.687739
0.132895 0.592663 0.687017
0.250413 0.594158 0.687061
0.372923 0.595679 0.687061
0.498647 0.597202 0.687014
0.626715 0.598715 0.686916
0.756590 0.600209 0.686765
0.887892 0.601681 0.686562
0.932206 0.601504 0.685846
0.129233 0.715438 0.687772
0.146494 0.714828 0.686987
0.263901 0.716145 0.686884
0.386204 0.717468 0.686733
0.511620 0.718775 0.686531
0.639273 0.720053 0.686278
0.768622 0.721296 0.685971
0.899285 0.722498 0.685610
0.947486 0.722314 0.684876
0.147199 0.837210 0.687286
0.160244 0.836487 0.686451
0.277393 0.837540 0.686206
0.399337 0.838577 0.685907
0.524286 0.839575 0.685555
0.651363 0.840525 0.685150
0.780023 0.841421 0.684691
0.909879 0.842256 0.684177
0.961868 0.842010 0.683417
0.156868 0.902060 0.684953
0.165850 0.902218 0.684106
0.282980 0.904307 0.683817
0.404845 0.906409 0.683470
0.529647 0.908486 0.683066
0.656500 0.910519 0.682606
0.784853 0.912495 0.682088
0.914314 0.914405 0.681513
0.970283 0.915203 0.680761
0.035966 0.054875 0.786293
0.076952 0.055748 0.786139
0.193471 0.058251 0.787102
0.315342 0.060882 0.788038
0.440833 0.063607 0.788926
0.569103 0.066410 0.789757
0.699632 0.069282 0.790524
0.832055 0.072217 0.791223
0.856995 0.072766 0.790533
0.043994 0.111185 0.786022
0.081181 0.111034 0.785710
0.197766 0.112408 0.786504
0.319652 0.113853 0.787270
0.445107 0.115348 0.787989
0.573289 0.116887 0.788654
0.703680 0.118464 0.789258
0.835916 0.120076 0.789798
0.864479 0.119587 0.789091
0.060864 0.229426 0.788596
0.094166 0.229224 0.788156
0.211190 0.230748 0.788752
0.333447 0.232336 0.789312
0.459188 0.233966 0.789821
0.587564 0.235629 0.790273
0.718051 0.237319 0.790663
0.850280 0.239031 0.790987
0.882908 0.238654 0.790287
0.078031 0.349796 0.790504
0.107335 0.349512 0.789952
0.224663 0.351105 0.790352
0.347148 0.352754 0.790708
0.473029 0.354434 0.791009
0.601448 0.356133 0.791251
0.731876 0.357846 0.791429
0.863941 0.359568 0.791540
0.900628 0.359288 0.790836
0.095433 0.471419 0.791736
0.120654 0.471032 0.791088
0.238146 0.472612 0.791294
0.360712 0.474235 0.791450
0.486581 0.475876 0.791547
0.614889 0.477522 0.791582
0.745100 0.479166 0.791551
0.876840 0.480804 0.791453
0.917548 0.480596 0.790733
0.113041 0.593636 0.792295
0.134116 0.593134 0.791565
0.251629 0.594618 0.791581
0.374127 0.596128 0.791540
0.499829 0.597639 0.791437
0.627867 0.599140 0.791269
0.757701 0.600623 0.791033
0.888952 0.602083 0.790729
0.933620 0.601910 0.789982
0.130840 0.715865 0.792184
0.147723 0.715245 0.791389
0.265112 0.716547 0.791218
0.387390 0.717855 0.790984
0.512770 0.719146 0.790685
0.640378 0.720409 0.790318
0.769672 0.721636 0.789882
0.900269 0.722822 0.789377
0.948815 0.722640 0.788591
0.148816 0.837554 0.791414
0.161484 0.836823 0.790568
0.278602 0.837858 0.790215
0.400506 0.838875 0.789793
0.525406 0.839854 0.789301
0.652424 0.840784 0.788739
0.781013 0.841660 0.788108
0.910789 0.842476 0.787405
0.963111 0.842228 0.786570
0.158548 0.902729 0.788880
0.167153 0.902878 0.788022
0.284245 0.904945 0.787598
0.406061 0.907024 0.787098
0.530802 0.909076 0.786524
0.657585 0.911084 0.785876
0.785856 0.913035 0.785152
0.915224 0.914920 0.784353
0.971516 0.915713 0.783501
0.036820 0.055292 0.841414
0.077462 0.056166 0.842194
0.194029 0.058681 0.844381
0.315946 0.061325 0.846589
0.441480 0.064063 0.848780
0.569789 0.066880 0.850934
0.700353 0.069766 0.853038
0.832805 0.072715 0.855085
0.858139 0.073282 0.855466
0.044852 0.111268 0.844856
0.081692 0.111115 0.845473
0.198321 0.112501 0.847486
0.320250 0.113956 0.849519
0.445744 0.115464 0.851534
0.573962 0.117015 0.853514
0.704384 0.118604 0.855448
0.836646 0.120229 0.857327
0.865604 0.119758 0.857691
0.061788 0.229568 0.851532
0.094739 0.229364 0.852019
0.211802 0.230897 0.853818
0.334094 0.232495 0.855627
0.459867 0.234136 0.857413
0.588271 0.235810 0.859159
0.718780 0.237510 0.860855
0.851025 0.239233 0.862493
0.884043 0.238874 0.862859
0.079023 0.349985 0.857531
0.107972 0.349700 0.857901
0.225332 0.351300 0.859483
0.347845 0.352957 0.861066
0.473749 0.354644 0.862620
0.602186 0.356352 0.864129
0.732626 0.358073 0.865585
0.864696 0.359803 0.866980
0.901767 0.359540 0.867333
0.096494 0.471641 0.862808
0.121357 0.471252 0.863077
0.238873 0.472837 0.864441
0.361458 0.474465 0.865796
0.487341 0.476110 0.867116
0.615655 0.477761 0.868388
0.745867 0.479411 0.869601
0.877598 0.481054 0.870751
0.918684 0.480861 0.871075
0.114172 0.593872 0.867340
0.134887 0.593367 0.867523
0.252415 0.594853 0.868668
0.374922 0.596364 0.869795
0.500627 0.597877 0.870880
0.628660 0.599379 0.871912
0.758481 0.600863 0.872882
0.889709 0.602324 0.873785
0.934748 0.602164 0.874064
0.132042 0.716092 0.871112
0.148564 0.715469 0.871225
0.265958 0.716769 0.872150
0.388234 0.718075 0.873047
0.513604 0.719363 0.873896
0.641194 0.720623 0.874687
0.770461 0.721846 0.875413
0.901021 0.723028 0.876069
0.949927 0.722856 0.876286
0.150091 0.837747 0.874112
0.162397 0.837013 0.874172
0.279509 0.838041 0.874876
0.401399 0.839051 0.875542
0.526275 0.840023 0.876155
0.653260 0.840945 0.876704
0.781807 0.841811 0.877185
0.911530 0.842618 0.877593
0.964200 0.842376 0.877731
0.159949 0.903281 0.875413
0.168194 0.903428 0.875458
0.285271 0.905483 0.876060
0.407062 0.907548 0.876616
0.531769 0.909587 0.877110
0.658506 0.911580 0.877533
0.786721 0.913515 0.877880
0.916019 0.915384 0.878146
0.972647 0.916176 0.878235
