apps/web/public/brand-library/luts/neutral-doc.cube
TITLE "Neutral / Documentary"
LUT_3D_SIZE 5
DOMAIN_MIN 0.0 0.0 0.0
DOMAIN_MAX 1.0 1.0 1.0
0.000000 0.000000 0.000000
0.248000 0.000000 0.000000
0.515750 0.000000 0.000000
0.783500 0.000000 0.000000
1.000000 0.000000 0.000000
0.000000 0.237500 0.000000
0.248000 0.237500 0.000000
0.515750 0.237500 0.000000
0.783500 0.237500 0.000000
1.000000 0.237500 0.000000
0.000000 0.500000 0.000000
0.248000 0.500000 0.000000
0.515750 0.500000 0.000000
0.783500 0.500000 0.000000
1.000000 0.500000 0.000000
0.000000 0.762500 0.000000
0.248000 0.762500 0.000000
0.515750 0.762500 0.000000
0.783500 0.762500 0.000000
1.000000 0.762500 0.000000
0.000000 1.000000 0.000000
0.248000 1.000000 0.000000
0.515750 1.000000 0.000000
0.783500 1.000000 0.000000
1.000000 1.000000 0.000000
0.000000 0.000000 0.229625
0.248000 0.000000 0.229625
0.515750 0.000000 0.229625
0.783500 0.000000 0.229625
1.000000 0.000000 0.229625
0.000000 0.237500 0.229625
0.248000 0.237500 0.229625
0.515750 0.237500 0.229625
0.783500 0.237500 0.229625
1.000000 0.237500 0.229625
0.000000 0.500000 0.229625
0.248000 0.500000 0.229625
0.515750 0.500000 0.229625
0.783500 0.500000 0.229625
1.000000 0.500000 0.229625
0.000000 0.762500 0.229625
0.248000 0.762500 0.229625
0.515750 0.762500 0.229625
0.783500 0.762500 0.229625
1.000000 0.762500 0.229625
0.000000 1.000000 0.229625
0.248000 1.000000 0.229625
0.515750 1.000000 0.229625
0.783500 1.000000 0.229625
1.000000 1.000000 0.229625
0.000000 0.000000 0.489500
0.248000 0.000000 0.489500
0.515750 0.000000 0.489500
0.783500 0.000000 0.489500
1.000000 0.000000 0.489500
0.000000 0.237500 0.489500
0.248000 0.237500 0.489500
0.515750 0.237500 0.489500
0.783500 0.237500 0.489500
1.000000 0.237500 0.489500
0.000000 0.500000 0.489500
0.248000 0.500000 0.489500
0.515750 0.500000 0.489500
0.783500 0.500000 0.489500
1.000000 0.500000 0.489500
0.000000 0.762500 0.489500
0.248000 0.762500 0.489500
0.515750 0.762500 0.489500
0.783500 0.762500 0.489500
1.000000 0.762500 0.489500
0.000000 1.000000 0.489500
0.248000 1.000000 0.489500
0.515750 1.000000 0.489500
0.783500 1.000000 0.489500
1.000000 1.000000 0.489500
0.000000 0.000000 0.749375
0.248000 0.000000 0.749375
0.515750 0.000000 0.749375
0.783500 0.000000 0.749375
1.000000 0.000000 0.749375
0.000000 0.237500 0.749375
0.248000 0.237500 0.749375
0.515750 0.237500 0.749375
0.783500 0.237500 0.749375
1.000000 0.237500 0.749375
0.000000 0.500000 0.749375
0.248000 0.500000 0.749375
0.515750 0.500000 0.749375
0.783500 0.500000 0.749375
1.000000 0.500000 0.749375
0.000000 0.762500 0.749375
0.248000 0.762500 0.749375
0.515750 0.762500 0.749375
0.783500 0.762500 0.749375
1.000000 0.762500 0.749375
0.000000 1.000000 0.749375
0.248000 1.000000 0.749375
0.515750 1.000000 0.749375
0.783500 1.000000 0.749375
1.000000 1.000000 0.749375
0.000000 0.000000 1.000000
0.248000 0.000000 1.000000
0.515750 0.000000 1.000000
0.783500 0.000000 1.000000
1.000000 0.000000 1.000000
0.000000 0.237500 1.000000
0.248000 0.237500 1.000000
0.515750 0.237500 1.000000
0.783500 0.237500 1.000000
1.000000 0.237500 1.000000
0.000000 0.500000 1.000000
0.248000 0.500000 1.000000
0.515750 0.500000 1.000000
0.783500 0.500000 1.000000
1.000000 0.500000 1.000000
0.000000 0.762500 1.000000
0.248000 0.762500 1.000000
0.515750 0.762500 1.000000
0.783500 0.762500 1.000000
1.000000 0.762500 1.000000
0.000000 1.000000 1.000000
0.248000 1.000000 1.000000
0.515750 1.000000 1.000000
0.783500 1.000000 1.000000
1.000000 1.000000 1.000000
