apps/web/public/brand-library/luts/neutral-doc.cube
TITLE "Neutral / Documentary"
LUT_3D_SIZE 33
DOMAIN_MIN 0.0 0.0 0.0
DOMAIN_MAX 1.0 1.0 1.0
0.000000 0.000000 0.000000
0.013719 0.000000 0.000000
0.047187 0.000000 0.000000
0.080656 0.000000 0.000000
0.114125 0.000000 0.000000
0.147594 0.000000 0.000000
0.181063 0.000000 0.000000
0.214531 0.000000 0.000000
0.248000 0.000000 0.000000
0.281469 0.000000 0.000000
0.314937 0.000000 0.000000
0.348406 0.000000 0.000000
0.381875 0.000000 0.000000
0.415344 0.000000 0.000000
0.448813 0.000000 0.000000
0.482281 0.000000 0.000000
0.515750 0.000000 0.000000
0.549219 0.000000 0.000000
0.582688 0.000000 0.000000
0.616156 0.000000 0.000000
0.649625 0.000000 0.000000
0.683094 0.000000 0.000000
0.716562 0.000000 0.000000
0.750031 0.000000 0.000000
0.783500 0.000000 0.000000
0.816969 0.000000 0.000000
0.850437 0.000000 0.000000
0.883906 0.000000 0.000000
0.917375 0.000000 0.000000
0.950844 0.000000 0.000000
0.984313 0.000000 0.000000
1.000000 0.000000 0.000000
1.000000 0.000000 0.000000
0.000000 0.007813 0.000000
0.013719 0.007813 0.000000
0.047187 0.007813 0.000000
0.080656 0.007813 0.000000
0.114125 0.007813 0.000000
0.147594 0.007813 0.000000
0.181063 0.007813 0.000000
0.214531 0.007813 0.000000
0.248000 0.007813 0.000000
0.281469 0.007813 0.000000
0.314937 0.007813 0.000000
0.348406 0.007813 0.000000
0.381875 0.007813 0.000000
0.415344 0.007813 0.000000
0.448813 0.007813 0.000000
0.482281 0.007813 0.000000
0.515750 0.007813 0.000000
0.549219 0.007813 0.000000
0.582688 0.007813 0.000000
0.616156 0.007813 0.000000
0.649625 0.007813 0.000000
0.683094 0.007813 0.000000
0.716562 0.007813 0.000000
0.750031 0.007813 0.000000
0.783500 0.007813 0.000000
0.816969 0.007813 0.000000
0.850437 0.007813 0.000000
0.883906 0.007813 0.000000
0.917375 0.007813 0.000000
0.950844 0.007813 0.000000
0.984313 0.007813 0.000000
1.000000 0.007813 0.000000
1.000000 0.007813 0.000000
0.000000 0.040625 0.000000
0.013719 0.040625 0.000000
0.047187 0.040625 0.000000
0.080656 0.040625 0.000000
0.114125 0.040625 0.000000
0.147594 0.040625 0.000000
0.181063 0.040625 0.000000
0.214531 0.040625 0.000000
0.248000 0.040625 0.000000
0.281469 0.040625 0.000000
0.314937 0.040625 0.000000
0.348406 0.040625 0.000000
0.381875 0.040625 0.000000
0.415344 0.040625 0.000000
0.448813 0.040625 0.000000
0.482281 0.040625 0.000000
0.515750 0.040625 0.000000
0.549219 0.040625 0.000000
0.582688 0.040625 0.000000
0.616156 0.040625 0.000000
0.649625 0.040625 0.000000
0.683094 0.040625 0.000000
0.716562 0.040625 0.000000
0.750031 0.040625 0.000000
0.783500 0.040625 0.000000
0.816969 0.040625 0.000000
0.850437 0.040625 0.000000
0.883906 0.040625 0.000000
0.917375 0.040625 0.000000
0.950844 0.040625 0.000000
0.984313 0.040625 0.000000
1.000000 0.040625 0.000000
1.000000 0.040625 0.000000
0.000000 0.073437 0.000000
0.013719 0.073437 0.000000
0.047187 0.073437 0.000000
0.080656 0.073437 0.000000
0.114125 0.073437 0.000000
0.147594 0.073437 0.000000
0.181063 0.073437 0.000000
0.214531 0.073437 0.000000
0.248000 0.073437 0.000000
0.281469 0.073437 0.000000
0.314937 0.073437 0.000000
0.348406 0.073437 0.000000
0.381875 0.073437 0.000000
0.415344 0.073437 0.000000
0.448813 0.073437 0.000000
0.482281 0.073437 0.000000
0.515750 0.073437 0.000000
0.549219 0.073437 0.000000
0.582688 0.073437 0.000000
0.616156 0.073437 0.000000
0.649625 0.073437 0.000000
0.683094 0.073437 0.000000
0.716562 0.073437 0.000000
0.750031 0.073437 0.000000
0.783500 0.073437 0.000000
0.816969 0.073437 0.000000
0.850437 0.073437 0.000000
0.883906 0.073437 0.000000
0.917375 0.073437 0.000000
0.950844 0.073437 0.000000
0.984312 0.073437 0.000000
1.000000 0.073437 0.000000
1.000000 0.073437 0.000000
0.000000 0.106250 0.000000
0.013719 0.106250 0.000000
0.047187 0.106250 0.000000
0.080656 0.106250 0.000000
0.114125 0.106250 0.000000
0.147594 0.106250 0.000000
0.181063 0.106250 0.000000
0.214531 0.106250 0.000000
0.248000 0.106250 0.000000
0.281469 0.106250 0.000000
0.314937 0.106250 0.000000
0.348406 0.106250 0.000000
0.381875 0.106250 0.000000
0.415344 0.106250 0.000000
0.448813 0.106250 0.000000
0.482281 0.106250 0.000000
0.515750 0.106250 0.000000
0.549219 0.106250 0.000000
0.582688 0.106250 0.000000
0.616156 0.106250 0.000000
0.649625 0.106250 0.000000
0.683094 0.106250 0.000000
0.716562 0.106250 0.000000
0.750031 0.106250 0.000000
0.783500 0.106250 0.000000
0.816969 0.106250 0.000000
0.850437 0.106250 0.000000
0.883906 0.106250 0.000000
0.917375 0.106250 0.000000
0.950844 0.106250 0.000000
0.984313 0.106250 0.000000
1.000000 0.106250 0.000000
1.000000 0.106250 0.000000
0.000000 0.139062 0.000000
0.013719 0.139062 0.000000
0.047187 0.139062 0.000000
0.080656 0.139062 0.000000
0.114125 0.139062 0.000000
0.147594 0.139062 0.000000
0.181063 0.139062 0.000000
0.214531 0.139062 0.000000
0.248000 0.139062 0.000000
0.281469 0.139062 0.000000
0.314937 0.139062 0.000000
0.348406 0.139062 0.000000
0.381875 0.139062 0.000000
0.415344 0.139062 0.000000
0.448813 0.139062 0.000000
0.482281 0.139062 0.000000
0.515750 0.139062 0.000000
0.549219 0.139062 0.000000
0.582688 0.139062 0.000000
0.616156 0.139062 0.000000
0.649625 0.139062 0.000000
0.683094 0.139062 0.000000
0.716562 0.139062 0.000000
0.750031 0.139062 0.000000
0.783500 0.139062 0.000000
0.816969 0.139062 0.000000
0.850437 0.139062 0.000000
0.883906 0.139062 0.000000
0.917375 0.139062 0.000000
0.950844 0.139062 0.000000
0.984313 0.139062 0.000000
1.000000 0.139062 0.000000
1.000000 0.139062 0.000000
0.000000 0.171875 0.000000
0.013719 0.171875 0.000000
0.047187 0.171875 0.000000
0.080656 0.171875 0.000000
0.114125 0.171875 0.000000
0.147594 0.171875 0.000000
0.181063 0.171875 0.000000
0.214531 0.171875 0.000000
0.248000 0.171875 0.000000
0.281469 0.171875 0.000000
0.314937 0.171875 0.000000
0.348406 0.171875 0.000000
0.381875 0.171875 0.000000
0.415344 0.171875 0.000000
0.448813 0.171875 0.000000
0.482281 0.171875 0.000000
0.515750 0.171875 0.000000
0.549219 0.171875 0.000000
0.582688 0.171875 0.000000
0.616156 0.171875 0.000000
0.649625 0.171875 0.000000
0.683094 0.171875 0.000000
0.716562 0.171875 0.000000
0.750031 0.171875 0.000000
0.783500 0.171875 0.000000
0.816969 0.171875 0.000000
0.850437 0.171875 0.000000
0.883906 0.171875 0.000000
0.917375 0.171875 0.000000
0.950844 0.171875 0.000000
0.984313 0.171875 0.000000
1.000000 0.171875 0.000000
1.000000 0.171875 0.000000
0.000000 0.204687 0.000000
0.013719 0.204687 0.000000
0.047187 0.204687 0.000000
0.080656 0.204687 0.000000
0.114125 0.204687 0.000000
0.147594 0.204687 0.000000
0.181063 0.204687 0.000000
0.214531 0.204687 0.000000
0.248000 0.204687 0.000000
0.281469 0.204687 0.000000
0.314937 0.204687 0.000000
0.348406 0.204687 0.000000
0.381875 0.204687 0.000000
0.415344 0.204687 0.000000
0.448813 0.204687 0.000000
0.482281 0.204687 0.000000
0.515750 0.204687 0.000000
0.549219 0.204687 0.000000
0.582688 0.204687 0.000000
0.616156 0.204687 0.000000
0.649625 0.204687 0.000000
0.683094 0.204687 0.000000
0.716562 0.204687 0.000000
0.750031 0.204687 0.000000
0.783500 0.204687 0.000000
0.816969 0.204687 0.000000
0.850437 0.204687 0.000000
0.883906 0.204687 0.000000
0.917375 0.204687 0.000000
0.950844 0.204687 0.000000
0.984313 0.204687 0.000000
1.000000 0.204687 0.000000
1.000000 0.204687 0.000000
0.000000 0.237500 0.000000
0.013719 0.237500 0.000000
0.047187 0.237500 0.000000
0.080656 0.237500 0.000000
0.114125 0.237500 0.000000
0.147594 0.237500 0.000000
0.181063 0.237500 0.000000
0.214531 0.237500 0.000000
0.248000 0.237500 0.000000
0.281469 0.237500 0.000000
0.314937 0.237500 0.000000
0.348406 0.237500 0.000000
0.381875 0.237500 0.000000
0.415344 0.237500 0.000000
0.448813 0.237500 0.000000
0.482281 0.237500 0.000000
0.515750 0.237500 0.000000
0.549219 0.237500 0.000000
0.582688 0.237500 0.000000
0.616156 0.237500 0.000000
0.649625 0.237500 0.000000
0.683094 0.237500 0.000000
0.716562 0.237500 0.000000
0.750031 0.237500 0.000000
0.783500 0.237500 0.000000
0.816969 0.237500 0.000000
0.850437 0.237500 0.000000
0.883906 0.237500 0.000000
0.917375 0.237500 0.000000
0.950844 0.237500 0.000000
0.984313 0.237500 0.000000
1.000000 0.237500 0.000000
1.000000 0.237500 0.000000
0.000000 0.270312 0.000000
0.013719 0.270312 0.000000
0.047187 0.270312 0.000000
0.080656 0.270312 0.000000
0.114125 0.270312 0.000000
0.147594 0.270312 0.000000
0.181063 0.270312 0.000000
0.214531 0.270312 0.000000
0.248000 0.270312 0.000000
0.281469 0.270312 0.000000
0.314937 0.270312 0.000000
0.348406 0.270312 0.000000
0.381875 0.270312 0.000000
0.415344 0.270312 0.000000
0.448813 0.270312 0.000000
0.482281 0.270312 0.000000
0.515750 0.270312 0.000000
0.549219 0.270312 0.000000
0.582688 0.270312 0.000000
0.616156 0.270312 0.000000
0.649625 0.270312 0.000000
0.683094 0.270312 0.000000
0.716562 0.270312 0.000000
0.750031 0.270312 0.000000
0.783500 0.270312 0.000000
0.816969 0.270312 0.000000
0.850437 0.270312 0.000000
0.883906 0.270312 0.000000
0.917375 0.270312 0.000000
0.950844 0.270312 0.000000
0.984313 0.270312 0.000000
1.000000 0.270312 0.000000
1.000000 0.270312 0.000000
0.000000 0.303125 0.000000
0.013719 0.303125 0.000000
0.047187 0.303125 0.000000
0.080656 0.303125 0.000000
0.114125 0.303125 0.000000
0.147594 0.303125 0.000000
0.181063 0.303125 0.000000
0.214531 0.303125 0.000000
0.248000 0.303125 0.000000
0.281469 0.303125 0.000000
0.314937 0.303125 0.000000
0.348406 0.303125 0.000000
0.381875 0.303125 0.000000
0.415344 0.303125 0.000000
0.448813 0.303125 0.000000
0.482281 0.303125 0.000000
0.515750 0.303125 0.000000
0.549219 0.303125 0.000000
0.582688 0.303125 0.000000
0.616156 0.303125 0.000000
0.649625 0.303125 0.000000
0.683094 0.303125 0.000000
0.716562 0.303125 0.000000
0.750031 0.303125 0.000000
0.783500 0.303125 0.000000
0.816969 0.303125 0.000000
0.850437 0.303125 0.000000
0.883906 0.303125 0.000000
0.917375 0.303125 0.000000
0.950844 0.303125 0.000000
0.984312 0.303125 0.000000
1.000000 0.303125 0.000000
1.000000 0.303125 0.000000
0.000000 0.335938 0.000000
0.013719 0.335938 0.000000
0.047187 0.335938 0.000000
0.080656 0.335938 0.000000
0.114125 0.335938 0.000000
0.147594 0.335938 0.000000
0.181063 0.335938 0.000000
0.214531 0.335938 0.000000
0.248000 0.335938 0.000000
0.281469 0.335938 0.000000
0.314937 0.335938 0.000000
0.348406 0.335938 0.000000
0.381875 0.335938 0.000000
0.415344 0.335938 0.000000
0.448813 0.335938 0.000000
0.482281 0.335938 0.000000
0.515750 0.335938 0.000000
0.549219 0.335938 0.000000
0.582688 0.335938 0.000000
0.616156 0.335938 0.000000
0.649625 0.335938 0.000000
0.683094 0.335938 0.000000
0.716562 0.335938 0.000000
0.750031 0.335938 0.000000
0.783500 0.335938 0.000000
0.816969 0.335938 0.000000
0.850437 0.335938 0.000000
0.883906 0.335938 0.000000
0.917375 0.335938 0.000000
0.950844 0.335938 0.000000
0.984313 0.335938 0.000000
1.000000 0.335938 0.000000
1.000000 0.335938 0.000000
0.000000 0.368750 0.000000
0.013719 0.368750 0.000000
0.047187 0.368750 0.000000
0.080656 0.368750 0.000000
0.114125 0.368750 0.000000
0.147594 0.368750 0.000000
0.181063 0.368750 0.000000
0.214531 0.368750 0.000000
0.248000 0.368750 0.000000
0.281469 0.368750 0.000000
0.314937 0.368750 0.000000
0.348406 0.368750 0.000000
0.381875 0.368750 0.000000
0.415344 0.368750 0.000000
0.448813 0.368750 0.000000
0.482281 0.368750 0.000000
0.515750 0.368750 0.000000
0.549219 0.368750 0.000000
0.582688 0.368750 0.000000
0.616156 0.368750 0.000000
0.649625 0.368750 0.000000
0.683094 0.368750 0.000000
0.716562 0.368750 0.000000
0.750031 0.368750 0.000000
0.783500 0.368750 0.000000
0.816969 0.368750 0.000000
0.850437 0.368750 0.000000
0.883906 0.368750 0.000000
0.917375 0.368750 0.000000
0.950844 0.368750 0.000000
0.984313 0.368750 0.000000
1.000000 0.368750 0.000000
1.000000 0.368750 0.000000
0.000000 0.401562 0.000000
0.013719 0.401562 0.000000
0.047187 0.401562 0.000000
0.080656 0.401562 0.000000
0.114125 0.401562 0.000000
0.147594 0.401562 0.000000
0.181063 0.401562 0.000000
0.214531 0.401562 0.000000
0.248000 0.401562 0.000000
0.281469 0.401562 0.000000
0.314937 0.401562 0.000000
0.348406 0.401562 0.000000
0.381875 0.401562 0.000000
0.415344 0.401562 0.000000
0.448813 0.401562 0.000000
0.482281 0.401562 0.000000
0.515750 0.401562 0.000000
0.549219 0.401562 0.000000
0.582688 0.401562 0.000000
0.616156 0.401562 0.000000
0.649625 0.401562 0.000000
0.683094 0.401562 0.000000
0.716562 0.401562 0.000000
0.750031 0.401562 0.000000
0.783500 0.401562 0.000000
0.816969 0.401562 0.000000
0.850437 0.401562 0.000000
0.883906 0.401562 0.000000
0.917375 0.401562 0.000000
0.950844 0.401562 0.000000
0.984313 0.401562 0.000000
1.000000 0.401562 0.000000
1.000000 0.401562 0.000000
0.000000 0.434375 0.000000
0.013719 0.434375 0.000000
0.047187 0.434375 0.000000
0.080656 0.434375 0.000000
0.114125 0.434375 0.000000
0.147594 0.434375 0.000000
0.181063 0.434375 0.000000
0.214531 0.434375 0.000000
0.248000 0.434375 0.000000
0.281469 0.434375 0.000000
0.314937 0.434375 0.000000
0.348406 0.434375 0.000000
0.381875 0.434375 0.000000
0.415344 0.434375 0.000000
0.448813 0.434375 0.000000
0.482281 0.434375 0.000000
0.515750 0.434375 0.000000
0.549219 0.434375 0.000000
0.582688 0.434375 0.000000
0.616156 0.434375 0.000000
0.649625 0.434375 0.000000
0.683094 0.434375 0.000000
0.716562 0.434375 0.000000
0.750031 0.434375 0.000000
0.783500 0.434375 0.000000
0.816969 0.434375 0.000000
0.850437 0.434375 0.000000
0.883906 0.434375 0.000000
0.917375 0.434375 0.000000
0.950844 0.434375 0.000000
0.984313 0.434375 0.000000
1.000000 0.434375 0.000000
1.000000 0.434375 0.000000
0.000000 0.467187 0.000000
0.013719 0.467187 0.000000
0.047187 0.467187 0.000000
0.080656 0.467187 0.000000
0.114125 0.467187 0.000000
0.147594 0.467187 0.000000
0.181063 0.467187 0.000000
0.214531 0.467187 0.000000
0.248000 0.467187 0.000000
0.281469 0.467187 0.000000
0.314937 0.467187 0.000000
0.348406 0.467187 0.000000
0.381875 0.467187 0.000000
0.415344 0.467187 0.000000
0.448813 0.467187 0.000000
0.482281 0.467187 0.000000
0.515750 0.467187 0.000000
0.549219 0.467187 0.000000
0.582688 0.467187 0.000000
0.616156 0.467187 0.000000
0.649625 0.467187 0.000000
0.683094 0.467187 0.000000
0.716562 0.467187 0.000000
0.750031 0.467187 0.000000
0.783500 0.467187 0.000000
0.816969 0.467187 0.000000
0.850437 0.467187 0.000000
0.883906 0.467187 0.000000
0.917375 0.467187 0.000000
0.950844 0.467187 0.000000
0.984313 0.467187 0.000000
1.000000 0.467187 0.000000
1.000000 0.467187 0.000000
0.000000 0.500000 0.000000
0.013719 0.500000 0.000000
0.047187 0.500000 0.000000
0.080656 0.500000 0.000000
0.114125 0.500000 0.000000
0.147594 0.500000 0.000000
0.181063 0.500000 0.000000
0.214531 0.500000 0.000000
0.248000 0.500000 0.000000
0.281469 0.500000 0.000000
0.314937 0.500000 0.000000
0.348406 0.500000 0.000000
0.381875 0.500000 0.000000
0.415344 0.500000 0.000000
0.448813 0.500000 0.000000
0.482281 0.500000 0.000000
0.515750 0.500000 0.000000
0.549219 0.500000 0.000000
0.582688 0.500000 0.000000
0.616156 0.500000 0.000000
0.649625 0.500000 0.000000
0.683094 0.500000 0.000000
0.716562 0.500000 0.000000
0.750031 0.500000 0.000000
0.783500 0.500000 0.000000
0.816969 0.500000 0.000000
0.850437 0.500000 0.000000
0.883906 0.500000 0.000000
0.917375 0.500000 0.000000
0.950844 0.500000 0.000000
0.984313 0.500000 0.000000
1.000000 0.500000 0.000000
1.000000 0.500000 0.000000
0.000000 0.532813 0.000000
0.013719 0.532813 0.000000
0.047187 0.532813 0.000000
0.080656 0.532813 0.000000
0.114125 0.532813 0.000000
0.147594 0.532813 0.000000
0.181063 0.532813 0.000000
0.214531 0.532813 0.000000
0.248000 0.532813 0.000000
0.281469 0.532813 0.000000
0.314937 0.532813 0.000000
0.348406 0.532813 0.000000
0.381875 0.532813 0.000000
0.415344 0.532813 0.000000
0.448813 0.532813 0.000000
0.482281 0.532813 0.000000
0.515750 0.532813 0.000000
0.549219 0.532813 0.000000
0.582688 0.532813 0.000000
0.616156 0.532813 0.000000
0.649625 0.532813 0.000000
0.683094 0.532813 0.000000
0.716562 0.532813 0.000000
0.750031 0.532813 0.000000
0.783500 0.532813 0.000000
0.816969 0.532813 0.000000
0.850437 0.532813 0.000000
0.883906 0.532813 0.000000
0.917375 0.532813 0.000000
0.950844 0.532813 0.000000
0.984313 0.532813 0.000000
1.000000 0.532813 0.000000
1.000000 0.532813 0.000000
0.000000 0.565625 0.000000
0.013719 0.565625 0.000000
0.047187 0.565625 0.000000
0.080656 0.565625 0.000000
0.114125 0.565625 0.000000
0.147594 0.565625 0.000000
0.181063 0.565625 0.000000
0.214531 0.565625 0.000000
0.248000 0.565625 0.000000
0.281469 0.565625 0.000000
0.314937 0.565625 0.000000
0.348406 0.565625 0.000000
0.381875 0.565625 0.000000
0.415344 0.565625 0.000000
0.448813 0.565625 0.000000
0.482281 0.565625 0.000000
0.515750 0.565625 0.000000
0.549219 0.565625 0.000000
0.582688 0.565625 0.000000
0.616156 0.565625 0.000000
0.649625 0.565625 0.000000
0.683094 0.565625 0.000000
0.716562 0.565625 0.000000
0.750031 0.565625 0.000000
0.783500 0.565625 0.000000
0.816969 0.565625 0.000000
0.850437 0.565625 0.000000
0.883906 0.565625 0.000000
0.917375 0.565625 0.000000
0.950844 0.565625 0.000000
0.984313 0.565625 0.000000
1.000000 0.565625 0.000000
1.000000 0.565625 0.000000
0.000000 0.598437 0.000000
0.013719 0.598437 0.000000
0.047187 0.598437 0.000000
0.080656 0.598437 0.000000
0.114125 0.598437 0.000000
0.147594 0.598437 0.000000
0.181063 0.598437 0.000000
0.214531 0.598437 0.000000
0.248000 0.598437 0.000000
0.281469 0.598437 0.000000
0.314937 0.598437 0.000000
0.348406 0.598437 0.000000
0.381875 0.598437 0.000000
0.415344 0.598437 0.000000
0.448813 0.598437 0.000000
0.482281 0.598437 0.000000
0.515750 0.598437 0.000000
0.549219 0.598437 0.000000
0.582688 0.598437 0.000000
0.616156 0.598437 0.000000
0.649625 0.598437 0.000000
0.683094 0.598437 0.000000
0.716562 0.598437 0.000000
0.750031 0.598437 0.000000
0.783500 0.598437 0.000000
0.816969 0.598437 0.000000
0.850437 0.598437 0.000000
0.883906 0.598437 0.000000
0.917375 0.598437 0.000000
0.950844 0.598437 0.000000
0.984313 0.598437 0.000000
1.000000 0.598437 0.000000
1.000000 0.598437 0.000000
0.000000 0.631250 0.000000
0.013719 0.631250 0.000000
0.047187 0.631250 0.000000
0.080656 0.631250 0.000000
0.114125 0.631250 0.000000
0.147594 0.631250 0.000000
0.181063 0.631250 0.000000
0.214531 0.631250 0.000000
0.248000 0.631250 0.000000
0.281469 0.631250 0.000000
0.314937 0.631250 0.000000
0.348406 0.631250 0.000000
0.381875 0.631250 0.000000
0.415344 0.631250 0.000000
0.448813 0.631250 0.000000
0.482281 0.631250 0.000000
0.515750 0.631250 0.000000
0.549219 0.631250 0.000000
0.582688 0.631250 0.000000
0.616156 0.631250 0.000000
0.649625 0.631250 0.000000
0.683094 0.631250 0.000000
0.716562 0.631250 0.000000
0.750031 0.631250 0.000000
0.783500 0.631250 0.000000
0.816969 0.631250 0.000000
0.850437 0.631250 0.000000
0.883906 0.631250 0.000000
0.917375 0.631250 0.000000
0.950844 0.631250 0.000000
0.984313 0.631250 0.000000
1.000000 0.631250 0.000000
1.000000 0.631250 0.000000
0.000000 0.664063 0.000000
0.013719 0.664063 0.000000
0.047187 0.664063 0.000000
0.080656 0.664063 0.000000
0.114125 0.664063 0.000000
0.147594 0.664063 0.000000
0.181063 0.664063 0.000000
0.214531 0.664063 0.000000
0.248000 0.664063 0.000000
0.281469 0.664063 0.000000
0.314937 0.664063 0.000000
0.348406 0.664063 0.000000
0.381875 0.664063 0.000000
0.415344 0.664063 0.000000
0.448813 0.664063 0.000000
0.482281 0.664063 0.000000
0.515750 0.664063 0.000000
0.549219 0.664063 0.000000
0.582688 0.664063 0.000000
0.616156 0.664063 0.000000
0.649625 0.664063 0.000000
0.683094 0.664063 0.000000
0.716562 0.664063 0.000000
0.750031 0.664063 0.000000
0.783500 0.664063 0.000000
0.816969 0.664063 0.000000
0.850437 0.664063 0.000000
0.883906 0.664063 0.000000
0.917375 0.664063 0.000000
0.950844 0.664063 0.000000
0.984313 0.664063 0.000000
1.000000 0.664063 0.000000
1.000000 0.664063 0.000000
0.000000 0.696875 0.000000
0.013719 0.696875 0.000000
0.047187 0.696875 0.000000
0.080656 0.696875 0.000000
0.114125 0.696875 0.000000
0.147594 0.696875 0.000000
0.181063 0.696875 0.000000
0.214531 0.696875 0.000000
0.248000 0.696875 0.000000
0.281469 0.696875 0.000000
0.314937 0.696875 0.000000
0.348406 0.696875 0.000000
0.381875 0.696875 0.000000
0.415344 0.696875 0.000000
0.448813 0.696875 0.000000
0.482281 0.696875 0.000000
0.515750 0.696875 0.000000
0.549219 0.696875 0.000000
0.582688 0.696875 0.000000
0.616156 0.696875 0.000000
0.649625 0.696875 0.000000
0.683094 0.696875 0.000000
0.716562 0.696875 0.000000
0.750031 0.696875 0.000000
0.783500 0.696875 0.000000
0.816969 0.696875 0.000000
0.850437 0.696875 0.000000
0.883906 0.696875 0.000000
0.917375 0.696875 0.000000
0.950844 0.696875 0.000000
0.984313 0.696875 0.000000
1.000000 0.696875 0.000000
1.000000 0.696875 0.000000
0.000000 0.729688 0.000000
0.013719 0.729688 0.000000
0.047187 0.729688 0.000000
0.080656 0.729688 0.000000
0.114125 0.729688 0.000000
0.147594 0.729688 0.000000
0.181063 0.729688 0.000000
0.214531 0.729688 0.000000
0.248000 0.729688 0.000000
0.281469 0.729688 0.000000
0.314937 0.729688 0.000000
0.348406 0.729688 0.000000
0.381875 0.729688 0.000000
0.415344 0.729688 0.000000
0.448813 0.729688 0.000000
0.482281 0.729688 0.000000
0.515750 0.729688 0.000000
0.549219 0.729688 0.000000
0.582688 0.729688 0.000000
0.616156 0.729688 0.000000
0.649625 0.729688 0.000000
0.683094 0.729688 0.000000
0.716562 0.729688 0.000000
0.750031 0.729688 0.000000
0.783500 0.729688 0.000000
0.816969 0.729688 0.000000
0.850437 0.729688 0.000000
0.883906 0.729688 0.000000
0.917375 0.729688 0.000000
0.950844 0.729688 0.000000
0.984313 0.729688 0.000000
1.000000 0.729688 0.000000
1.000000 0.729688 0.000000
0.000000 0.762500 0.000000
0.013719 0.762500 0.000000
0.047187 0.762500 0.000000
0.080656 0.762500 0.000000
0.114125 0.762500 0.000000
0.147594 0.762500 0.000000
0.181063 0.762500 0.000000
0.214531 0.762500 0.000000
0.248000 0.762500 0.000000
0.281469 0.762500 0.000000
0.314937 0.762500 0.000000
0.348406 0.762500 0.000000
0.381875 0.762500 0.000000
0.415344 0.762500 0.000000
0.448813 0.762500 0.000000
0.482281 0.762500 0.000000
0.515750 0.762500 0.000000
0.549219 0.762500 0.000000
0.582688 0.762500 0.000000
0.616156 0.762500 0.000000
0.649625 0.762500 0.000000
0.683094 0.762500 0.000000
0.716562 0.762500 0.000000
0.750031 0.762500 0.000000
0.783500 0.762500 0.000000
0.816969 0.762500 0.000000
0.850437 0.762500 0.000000
0.883906 0.762500 0.000000
0.917375 0.762500 0.000000
0.950844 0.762500 0.000000
0.984313 0.762500 0.000000
1.000000 0.762500 0.000000
1.000000 0.762500 0.000000
0.000000 0.795313 0.000000
0.013719 0.795313 0.000000
0.047187 0.795313 0.000000
0.080656 0.795313 0.000000
0.114125 0.795313 0.000000
0.147594 0.795313 0.000000
0.181063 0.795313 0.000000
0.214531 0.795313 0.000000
0.248000 0.795313 0.000000
0.281469 0.795313 0.000000
0.314937 0.795313 0.000000
0.348406 0.795313 0.000000
0.381875 0.795313 0.000000
0.415344 0.795313 0.000000
0.448813 0.795313 0.000000
0.482281 0.795313 0.000000
0.515750 0.795313 0.000000
0.549219 0.795313 0.000000
0.582688 0.795313 0.000000
0.616156 0.795313 0.000000
0.649625 0.795313 0.000000
0.683094 0.795313 0.000000
0.716562 0.795313 0.000000
0.750031 0.795313 0.000000
0.783500 0.795313 0.000000
0.816969 0.795313 0.000000
0.850437 0.795313 0.000000
0.883906 0.795313 0.000000
0.917375 0.795313 0.000000
0.950844 0.795313 0.000000
0.984313 0.795313 0.000000
1.000000 0.795313 0.000000
1.000000 0.795313 0.000000
0.000000 0.828125 0.000000
0.013719 0.828125 0.000000
0.047187 0.828125 0.000000
0.080656 0.828125 0.000000
0.114125 0.828125 0.000000
0.147594 0.828125 0.000000
0.181063 0.828125 0.000000
0.214531 0.828125 0.000000
0.248000 0.828125 0.000000
0.281469 0.828125 0.000000
0.314937 0.828125 0.000000
0.348406 0.828125 0.000000
0.381875 0.828125 0.000000
0.415344 0.828125 0.000000
0.448813 0.828125 0.000000
0.482281 0.828125 0.000000
0.515750 0.828125 0.000000
0.549219 0.828125 0.000000
0.582688 0.828125 0.000000
0.616156 0.828125 0.000000
0.649625 0.828125 0.000000
0.683094 0.828125 0.000000
0.716562 0.828125 0.000000
0.750031 0.828125 0.000000
0.783500 0.828125 0.000000
0.816969 0.828125 0.000000
0.850437 0.828125 0.000000
