apps/web/public/brand-library/luts/neutral-doc.cube
TITLE "Neutral / Documentary"
LUT_3D_SIZE 9
DOMAIN_MIN 0.0 0.0 0.0
DOMAIN_MAX 1.0 1.0 1.0
0.000000 0.000000 0.000000
0.114125 0.000000 0.000000
0.248000 0.000000 0.000000
0.381875 0.000000 0.000000
0.515750 0.000000 0.000000
0.649625 0.000000 0.000000
0.783500 0.000000 0.000000
0.917375 0.000000 0.000000
1.000000 0.000000 0.000000
0.000000 0.106250 0.000000
0.114125 0.106250 0.000000
0.248000 0.106250 0.000000
0.381875 0.106250 0.000000
0.515750 0.106250 0.000000
0.649625 0.106250 0.000000
0.783500 0.106250 0.000000
0.917375 0.106250 0.000000
1.000000 0.106250 0.000000
0.000000 0.237500 0.000000
0.114125 0.237500 0.000000
0.248000 0.237500 0.000000
0.381875 0.237500 0.000000
0.515750 0.237500 0.000000
0.649625 0.237500 0.000000
0.783500 0.237500 0.000000
0.917375 0.237500 0.000000
1.000000 0.237500 0.000000
0.000000 0.368750 0.000000
0.114125 0.368750 0.000000
0.248000 0.368750 0.000000
0.381875 0.368750 0.000000
0.515750 0.368750 0.000000
0.649625 0.368750 0.000000
0.783500 0.368750 0.000000
0.917375 0.368750 0.000000
1.000000 0.368750 0.000000
0.000000 0.500000 0.000000
0.114125 0.500000 0.000000
0.248000 0.500000 0.000000
0.381875 0.500000 0.000000
0.515750 0.500000 0.000000
0.649625 0.500000 0.000000
0.783500 0.500000 0.000000
0.917375 0.500000 0.000000
1.000000 0.500000 0.000000
0.000000 0.631250 0.000000
0.114125 0.631250 0.000000
0.248000 0.631250 0.000000
0.381875 0.631250 0.000000
0.515750 0.631250 0.000000
0.649625 0.631250 0.000000
0.783500 0.631250 0.000000
0.917375 0.631250 0.000000
1.000000 0.631250 0.000000
0.000000 0.762500 0.000000
0.114125 0.762500 0.000000
0.248000 0.762500 0.000000
0.381875 0.762500 0.000000
0.515750 0.762500 0.000000
0.649625 0.762500 0.000000
0.783500 0.762500 0.000000
0.917375 0.762500 0.000000
1.000000 0.762500 0.000000
0.000000 0.893750 0.000000
0.114125 0.893750 0.000000
0.248000 0.893750 0.000000
0.381875 0.893750 0.000000
0.515750 0.893750 0.000000
0.649625 0.893750 0.000000
0.783500 0.893750 0.000000
0.917375 0.893750 0.000000
1.000000 0.893750 0.000000
0.000000 1.000000 0.000000
0.114125 1.000000 0.000000
0.248000 1.000000 0.000000
0.381875 1.000000 0.000000
0.515750 1.000000 0.000000
0.649625 1.000000 0.000000
0.783500 1.000000 0.000000
0.917375 1.000000 0.000000
1.000000 1.000000 0.000000
0.000000 0.000000 0.099687
0.114125 0.000000 0.099687
0.248000 0.000000 0.099687
0.381875 0.000000 0.099687
0.515750 0.000000 0.099687
0.649625 0.000000 0.099687
0.783500 0.000000 0.099687
0.917375 0.000000 0.099687
1.000000 0.000000 0.099687
0.000000 0.106250 0.099687
0.114125 0.106250 0.099687
0.248000 0.106250 0.099687
0.381875 0.106250 0.099687
0.515750 0.106250 0.099687
0.649625 0.106250 0.099687
0.783500 0.106250 0.099687
0.917375 0.106250 0.099687
1.000000 0.106250 0.099687
0.000000 0.237500 0.099687
0.114125 0.237500 0.099687
0.248000 0.237500 0.099687
0.381875 0.237500 0.099687
0.515750 0.237500 0.099687
0.649625 0.237500 0.099687
0.783500 0.237500 0.099687
0.917375 0.237500 0.099687
1.000000 0.237500 0.099687
0.000000 0.368750 0.099687
0.114125 0.368750 0.099687
0.248000 0.368750 0.099687
0.381875 0.368750 0.099687
0.515750 0.368750 0.099687
0.649625 0.368750 0.099687
0.783500 0.368750 0.099687
0.917375 0.368750 0.099687
1.000000 0.368750 0.099687
0.000000 0.500000 0.099687
0.114125 0.500000 0.099687
0.248000 0.500000 0.099687
0.381875 0.500000 0.099687
0.515750 0.500000 0.099687
0.649625 0.500000 0.099687
0.783500 0.500000 0.099687
0.917375 0.500000 0.099687
1.000000 0.500000 0.099687
0.000000 0.631250 0.099687
0.114125 0.631250 0.099687
0.248000 0.631250 0.099687
0.381875 0.631250 0.099687
0.515750 0.631250 0.099687
0.649625 0.631250 0.099687
0.783500 0.631250 0.099687
0.917375 0.631250 0.099687
1.000000 0.631250 0.099687
0.000000 0.762500 0.099687
0.114125 0.762500 0.099687
0.248000 0.762500 0.099687
0.381875 0.762500 0.099687
0.515750 0.762500 0.099687
0.649625 0.762500 0.099687
0.783500 0.762500 0.099687
0.917375 0.762500 0.099687
1.000000 0.762500 0.099687
0.000000 0.893750 0.099687
0.114125 0.893750 0.099687
0.248000 0.893750 0.099687
0.381875 0.893750 0.099687
0.515750 0.893750 0.099687
0.649625 0.893750 0.099687
0.783500 0.893750 0.099687
0.917375 0.893750 0.099687
1.000000 0.893750 0.099687
0.000000 1.000000 0.099687
0.114125 1.000000 0.099687
0.248000 1.000000 0.099687
0.381875 1.000000 0.099687
0.515750 1.000000 0.099687
0.649625 1.000000 0.099687
0.783500 1.000000 0.099687
0.917375 1.000000 0.099687
1.000000 1.000000 0.099687
0.000000 0.000000 0.229625
0.114125 0.000000 0.229625
0.248000 0.000000 0.229625
0.381875 0.000000 0.229625
0.515750 0.000000 0.229625
0.649625 0.000000 0.229625
0.783500 0.000000 0.229625
0.917375 0.000000 0.229625
1.000000 0.000000 0.229625
0.000000 0.106250 0.229625
0.114125 0.106250 0.229625
0.248000 0.106250 0.229625
0.381875 0.106250 0.229625
0.515750 0.106250 0.229625
0.649625 0.106250 0.229625
0.783500 0.106250 0.229625
0.917375 0.106250 0.229625
1.000000 0.106250 0.229625
0.000000 0.237500 0.229625
0.114125 0.237500 0.229625
0.248000 0.237500 0.229625
0.381875 0.237500 0.229625
0.515750 0.237500 0.229625
0.649625 0.237500 0.229625
0.783500 0.237500 0.229625
0.917375 0.237500 0.229625
1.000000 0.237500 0.229625
0.000000 0.368750 0.229625
0.114125 0.368750 0.229625
0.248000 0.368750 0.229625
0.381875 0.368750 0.229625
0.515750 0.368750 0.229625
0.649625 0.368750 0.229625
0.783500 0.368750 0.229625
0.917375 0.368750 0.229625
1.000000 0.368750 0.229625
0.000000 0.500000 0.229625
0.114125 0.500000 0.229625
0.248000 0.500000 0.229625
0.381875 0.500000 0.229625
0.515750 0.500000 0.229625
0.649625 0.500000 0.229625
0.783500 0.500000 0.229625
0.917375 0.500000 0.229625
1.000000 0.500000 0.229625
0.000000 0.631250 0.229625
0.114125 0.631250 0.229625
0.248000 0.631250 0.229625
0.381875 0.631250 0.229625
0.515750 0.631250 0.229625
0.649625 0.631250 0.229625
0.783500 0.631250 0.229625
0.917375 0.631250 0.229625
1.000000 0.631250 0.229625
0.000000 0.762500 0.229625
0.114125 0.762500 0.229625
0.248000 0.762500 0.229625
0.381875 0.762500 0.229625
0.515750 0.762500 0.229625
0.649625 0.762500 0.229625
0.783500 0.762500 0.229625
0.917375 0.762500 0.229625
1.000000 0.762500 0.229625
0.000000 0.893750 0.229625
0.114125 0.893750 0.229625
0.248000 0.893750 0.229625
0.381875 0.893750 0.229625
0.515750 0.893750 0.229625
0.649625 0.893750 0.229625
0.783500 0.893750 0.229625
0.917375 0.893750 0.229625
1.000000 0.893750 0.229625
0.000000 1.000000 0.229625
0.114125 1.000000 0.229625
0.248000 1.000000 0.229625
0.381875 1.000000 0.229625
0.515750 1.000000 0.229625
0.649625 1.000000 0.229625
0.783500 1.000000 0.229625
0.917375 1.000000 0.229625
1.000000 1.000000 0.229625
0.000000 0.000000 0.359562
0.114125 0.000000 0.359562
0.248000 0.000000 0.359562
0.381875 0.000000 0.359562
0.515750 0.000000 0.359562
0.649625 0.000000 0.359562
0.783500 0.000000 0.359562
0.917375 0.000000 0.359562
1.000000 0.000000 0.359562
0.000000 0.106250 0.359562
0.114125 0.106250 0.359562
0.248000 0.106250 0.359562
0.381875 0.106250 0.359562
0.515750 0.106250 0.359562
0.649625 0.106250 0.359562
0.783500 0.106250 0.359562
0.917375 0.106250 0.359562
1.000000 0.106250 0.359562
0.000000 0.237500 0.359562
0.114125 0.237500 0.359562
0.248000 0.237500 0.359562
0.381875 0.237500 0.359562
0.515750 0.237500 0.359562
0.649625 0.237500 0.359562
0.783500 0.237500 0.359562
0.917375 0.237500 0.359562
1.000000 0.237500 0.359562
0.000000 0.368750 0.359562
0.114125 0.368750 0.359562
0.248000 0.368750 0.359562
0.381875 0.368750 0.359562
0.515750 0.368750 0.359562
0.649625 0.368750 0.359562
0.783500 0.368750 0.359562
0.917375 0.368750 0.359562
1.000000 0.368750 0.359562
0.000000 0.500000 0.359562
0.114125 0.500000 0.359562
0.248000 0.500000 0.359562
0.381875 0.500000 0.359562
0.515750 0.500000 0.359562
0.649625 0.500000 0.359562
0.783500 0.500000 0.359562
0.917375 0.500000 0.359562
1.000000 0.500000 0.359562
0.000000 0.631250 0.359562
0.114125 0.631250 0.359562
0.248000 0.631250 0.359562
0.381875 0.631250 0.359562
0.515750 0.631250 0.359562
0.649625 0.631250 0.359562
0.783500 0.631250 0.359562
0.917375 0.631250 0.359562
1.000000 0.631250 0.359562
0.000000 0.762500 0.359562
0.114125 0.762500 0.359562
0.248000 0.762500 0.359562
0.381875 0.762500 0.359562
0.515750 0.762500 0.359562
0.649625 0.762500 0.359562
0.783500 0.762500 0.359562
0.917375 0.762500 0.359562
1.000000 0.762500 0.359562
0.000000 0.893750 0.359562
0.114125 0.893750 0.359562
0.248000 0.893750 0.359562
0.381875 0.893750 0.359562
0.515750 0.893750 0.359562
0.649625 0.893750 0.359562
0.783500 0.893750 0.359562
0.917375 0.893750 0.359562
1.000000 0.893750 0.359562
0.000000 1.000000 0.359562
0.114125 1.000000 0.359562
0.248000 1.000000 0.359562
0.381875 1.000000 0.359562
0.515750 1.000000 0.359562
0.649625 1.000000 0.359562
0.783500 1.000000 0.359562
0.917375 1.000000 0.359562
1.000000 1.000000 0.359562
0.000000 0.000000 0.489500
0.114125 0.000000 0.489500
0.248000 0.000000 0.489500
0.381875 0.000000 0.489500
0.515750 0.000000 0.489500
0.649625 0.000000 0.489500
0.783500 0.000000 0.489500
0.917375 0.000000 0.489500
1.000000 0.000000 0.489500
0.000000 0.106250 0.489500
0.114125 0.106250 0.489500
0.248000 0.106250 0.489500
0.381875 0.106250 0.489500
0.515750 0.106250 0.489500
0.649625 0.106250 0.489500
0.783500 0.106250 0.489500
0.917375 0.106250 0.489500
1.000000 0.106250 0.489500
0.000000 0.237500 0.489500
0.114125 0.237500 0.489500
0.248000 0.237500 0.489500
0.381875 0.237500 0.489500
0.515750 0.237500 0.489500
0.649625 0.237500 0.489500
0.783500 0.237500 0.489500
0.917375 0.237500 0.489500
1.000000 0.237500 0.489500
0.000000 0.368750 0.489500
0.114125 0.368750 0.489500
0.248000 0.368750 0.489500
0.381875 0.368750 0.489500
0.515750 0.368750 0.489500
0.649625 0.368750 0.489500
0.783500 0.368750 0.489500
0.917375 0.368750 0.489500
1.000000 0.368750 0.489500
0.000000 0.500000 0.489500
0.114125 0.500000 0.489500
0.248000 0.500000 0.489500
0.381875 0.500000 0.489500
0.515750 0.500000 0.489500
0.649625 0.500000 0.489500
0.783500 0.500000 0.489500
0.917375 0.500000 0.489500
1.000000 0.500000 0.489500
0.000000 0.631250 0.489500
0.114125 0.631250 0.489500
0.248000 0.631250 0.489500
0.381875 0.631250 0.489500
0.515750 0.631250 0.489500
0.649625 0.631250 0.489500
0.783500 0.631250 0.489500
0.917375 0.631250 0.489500
1.000000 0.631250 0.489500
0.000000 0.762500 0.489500
0.114125 0.762500 0.489500
0.248000 0.762500 0.489500
0.381875 0.762500 0.489500
0.515750 0.762500 0.489500
0.649625 0.762500 0.489500
0.783500 0.762500 0.489500
0.917375 0.762500 0.489500
1.000000 0.762500 0.489500
0.000000 0.893750 0.489500
0.114125 0.893750 0.489500
0.248000 0.893750 0.489500
0.381875 0.893750 0.489500
0.515750 0.893750 0.489500
0.649625 0.893750 0.489500
0.783500 0.893750 0.489500
0.917375 0.893750 0.489500
1.000000 0.893750 0.489500
0.000000 1.000000 0.489500
0.114125 1.000000 0.489500
0.248000 1.000000 0.489500
0.381875 1.000000 0.489500
0.515750 1.000000 0.489500
0.649625 1.000000 0.489500
0.783500 1.000000 0.489500
0.917375 1.000000 0.489500
1.000000 1.000000 0.489500
0.000000 0.000000 0.619438
0.114125 0.000000 0.619438
0.248000 0.000000 0.619438
0.381875 0.000000 0.619438
0.515750 0.000000 0.619438
0.649625 0.000000 0.619438
0.783500 0.000000 0.619438
0.917375 0.000000 0.619438
1.000000 0.000000 0.619438
0.000000 0.106250 0.619438
0.114125 0.106250 0.619438
0.248000 0.106250 0.619438
0.381875 0.106250 0.619438
0.515750 0.106250 0.619438
0.649625 0.106250 0.619438
0.783500 0.106250 0.619438
0.917375 0.106250 0.619438
1.000000 0.106250 0.619438
0.000000 0.237500 0.619438
0.114125 0.237500 0.619438
0.248000 0.237500 0.619438
0.381875 0.237500 0.619438
0.515750 0.237500 0.619438
0.649625 0.237500 0.619438
0.783500 0.237500 0.619438
0.917375 0.237500 0.619438
1.000000 0.237500 0.619438
0.000000 0.368750 0.619438
0.114125 0.368750 0.619438
0.248000 0.368750 0.619438
0.381875 0.368750 0.619438
0.515750 0.368750 0.619438
0.649625 0.368750 0.619438
0.783500 0.368750 0.619438
0.917375 0.368750 0.619438
1.000000 0.368750 0.619438
0.000000 0.500000 0.619438
0.114125 0.500000 0.619438
0.248000 0.500000 0.619438
0.381875 0.500000 0.619438
0.515750 0.500000 0.619438
0.649625 0.500000 0.619438
0.783500 0.500000 0.619438
0.917375 0.500000 0.619438
1.000000 0.500000 0.619438
0.000000 0.631250 0.619438
0.114125 0.631250 0.619438
0.248000 0.631250 0.619438
0.381875 0.631250 0.619438
0.515750 0.631250 0.619438
0.649625 0.631250 0.619438
0.783500 0.631250 0.619438
0.917375 0.631250 0.619438
1.000000 0.631250 0.619438
0.000000 0.762500 0.619438
0.114125 0.762500 0.619438
0.248000 0.762500 0.619438
0.381875 0.762500 0.619438
0.515750 0.762500 0.619438
0.649625 0.762500 0.619438
0.783500 0.762500 0.619438
0.917375 0.762500 0.619438
1.000000 0.762500 0.619438
0.000000 0.893750 0.619438
0.114125 0.893750 0.619438
0.248000 0.893750 0.619438
0.381875 0.893750 0.619438
0.515750 0.893750 0.619438
0.649625 0.893750 0.619438
0.783500 0.893750 0.619438
0.917375 0.893750 0.619438
1.000000 0.893750 0.619438
0.000000 1.000000 0.619438
0.114125 1.000000 0.619438
0.248000 1.000000 0.619438
0.381875 1.000000 0.619438
0.515750 1.000000 0.619438
0.649625 1.000000 0.619438
0.783500 1.000000 0.619438
0.917375 1.000000 0.619438
1.000000 1.000000 0.619438
0.000000 0.000000 0.749375
0.114125 0.000000 0.749375
0.248000 0.000000 0.749375
0.381875 0.000000 0.749375
0.515750 0.000000 0.749375
0.649625 0.000000 0.749375
0.783500 0.000000 0.749375
0.917375 0.000000 0.749375
1.000000 0.000000 0.749375
0.000000 0.106250 0.749375
0.114125 0.106250 0.749375
0.248000 0.106250 0.749375
0.381875 0.106250 0.749375
0.515750 0.106250 0.749375
0.649625 0.106250 0.749375
0.783500 0.106250 0.749375
0.917375 0.106250 0.749375
1.000000 0.106250 0.749375
0.000000 0.237500 0.749375
0.114125 0.237500 0.749375
0.248000 0.237500 0.749375
0.381875 0.237500 0.749375
0.515750 0.237500 0.749375
0.649625 0.237500 0.749375
0.783500 0.237500 0.749375
0.917375 0.237500 0.749375
1.000000 0.237500 0.749375
0.000000 0.368750 0.749375
0.114125 0.368750 0.749375
0.248000 0.368750 0.749375
0.381875 0.368750 0.749375
0.515750 0.368750 0.749375
0.649625 0.368750 0.749375
0.783500 0.368750 0.749375
0.917375 0.368750 0.749375
1.000000 0.368750 0.749375
0.000000 0.500000 0.749375
0.114125 0.500000 0.749375
0.248000 0.500000 0.749375
0.381875 0.500000 0.749375
0.515750 0.500000 0.749375
0.649625 0.500000 0.749375
0.783500 0.500000 0.749375
0.917375 0.500000 0.749375
1.000000 0.500000 0.749375
0.000000 0.631250 0.749375
0.114125 0.631250 0.749375
0.248000 0.631250 0.749375
0.381875 0.631250 0.749375
0.515750 0.631250 0.749375
0.649625 0.631250 0.749375
0.783500 0.631250 0.749375
0.917375 0.631250 0.749375
1.000000 0.631250 0.749375
0.000000 0.762500 0.749375
0.114125 0.762500 0.749375
0.248000 0.762500 0.749375
0.381875 0.762500 0.749375
0.515750 0.762500 0.749375
0.649625 0.762500 0.749375
0.783500 0.762500 0.749375
0.917375 0.762500 0.749375
1.000000 0.762500 0.749375
0.000000 0.893750 0.749375
0.114125 0.893750 0.749375
0.248000 0.893750 0.749375
0.381875 0.893750 0.749375
0.515750 0.893750 0.749375
0.649625 0.893750 0.749375
0.783500 0.893750 0.749375
0.917375 0.893750 0.749375
1.000000 0.893750 0.749375
0.000000 1.000000 0.749375
0.114125 1.000000 0.749375
0.248000 1.000000 0.749375
0.381875 1.000000 0.749375
0.515750 1.000000 0.749375
0.649625 1.000000 0.749375
0.783500 1.000000 0.749375
0.917375 1.000000 0.749375
1.000000 1.000000 0.749375
0.000000 0.000000 0.879312
0.114125 0.000000 0.879312
0.248000 0.000000 0.879312
0.381875 0.000000 0.879312
0.515750 0.000000 0.879312
0.649625 0.000000 0.879312
0.783500 0.000000 0.879312
0.917375 0.000000 0.879312
1.000000 0.000000 0.879312
0.000000 0.106250 0.879312
0.114125 0.106250 0.879312
0.248000 0.106250 0.879312
0.381875 0.106250 0.879312
0.515750 0.106250 0.879312
0.649625 0.106250 0.879312
0.783500 0.106250 0.879312
0.917375 0.106250 0.879313
1.000000 0.106250 0.879312
0.000000 0.237500 0.879312
0.114125 0.237500 0.879312
0.248000 0.237500 0.879312
0.381875 0.237500 0.879312
0.515750 0.237500 0.879312
0.649625 0.237500 0.879312
0.783500 0.237500 0.879312
0.917375 0.237500 0.879312
1.000000 0.237500 0.879312
0.000000 0.368750 0.879313
0.114125 0.368750 0.879312
0.248000 0.368750 0.879312
0.381875 0.368750 0.879312
0.515750 0.368750 0.879312
0.649625 0.368750 0.879312
0.783500 0.368750 0.879312
0.917375 0.368750 0.879312
1.000000 0.368750 0.879312
0.000000 0.500000 0.879312
0.114125 0.500000 0.879312
0.248000 0.500000 0.879312
0.381875 0.500000 0.879312
0.515750 0.500000 0.879312
0.649625 0.500000 0.879312
0.783500 0.500000 0.879312
0.917375 0.500000 0.879312
1.000000 0.500000 0.879312
0.000000 0.631250 0.879312
0.114125 0.631250 0.879312
0.248000 0.631250 0.879312
0.381875 0.631250 0.879312
0.515750 0.631250 0.879312
0.649625 0.631250 0.879312
0.783500 0.631250 0.879312
0.917375 0.631250 0.879312
1.000000 0.631250 0.879312
0.000000 0.762500 0.879312
0.114125 0.762500 0.879312
0.248000 0.762500 0.879312
0.381875 0.762500 0.879312
0.515750 0.762500 0.879312
0.649625 0.762500 0.879312
0.783500 0.762500 0.879312
0.917375 0.762500 0.879312
1.000000 0.762500 0.879312
0.000000 0.893750 0.879312
0.114125 0.893750 0.879312
0.248000 0.893750 0.879312
0.381875 0.893750 0.879312
0.515750 0.893750 0.879312
0.649625 0.893750 0.879312
0.783500 0.893750 0.879312
0.917375 0.893750 0.879312
1.000000 0.893750 0.879312
0.000000 1.000000 0.879312
0.114125 1.000000 0.879312
0.248000 1.000000 0.879312
0.381875 1.000000 0.879312
0.515750 1.000000 0.879312
0.649625 1.000000 0.879312
0.783500 1.000000 0.879312
0.917375 1.000000 0.879312
1.000000 1.000000 0.879312
0.000000 0.000000 1.000000
0.114125 0.000000 1.000000
0.248000 0.000000 1.000000
0.381875 0.000000 1.000000
0.515750 0.000000 1.000000
0.649625 0.000000 1.000000
0.783500 0.000000 1.000000
0.917375 0.000000 1.000000
1.000000 0.000000 1.000000
0.000000 0.106250 1.000000
0.114125 0.106250 1.000000
0.248000 0.106250 1.000000
0.381875 0.106250 1.000000
0.515750 0.106250 1.000000
0.649625 0.106250 1.000000
0.783500 0.106250 1.000000
0.917375 0.106250 1.000000
1.000000 0.106250 1.000000
0.000000 0.237500 1.000000
0.114125 0.237500 1.000000
0.248000 0.237500 1.000000
0.381875 0.237500 1.000000
0.515750 0.237500 1.000000
0.649625 0.237500 1.000000
0.783500 0.237500 1.000000
0.917375 0.237500 1.000000
1.000000 0.237500 1.000000
0.000000 0.368750 1.000000
0.114125 0.368750 1.000000
0.248000 0.368750 1.000000
0.381875 0.368750 1.000000
0.515750 0.368750 1.000000
0.649625 0.368750 1.000000
0.783500 0.368750 1.000000
0.917375 0.368750 1.000000
1.000000 0.368750 1.000000
0.000000 0.500000 1.000000
0.114125 0.500000 1.000000
0.248000 0.500000 1.000000
0.381875 0.500000 1.000000
0.515750 0.500000 1.000000
0.649625 0.500000 1.000000
0.783500 0.500000 1.000000
0.917375 0.500000 1.000000
1.000000 0.500000 1.000000
0.000000 0.631250 1.000000
0.114125 0.631250 1.000000
0.248000 0.631250 1.000000
0.381875 0.631250 1.000000
0.515750 0.631250 1.000000
0.649625 0.631250 1.000000
0.783500 0.631250 1.000000
0.917375 0.631250 1.000000
1.000000 0.631250 1.000000
0.000000 0.762500 1.000000
0.114125 0.762500 1.000000
0.248000 0.762500 1.000000
0.381875 0.762500 1.000000
0.515750 0.762500 1.000000
0.649625 0.762500 1.000000
0.783500 0.762500 1.000000
0.917375 0.762500 1.000000
1.000000 0.762500 1.000000
0.000000 0.893750 1.000000
0.114125 0.893750 1.000000
0.248000 0.893750 1.000000
0.381875 0.893750 1.000000
0.515750 0.893750 1.000000
0.649625 0.893750 1.000000
0.783500 0.893750 1.000000
0.917375 0.893750 1.000000
1.000000 0.893750 1.000000
0.000000 1.000000 1.000000
0.114125 1.000000 1.000000
0.248000 1.000000 1.000000
0.381875 1.000000 1.000000
0.515750 1.000000 1.000000
0.649625 1.000000 1.000000
0.783500 1.000000 1.000000
0.917375 1.000000 1.000000
1.000000 1.000000 1.000000
