apps/web/public/brand-library/luts/punchy-social.cube
TITLE "Punchy Social"
LUT_3D_SIZE 33
DOMAIN_MIN 0.0 0.0 0.0
DOMAIN_MAX 1.0 1.0 1.0
0.000000 0.000000 0.000000
0.000000 0.000000 0.000000
0.000000 0.000000 0.000000
0.019735 0.000000 0.000000
0.065619 0.000000 0.000000
0.112117 0.000000 0.000000
0.159110 0.000000 0.000000
0.206520 0.000000 0.000000
0.254288 0.000000 0.000000
0.302372 0.000000 0.000000
0.350739 0.000000 0.000000
0.399362 0.000000 0.000000
0.448218 0.000000 0.000000
0.497289 0.000000 0.000000
0.546560 0.000000 0.000000
0.596016 0.000000 0.000000
0.645646 0.000000 0.000000
0.695440 0.000000 0.000000
0.745388 0.000000 0.000000
0.795483 0.000000 0.000000
0.845716 0.000000 0.000000
0.896082 0.000000 0.000000
0.946575 0.000000 0.000000
0.997188 0.000000 0.000000
1.000000 0.000000 0.000000
1.000000 0.000000 0.000000
1.000000 0.000000 0.000000
1.000000 0.000000 0.000000
1.000000 0.000000 0.000000
1.000000 0.000000 0.000000
1.000000 0.000000 0.000000
1.000000 0.000000 0.000000
1.000000 0.000000 0.000000
0.000000 0.000000 0.000000
0.000000 0.000000 0.000000
0.000000 0.000000 0.000000
0.013038 0.000000 0.000000
0.058922 0.000000 0.000000
0.105420 0.000000 0.000000
0.152413 0.000000 0.000000
0.199823 0.000000 0.000000
0.247591 0.000000 0.000000
0.295675 0.000000 0.000000
0.344042 0.000000 0.000000
0.392665 0.000000 0.000000
0.441521 0.000000 0.000000
0.490592 0.000000 0.000000
0.539863 0.000000 0.000000
0.589319 0.000000 0.000000
0.638949 0.000000 0.000000
0.688743 0.000000 0.000000
0.738691 0.000000 0.000000
0.788786 0.000000 0.000000
0.839019 0.000000 0.000000
0.889385 0.000000 0.000000
0.939878 0.000000 0.000000
0.990491 0.000000 0.000000
1.000000 0.000000 0.000000
1.000000 0.000000 0.000000
1.000000 0.000000 0.000000
1.000000 0.000000 0.000000
1.000000 0.000000 0.000000
1.000000 0.000000 0.000000
1.000000 0.000000 0.000000
1.000000 0.000000 0.000000
1.000000 0.000000 0.000000
0.000000 0.000000 0.000000
0.000000 0.000000 0.000000
0.000000 0.000000 0.000000
0.005843 0.000000 0.000000
0.051727 0.000000 0.000000
0.098225 0.000000 0.000000
0.145219 0.000000 0.000000
0.192628 0.000000 0.000000
0.240396 0.000000 0.000000
0.288481 0.000000 0.000000
0.336848 0.000000 0.000000
0.385470 0.000000 0.000000
0.434327 0.000000 0.000000
0.483398 0.000000 0.000000
0.532668 0.000000 0.000000
0.582124 0.000000 0.000000
0.631754 0.000000 0.000000
0.681548 0.000000 0.000000
0.731497 0.000000 0.000000
0.781591 0.000000 0.000000
0.831825 0.000000 0.000000
0.882191 0.000000 0.000000
0.932683 0.000000 0.000000
0.983297 0.000000 0.000000
1.000000 0.000000 0.000000
1.000000 0.000000 0.000000
1.000000 0.000000 0.000000
1.000000 0.000000 0.000000
1.000000 0.000000 0.000000
1.000000 0.000000 0.000000
1.000000 0.000000 0.000000
1.000000 0.000000 0.000000
1.000000 0.000000 0.000000
0.000000 0.004776 0.000000
0.000000 0.002785 0.000000
0.000000 0.000646 0.000000
0.000000 0.000000 0.000000
0.044332 0.000000 0.000000
0.090830 0.000000 0.000000
0.137823 0.000000 0.000000
0.185233 0.000000 0.000000
0.233001 0.000000 0.000000
0.281085 0.000000 0.000000
0.329452 0.000000 0.000000
0.378075 0.000000 0.000000
0.426931 0.000000 0.000000
0.476002 0.000000 0.000000
0.525273 0.000000 0.000000
0.574729 0.000000 0.000000
0.624359 0.000000 0.000000
0.674153 0.000000 0.000000
0.724101 0.000000 0.000000
0.774196 0.000000 0.000000
0.824429 0.000000 0.000000
0.874795 0.000000 0.000000
0.925288 0.000000 0.000000
0.975901 0.000000 0.000000
1.000000 0.000000 0.000000
1.000000 0.000000 0.000000
1.000000 0.000000 0.000000
1.000000 0.000000 0.000000
1.000000 0.000000 0.000000
1.000000 0.000000 0.000000
1.000000 0.000000 0.000000
1.000000 0.000000 0.000000
1.000000 0.000000 0.000000
0.000000 0.045369 0.000000
0.000000 0.043378 0.000000
0.000000 0.041239 0.000000
0.000000 0.039041 0.000000
0.036803 0.036803 0.000000
0.083301 0.034535 0.000000
0.130295 0.032243 0.000000
0.177704 0.029931 0.000000
0.225472 0.027601 0.000000
0.273557 0.025256 0.000000
0.321924 0.022897 0.000000
0.370546 0.020525 0.000000
0.419403 0.018142 0.000000
0.468474 0.015749 0.000000
0.517744 0.013345 0.000000
0.567200 0.010933 0.000000
0.616831 0.008513 0.000000
0.666624 0.006084 0.000000
0.716573 0.003648 0.000000
0.766667 0.001204 0.000000
0.816901 0.000000 0.000000
0.867267 0.000000 0.000000
0.917759 0.000000 0.000000
0.968373 0.000000 0.000000
1.000000 0.000000 0.000000
1.000000 0.000000 0.000000
1.000000 0.000000 0.000000
1.000000 0.000000 0.000000
1.000000 0.000000 0.000000
1.000000 0.000000 0.000000
1.000000 0.000000 0.000000
1.000000 0.000000 0.000000
1.000000 0.000000 0.000000
0.000000 0.086505 0.000000
0.000000 0.084515 0.000000
0.000000 0.082376 0.000000
0.000000 0.080178 0.000000
0.029174 0.077940 0.000000
0.075672 0.075672 0.000000
0.122665 0.073380 0.000000
0.170075 0.071067 0.000000
0.217843 0.068737 0.000000
0.265927 0.066392 0.000000
0.314294 0.064033 0.000000
0.362917 0.061662 0.000000
0.411773 0.059279 0.000000
0.460844 0.056885 0.000000
0.510115 0.054482 0.000000
0.559571 0.052070 0.000000
0.609201 0.049649 0.000000
0.658995 0.047220 0.000000
0.708943 0.044784 0.000000
0.759038 0.042341 0.000000
0.809271 0.039891 0.000000
0.859637 0.037434 0.000000
0.910130 0.034971 0.000000
0.960743 0.032503 0.000000
1.000000 0.030029 0.000000
1.000000 0.027549 0.000000
1.000000 0.025064 0.000000
1.000000 0.022574 0.000000
1.000000 0.020079 0.000000
1.000000 0.017579 0.000000
1.000000 0.015075 0.000000
1.000000 0.013881 0.000000
1.000000 0.013881 0.000000
0.000000 0.128080 0.000000
0.000000 0.126089 0.000000
0.000000 0.123951 0.000000
0.000000 0.121752 0.000000
0.021463 0.119514 0.000000
0.067961 0.117247 0.000000
0.114954 0.114954 0.000000
0.162364 0.112642 0.000000
0.210132 0.110312 0.000000
0.258217 0.107967 0.000000
0.306584 0.105608 0.000000
0.355206 0.103236 0.000000
0.404062 0.100853 0.000000
0.453134 0.098460 0.000000
0.502404 0.096057 0.000000
0.551860 0.093645 0.000000
0.601490 0.091224 0.000000
0.651284 0.088795 0.000000
0.701232 0.086359 0.000000
0.751327 0.083916 0.000000
0.801561 0.081466 0.000000
0.851927 0.079009 0.000000
0.902419 0.076546 0.000000
0.953032 0.074078 0.000000
1.000000 0.071603 0.000000
1.000000 0.069124 0.000000
1.000000 0.066639 0.000000
1.000000 0.064149 0.000000
1.000000 0.061654 0.000000
1.000000 0.059154 0.000000
1.000000 0.056650 0.000000
1.000000 0.055456 0.000000
1.000000 0.055456 0.000000
0.000000 0.170023 0.000000
0.000000 0.168032 0.000000
0.000000 0.165894 0.000000
0.000000 0.163695 0.000000
0.013684 0.161457 0.000000
0.060182 0.159189 0.000000
0.107176 0.156897 0.000000
0.154585 0.154585 0.000000
0.202353 0.152255 0.000000
0.250438 0.149910 0.000000
0.298805 0.147551 0.000000
0.347427 0.145179 0.000000
0.396283 0.142796 0.000000
0.445355 0.140403 0.000000
0.494625 0.138000 0.000000
0.544081 0.135587 0.000000
0.593711 0.133167 0.000000
0.643505 0.130738 0.000000
0.693453 0.128302 0.000000
0.743548 0.125858 0.000000
0.793782 0.123408 0.000000
0.844148 0.120952 0.000000
0.894640 0.118489 0.000000
0.945254 0.116020 0.000000
0.995983 0.113546 0.000000
1.000000 0.111066 0.000000
1.000000 0.108581 0.000000
1.000000 0.106091 0.000000
1.000000 0.103596 0.000000
1.000000 0.101097 0.000000
1.000000 0.098593 0.000000
1.000000 0.097399 0.000000
1.000000 0.097399 0.000000
0.000000 0.212283 0.000000
0.000000 0.210293 0.000000
0.000000 0.208154 0.000000
0.000000 0.205956 0.000000
0.005846 0.203718 0.000000
0.052344 0.201450 0.000000
0.099338 0.199158 0.000000
0.146747 0.196845 0.000000
0.194515 0.194515 0.000000
0.242600 0.192170 0.000000
0.290967 0.189811 0.000000
0.339589 0.187439 0.000000
0.388446 0.185056 0.000000
0.437517 0.182663 0.000000
0.486787 0.180260 0.000000
0.536243 0.177848 0.000000
0.585874 0.175427 0.000000
0.635667 0.172998 0.000000
0.685616 0.170562 0.000000
0.735710 0.168119 0.000000
0.785944 0.165669 0.000000
0.836310 0.163212 0.000000
0.886802 0.160749 0.000000
0.937416 0.158281 0.000000
0.988145 0.155806 0.000000
1.000000 0.153327 0.000000
1.000000 0.150842 0.000000
1.000000 0.148352 0.000000
1.000000 0.145857 0.000000
1.000000 0.143357 0.000000
1.000000 0.140853 0.000000
1.000000 0.139659 0.000000
1.000000 0.139659 0.000000
0.000000 0.254823 0.000000
0.000000 0.252833 0.000000
0.000000 0.250694 0.000000
0.000000 0.248496 0.000000
0.000000 0.246258 0.000000
0.044455 0.243990 0.000000
0.091448 0.241698 0.000000
0.138857 0.239385 0.000000
0.186626 0.237055 0.000000
0.234710 0.234710 0.000000
0.283077 0.232351 0.000000
0.331700 0.229979 0.000000
0.380556 0.227596 0.000000
0.429627 0.225203 0.000000
0.478897 0.222800 0.000000
0.528354 0.220388 0.000000
0.577984 0.217967 0.000000
0.627778 0.215538 0.000000
0.677726 0.213102 0.000000
0.727820 0.210659 0.000000
0.778054 0.208209 0.000000
0.828420 0.205752 0.000000
0.878913 0.203289 0.000000
0.929526 0.200821 0.000000
0.980255 0.198346 0.000000
1.000000 0.195867 0.000000
1.000000 0.193382 0.000000
1.000000 0.190892 0.000000
1.000000 0.188397 0.000000
1.000000 0.185897 0.000000
1.000000 0.183393 0.000000
1.000000 0.182199 0.000000
1.000000 0.182199 0.000000
0.000000 0.297613 0.000000
0.000000 0.295623 0.000000
0.000000 0.293484 0.000000
0.000000 0.291286 0.000000
0.000000 0.289048 0.000000
0.036518 0.286780 0.000000
0.083512 0.284488 0.000000
0.130921 0.282175 0.000000
0.178689 0.279845 0.000000
0.226774 0.277500 0.000000
0.275141 0.275141 0.000000
0.323764 0.272769 0.000000
0.372620 0.270386 0.000000
0.421691 0.267993 0.000000
0.470961 0.265590 0.000000
0.520418 0.263178 0.000000
0.570048 0.260757 0.000000
0.619841 0.258328 0.000000
0.669790 0.255892 0.000000
0.719884 0.253449 0.000000
0.770118 0.250999 0.000000
0.820484 0.248542 0.000000
0.870976 0.246079 0.000000
0.921590 0.243611 0.000000
0.972319 0.241136 0.000000
1.000000 0.238657 0.000000
1.000000 0.236172 0.000000
1.000000 0.233682 0.000000
1.000000 0.231187 0.000000
1.000000 0.228687 0.000000
1.000000 0.226183 0.000000
1.000000 0.224989 0.000000
1.000000 0.224989 0.000000
0.000000 0.340629 0.000000
0.000000 0.338639 0.000000
0.000000 0.336500 0.000000
0.000000 0.334302 0.000000
0.000000 0.332064 0.000000
0.028540 0.329796 0.000000
0.075534 0.327504 0.000000
0.122943 0.325191 0.000000
0.170711 0.322861 0.000000
0.218796 0.320516 0.000000
0.267163 0.318157 0.000000
0.315786 0.315786 0.000000
0.364642 0.313403 0.000000
0.413713 0.311009 0.000000
0.462983 0.308606 0.000000
0.512440 0.306194 0.000000
0.562070 0.303773 0.000000
0.611863 0.301344 0.000000
0.661812 0.298908 0.000000
0.711906 0.296465 0.000000
0.762140 0.294015 0.000000
0.812506 0.291558 0.000000
0.862998 0.289095 0.000000
0.913612 0.286627 0.000000
0.964341 0.284153 0.000000
1.000000 0.281673 0.000000
1.000000 0.279188 0.000000
1.000000 0.276698 0.000000
1.000000 0.274203 0.000000
1.000000 0.271703 0.000000
1.000000 0.269199 0.000000
1.000000 0.268005 0.000000
1.000000 0.268005 0.000000
0.000000 0.383852 0.000000
0.000000 0.381861 0.000000
0.000000 0.379723 0.000000
0.000000 0.377524 0.000000
0.000000 0.375286 0.000000
0.020524 0.373019 0.000000
0.067517 0.370726 0.000000
0.114927 0.368414 0.000000
0.162695 0.366084 0.000000
0.210779 0.363739 0.000000
0.259147 0.361380 0.000000
0.307769 0.359008 0.000000
0.356625 0.356625 0.000000
0.405697 0.354232 0.000000
0.454967 0.351829 0.000000
0.504423 0.349417 0.000000
0.554053 0.346996 0.000000
0.603847 0.344567 0.000000
0.653795 0.342131 0.000000
0.703890 0.339688 0.000000
0.754124 0.337238 0.000000
0.804490 0.334781 0.000000
0.854982 0.332318 0.000000
0.905595 0.329850 0.000000
0.956325 0.327375 0.000000
1.000000 0.324896 0.000000
1.000000 0.322411 0.000000
1.000000 0.319921 0.000000
1.000000 0.317426 0.000000
1.000000 0.314926 0.000000
1.000000 0.312422 0.000000
1.000000 0.311228 0.000000
1.000000 0.311228 0.000000
0.000000 0.427265 0.000000
0.000000 0.425274 0.000000
0.000000 0.423136 0.000000
0.000000 0.420937 0.000000
0.000000 0.418699 0.000000
0.012472 0.416432 0.000000
0.059466 0.414139 0.000000
0.106875 0.411827 0.000000
0.154643 0.409497 0.000000
0.202728 0.407152 0.000000
0.251095 0.404793 0.000000
0.299718 0.402421 0.000000
0.348574 0.400038 0.000000
0.397645 0.397645 0.000000
0.446915 0.395242 0.000000
0.496372 0.392830 0.000000
0.546002 0.390409 0.000000
0.595795 0.387980 0.000000
0.645744 0.385544 0.000000
0.695838 0.383101 0.000000
0.746072 0.380651 0.000000
0.796438 0.378194 0.000000
0.846930 0.375731 0.000000
0.897544 0.373263 0.000000
0.948273 0.370788 0.000000
0.999114 0.368309 0.000000
1.000000 0.365824 0.000000
1.000000 0.363334 0.000000
1.000000 0.360839 0.000000
1.000000 0.358339 0.000000
1.000000 0.355835 0.000000
1.000000 0.354641 0.000000
1.000000 0.354641 0.000000
0.000000 0.470854 0.000000
0.000000 0.468864 0.000000
0.000000 0.466725 0.000000
0.000000 0.464527 0.000000
0.000000 0.462289 0.000000
0.004388 0.460021 0.000000
0.051381 0.457729 0.000000
0.098791 0.455416 0.000000
0.146559 0.453086 0.000000
0.194644 0.450741 0.000000
0.243011 0.448382 0.000000
0.291633 0.446011 0.000000
0.340489 0.443628 0.000000
0.389561 0.441234 0.000000
0.438831 0.438831 0.000000
0.488287 0.436419 0.000000
0.537917 0.433998 0.000000
0.587711 0.431569 0.000000
0.637659 0.429133 0.000000
0.687754 0.426690 0.000000
0.737988 0.424240 0.000000
0.788354 0.421783 0.000000
0.838846 0.419320 0.000000
0.889459 0.416852 0.000000
0.940189 0.414378 0.000000
0.991030 0.411898 0.000000
1.000000 0.409413 0.000000
1.000000 0.406923 0.000000
1.000000 0.404428 0.000000
1.000000 0.401928 0.000000
1.000000 0.399424 0.000000
1.000000 0.398230 0.000000
1.000000 0.398230 0.000000
0.000000 0.514608 0.000000
0.000000 0.512617 0.000000
0.000000 0.510479 0.000000
0.000000 0.508280 0.000000
0.000000 0.506042 0.000000
0.000000 0.503774 0.000000
0.043267 0.501482 0.000000
0.090676 0.499170 0.000000
0.138444 0.496840 0.000000
0.186529 0.494495 0.000000
0.234896 0.492136 0.000000
0.283518 0.489764 0.000000
0.332375 0.487381 0.000000
0.381446 0.484988 0.000000
0.430716 0.482585 0.000000
0.480172 0.480172 0.000000
0.529803 0.477752 0.000000
0.579596 0.475323 0.000000
0.629545 0.472887 0.000000
0.679639 0.470443 0.000000
0.729873 0.467993 0.000000
0.780239 0.465537 0.000000
0.830731 0.463074 0.000000
0.881345 0.460605 0.000000
0.932074 0.458131 0.000000
0.982915 0.455651 0.000000
1.000000 0.453166 0.000000
1.000000 0.450676 0.000000
1.000000 0.448182 0.000000
1.000000 0.445682 0.000000
1.000000 0.443178 0.000000
1.000000 0.441984 0.000000
1.000000 0.441984 0.000000
0.000000 0.558515 0.000000
0.000000 0.556525 0.000000
0.000000 0.554386 0.000000
0.000000 0.552188 0.000000
0.000000 0.549950 0.000000
0.000000 0.547682 0.000000
0.035123 0.545390 0.000000
0.082533 0.543077 0.000000
0.130301 0.540748 0.000000
0.178385 0.538402 0.000000
0.226752 0.536043 0.000000
0.275375 0.533672 0.000000
0.324231 0.531289 0.000000
0.373302 0.528895 0.000000
0.422573 0.526492 0.000000
0.472029 0.524080 0.000000
0.521659 0.521659 0.000000
0.571453 0.519231 0.000000
0.621401 0.516794 0.000000
0.671496 0.514351 0.000000
0.721729 0.511901 0.000000
0.772095 0.509444 0.000000
0.822588 0.506982 0.000000
0.873201 0.504513 0.000000
0.923931 0.502039 0.000000
0.974772 0.499559 0.000000
1.000000 0.497074 0.000000
1.000000 0.494584 0.000000
1.000000 0.492089 0.000000
1.000000 0.489589 0.000000
1.000000 0.487085 0.000000
1.000000 0.485891 0.000000
1.000000 0.485891 0.000000
0.000000 0.602568 0.000000
0.000000 0.600577 0.000000
0.000000 0.598438 0.000000
0.000000 0.596240 0.000000
0.000000 0.594002 0.000000
0.000000 0.591734 0.000000
0.026953 0.589442 0.000000
0.074362 0.587130 0.000000
0.122131 0.584800 0.000000
0.170215 0.582454 0.000000
0.218582 0.580095 0.000000
0.267205 0.577724 0.000000
0.316061 0.575341 0.000000
0.365132 0.572947 0.000000
0.414403 0.570544 0.000000
0.463859 0.568132 0.000000
0.513489 0.565711 0.000000
0.563283 0.563283 0.000000
0.613231 0.560847 0.000000
0.663326 0.558403 0.000000
0.713559 0.555953 0.000000
0.763925 0.553496 0.000000
0.814418 0.551034 0.000000
0.865031 0.548565 0.000000
0.915761 0.546091 0.000000
0.966601 0.543611 0.000000
1.000000 0.541126 0.000000
1.000000 0.538636 0.000000
1.000000 0.536141 0.000000
1.000000 0.533642 0.000000
1.000000 0.531138 0.000000
1.000000 0.529944 0.000000
1.000000 0.529944 0.000000
0.000000 0.646757 0.000000
0.000000 0.644766 0.000000
0.000000 0.642627 0.000000
0.000000 0.640429 0.000000
0.000000 0.638191 0.000000
0.000000 0.635923 0.000000
0.018758 0.633631 0.000000
0.066167 0.631319 0.000000
0.113935 0.628989 0.000000
0.162020 0.626643 0.000000
0.210387 0.624284 0.000000
0.259009 0.621913 0.000000
0.307865 0.619530 0.000000
0.356937 0.617136 0.000000
0.406207 0.614733 0.000000
0.455663 0.612321 0.000000
0.505293 0.609900 0.000000
0.555087 0.607472 0.000000
0.605035 0.605035 0.000000
0.655130 0.602592 0.000000
0.705364 0.600142 0.000000
0.755730 0.597685 0.000000
0.806222 0.595223 0.000000
0.856836 0.592754 0.000000
0.907565 0.590280 0.000000
0.958406 0.587800 0.000000
1.000000 0.585315 0.000000
1.000000 0.582825 0.000000
1.000000 0.580330 0.000000
1.000000 0.577831 0.000000
1.000000 0.575326 0.000000
1.000000 0.574132 0.000000
1.000000 0.574132 0.000000
0.000000 0.691075 0.000000
0.000000 0.689084 0.000000
0.000000 0.686946 0.000000
0.000000 0.684747 0.000000
0.000000 0.682509 0.000000
0.000000 0.680241 0.000000
0.010538 0.677949 0.000000
0.057947 0.675637 0.000000
0.105716 0.673307 0.000000
0.153800 0.670962 0.000000
0.202167 0.668603 0.000000
0.250790 0.666231 0.000000
0.299646 0.663848 0.000000
0.348717 0.661455 0.000000
0.397988 0.659052 0.000000
0.447444 0.656639 0.000000
0.497074 0.654219 0.000000
0.546868 0.651790 0.000000
0.596816 0.649354 0.000000
0.646910 0.646910 0.000000
0.697144 0.644460 0.000000
0.747510 0.642004 0.000000
0.798003 0.639541 0.000000
0.848616 0.637072 0.000000
0.899345 0.634598 0.000000
0.950186 0.632118 0.000000
1.000000 0.629633 0.000000
1.000000 0.627143 0.000000
1.000000 0.624648 0.000000
1.000000 0.622149 0.000000
1.000000 0.619645 0.000000
1.000000 0.618451 0.000000
1.000000 0.618451 0.000000
0.000000 0.735516 0.000000
0.000000 0.733526 0.000000
0.000000 0.731387 0.000000
0.000000 0.729189 0.000000
0.000000 0.726951 0.000000
0.000000 0.724683 0.000000
0.002296 0.722391 0.000000
0.049705 0.720078 0.000000
0.097473 0.717748 0.000000
0.145558 0.715403 0.000000
0.193925 0.713044 0.000000
0.242547 0.710672 0.000000
0.291404 0.708290 0.000000
0.340475 0.705896 0.000000
0.389745 0.703493 0.000000
0.439201 0.701081 0.000000
0.488831 0.698660 0.000000
0.538625 0.696231 0.000000
0.588574 0.693795 0.000000
0.638668 0.691352 0.000000
0.688902 0.688902 0.000000
0.739268 0.686445 0.000000
0.789760 0.683982 0.000000
0.840374 0.681514 0.000000
0.891103 0.679039 0.000000
0.941944 0.676560 0.000000
0.992892 0.674075 0.000000
1.000000 0.671585 0.000000
1.000000 0.669090 0.000000
1.000000 0.666590 0.000000
1.000000 0.664086 0.000000
1.000000 0.662892 0.000000
1.000000 0.662892 0.000000
0.000000 0.780075 0.000000
0.000000 0.778084 0.000000
0.000000 0.775945 0.000000
0.000000 0.773747 0.000000
0.000000 0.771509 0.000000
0.000000 0.769241 0.000000
0.000000 0.766949 0.000000
0.041441 0.764637 0.000000
0.089209 0.762307 0.000000
0.137294 0.759962 0.000000
0.185661 0.757603 0.000000
0.234283 0.755231 0.000000
0.283139 0.752848 0.000000
0.332211 0.750455 0.000000
0.381481 0.748051 0.000000
0.430937 0.745639 0.000000
0.480567 0.743219 0.000000
0.530361 0.740790 0.000000
0.580309 0.738354 0.000000
0.630404 0.735910 0.000000
0.680638 0.733460 0.000000
0.731004 0.731004 0.000000
0.781496 0.728541 0.000000
0.832110 0.726072 0.000000
0.882839 0.723598 0.000000
0.933680 0.721118 0.000000
0.984628 0.718633 0.000000
1.000000 0.716143 0.000000
1.000000 0.713648 0.000000
1.000000 0.711149 0.000000
1.000000 0.708645 0.000000
1.000000 0.707451 0.000000
1.000000 0.707451 0.000000
0.000000 0.824745 0.000000
0.000000 0.822754 0.000000
0.000000 0.820616 0.000000
0.000000 0.818417 0.000000
0.000000 0.816180 0.000000
0.000000 0.813912 0.000000
0.000000 0.811620 0.000000
0.033156 0.809307 0.000000
0.080924 0.806977 0.000000
0.129009 0.804632 0.000000
0.177376 0.802273 0.000000
0.225998 0.799901 0.000000
0.274855 0.797518 0.000000
0.323926 0.795125 0.000000
0.373196 0.792722 0.000000
0.422652 0.790310 0.000000
0.472283 0.787889 0.000000
0.522076 0.785460 0.000000
0.572025 0.783024 0.000000
0.622119 0.780581 0.000000
0.672353 0.778131 0.000000
0.722719 0.775674 0.000000
0.773211 0.773211 0.000000
0.823825 0.770743 0.000000
0.874554 0.768268 0.000000
0.925395 0.765789 0.000000
0.976343 0.763304 0.000000
1.000000 0.760814 0.000000
1.000000 0.758319 0.000000
1.000000 0.755819 0.000000
1.000000 0.753315 0.000000
1.000000 0.752121 0.000000
1.000000 0.752121 0.000000
0.000000 0.869523 0.000000
0.000000 0.867532 0.000000
0.000000 0.865393 0.000000
0.000000 0.863195 0.000000
0.000000 0.860957 0.000000
0.000000 0.858689 0.000000
0.000000 0.856397 0.000000
0.024851 0.854085 0.000000
0.072620 0.851755 0.000000
0.120704 0.849409 0.000000
0.169071 0.847050 0.000000
0.217694 0.844679 0.000000
0.266550 0.842296 0.000000
0.315621 0.839902 0.000000
0.364892 0.837499 0.000000
0.414348 0.835087 0.000000
0.463978 0.832666 0.000000
0.513772 0.830238 0.000000
0.563720 0.827801 0.000000
0.613814 0.825358 0.000000
0.664048 0.822908 0.000000
0.714414 0.820451 0.000000
0.764907 0.817989 0.000000
0.815520 0.815520 0.000000
0.866249 0.813046 0.000000
0.917090 0.810566 0.000000
0.968038 0.808081 0.000000
1.000000 0.805591 0.000000
1.000000 0.803096 0.000000
1.000000 0.800597 0.000000
1.000000 0.798092 0.000000
1.000000 0.796898 0.000000
1.000000 0.796898 0.000000
0.000000 0.914403 0.000000
0.000000 0.912412 0.000000
0.000000 0.910273 0.000000
0.000000 0.908075 0.000000
0.000000 0.905837 0.000000
0.000000 0.903569 0.000000
0.000000 0.901277 0.000000
0.016528 0.898965 0.000000
0.064296 0.896635 0.000000
0.112380 0.894289 0.000000
0.160747 0.891930 0.000000
0.209370 0.889559 0.000000
0.258226 0.887176 0.000000
0.307297 0.884782 0.000000
0.356568 0.882379 0.000000
0.406024 0.879967 0.000000
0.455654 0.877546 0.000000
0.505448 0.875118 0.000000
0.555396 0.872681 0.000000
0.605491 0.870238 0.000000
0.655724 0.867788 0.000000
0.706090 0.865331 0.000000
0.756583 0.862869 0.000000
0.807196 0.860400 0.000000
0.857926 0.857926 0.000000
0.908767 0.855446 0.000000
0.959715 0.852961 0.000000
1.000000 0.850471 0.000000
1.000000 0.847976 0.000000
1.000000 0.845477 0.000000
1.000000 0.842972 0.000000
1.000000 0.841778 0.000000
1.000000 0.841778 0.000000
0.000000 0.959381 0.000000
0.000000 0.957390 0.000000
0.000000 0.955252 0.000000
0.000000 0.953053 0.000000
0.000000 0.950815 0.000000
0.000000 0.948548 0.000000
0.000000 0.946255 0.000000
0.008186 0.943943 0.000000
0.055954 0.941613 0.000000
0.104038 0.939268 0.000000
0.152405 0.936909 0.000000
0.201028 0.934537 0.000000
0.249884 0.932154 0.000000
0.298955 0.929761 0.000000
0.348226 0.927358 0.000000
0.397682 0.924946 0.000000
0.447312 0.922525 0.000000
0.497106 0.920096 0.000000
0.547054 0.917660 0.000000
0.597149 0.915217 0.000000
0.647382 0.912767 0.000000
0.697748 0.910310 0.000000
0.748241 0.907847 0.000000
0.798854 0.905379 0.000000
0.849584 0.902904 0.000000
0.900425 0.900425 0.000000
0.951373 0.897940 0.000000
1.000000 0.895450 0.000000
1.000000 0.892955 0.000000
1.000000 0.890455 0.000000
1.000000 0.887951 0.000000
1.000000 0.886757 0.000000
1.000000 0.886757 0.000000
0.000000 1.000000 0.000000
0.000000 1.000000 0.000000
0.000000 1.000000 0.000000
0.000000 0.998127 0.000000
0.000000 0.995889 0.000000
0.000000 0.993621 0.000000
0.000000 0.991329 0.000000
0.000000 0.989017 0.000000
0.047594 0.986687 0.000000
0.095679 0.984341 0.000000
0.144046 0.981982 0.000000
0.192668 0.979611 0.000000
0.241525 0.977228 0.000000
0.290596 0.974834 0.000000
0.339866 0.972431 0.000000
0.389322 0.970019 0.000000
0.438953 0.967598 0.000000
0.488746 0.965170 0.000000
0.538695 0.962733 0.000000
0.588789 0.960290 0.000000
0.639023 0.957840 0.000000
0.689389 0.955383 0.000000
0.739881 0.952921 0.000000
0.790495 0.950452 0.000000
0.841224 0.947978 0.000000
0.892065 0.945498 0.000000
0.943013 0.943013 0.000000
