apps/web/public/brand-library/luts/punchy-social.cube
TITLE "Punchy Social"
LUT_3D_SIZE 5
DOMAIN_MIN 0.0 0.0 0.0
DOMAIN_MAX 1.0 1.0 1.0
0.000000 0.000000 0.000000
0.254288 0.000000 0.000000
0.645646 0.000000 0.000000
1.000000 0.000000 0.000000
1.000000 0.000000 0.000000
0.000000 0.212283 0.000000
0.194515 0.194515 0.000000
0.585874 0.175427 0.000000
0.988145 0.155806 0.000000
1.000000 0.139659 0.000000
0.000000 0.558515 0.000000
0.130301 0.540748 0.000000
0.521659 0.521659 0.000000
0.923931 0.502039 0.000000
1.000000 0.485891 0.000000
0.000000 0.914403 0.000000
0.064296 0.896635 0.000000
0.455654 0.877546 0.000000
0.857926 0.857926 0.000000
1.000000 0.841778 0.000000
0.000000 1.000000 0.000000
0.009976 1.000000 0.000000
0.401334 1.000000 0.000000
0.803605 1.000000 0.000000
1.000000 1.000000 0.000000
0.000000 0.000000 0.266022
0.248254 0.000000 0.248254
0.639612 0.000000 0.229166
1.000000 0.000000 0.209545
1.000000 0.000000 0.193398
0.000000 0.206249 0.206249
0.188481 0.188481 0.188481
0.579839 0.169393 0.169393
0.982111 0.149772 0.149772
1.000000 0.133625 0.133625
0.000000 0.552481 0.142035
0.124267 0.534713 0.124267
0.515625 0.515625 0.105179
0.917897 0.496004 0.085558
1.000000 0.479857 0.069411
0.000000 0.908369 0.076030
0.058262 0.890601 0.058262
0.449620 0.871512 0.039173
0.851892 0.851892 0.019553
1.000000 0.835744 0.003406
0.000000 1.000000 0.021710
0.003942 1.000000 0.003942
0.395300 1.000000 0.000000
0.797571 1.000000 0.000000
1.000000 1.000000 0.000000
0.000000 0.000000 0.669986
0.241771 0.000000 0.652218
0.633130 0.000000 0.633130
1.000000 0.000000 0.613509
1.000000 0.000000 0.597362
0.000000 0.199767 0.610213
0.181999 0.181999 0.592445
0.573357 0.162910 0.573357
0.975629 0.143290 0.553736
1.000000 0.127143 0.537589
0.000000 0.545999 0.545999
0.117784 0.528231 0.528231
0.509143 0.509143 0.509143
0.911414 0.489522 0.489522
1.000000 0.473375 0.473375
0.000000 0.901886 0.479994
0.051779 0.884118 0.462226
0.443138 0.865030 0.443138
0.845409 0.845409 0.423517
1.000000 0.829262 0.407370
0.000000 1.000000 0.425674
0.000000 1.000000 0.407906
0.388817 1.000000 0.388817
0.791089 1.000000 0.369197
1.000000 1.000000 0.353049
0.000000 0.000000 1.000000
0.235108 0.000000 1.000000
0.626466 0.000000 1.000000
1.000000 0.000000 1.000000
1.000000 0.000000 1.000000
0.000000 0.193103 1.000000
0.175335 0.175335 1.000000
0.566694 0.156247 0.988586
0.968965 0.136627 0.968965
1.000000 0.120479 0.952818
0.000000 0.539336 0.961228
0.111121 0.521568 0.943460
0.502479 0.502479 0.924372
0.904751 0.482859 0.904751
1.000000 0.466711 0.888604
0.000000 0.895223 0.895223
0.045116 0.877455 0.877455
0.436474 0.858366 0.858366
0.838746 0.838746 0.838746
1.000000 0.822599 0.822599
0.000000 1.000000 0.840903
0.000000 1.000000 0.823135
0.382154 1.000000 0.804046
0.784426 1.000000 0.784426
1.000000 1.000000 0.768278
0.000000 0.000000 1.000000
0.229624 0.000000 1.000000
0.620983 0.000000 1.000000
1.000000 0.000000 1.000000
1.000000 0.000000 1.000000
0.000000 0.187620 1.000000
0.169852 0.169852 1.000000
0.561210 0.150763 1.000000
0.963482 0.131143 1.000000
1.000000 0.114996 1.000000
0.000000 0.533852 1.000000
0.105637 0.516084 1.000000
0.496996 0.496996 1.000000
0.899267 0.477375 1.000000
1.000000 0.461228 1.000000
0.000000 0.889739 1.000000
0.039632 0.871971 1.000000
0.430991 0.852883 1.000000
0.833262 0.833262 1.000000
1.000000 0.817115 1.000000
0.000000 1.000000 1.000000
0.000000 1.000000 1.000000
0.376670 1.000000 1.000000
0.778942 1.000000 1.000000
1.000000 1.000000 1.000000
