apps/web/public/brand-library/luts/punchy-social.cube
TITLE "Punchy Social"
LUT_3D_SIZE 9
DOMAIN_MIN 0.0 0.0 0.0
DOMAIN_MAX 1.0 1.0 1.0
0.000000 0.000000 0.000000
0.065619 0.000000 0.000000
0.254288 0.000000 0.000000
0.448218 0.000000 0.000000
0.645646 0.000000 0.000000
0.845716 0.000000 0.000000
1.000000 0.000000 0.000000
1.000000 0.000000 0.000000
1.000000 0.000000 0.000000
0.000000 0.045369 0.000000
0.036803 0.036803 0.000000
0.225472 0.027601 0.000000
0.419403 0.018142 0.000000
0.616831 0.008513 0.000000
0.816901 0.000000 0.000000
1.000000 0.000000 0.000000
1.000000 0.000000 0.000000
1.000000 0.000000 0.000000
0.000000 0.212283 0.000000
0.005846 0.203718 0.000000
0.194515 0.194515 0.000000
0.388446 0.185056 0.000000
0.585874 0.175427 0.000000
0.785944 0.165669 0.000000
0.988145 0.155806 0.000000
1.000000 0.145857 0.000000
1.000000 0.139659 0.000000
0.000000 0.383852 0.000000
0.000000 0.375286 0.000000
0.162695 0.366084 0.000000
0.356625 0.356625 0.000000
0.554053 0.346996 0.000000
0.754124 0.337238 0.000000
0.956325 0.327375 0.000000
1.000000 0.317426 0.000000
1.000000 0.311228 0.000000
0.000000 0.558515 0.000000
0.000000 0.549950 0.000000
0.130301 0.540748 0.000000
0.324231 0.531289 0.000000
0.521659 0.521659 0.000000
0.721729 0.511901 0.000000
0.923931 0.502039 0.000000
1.000000 0.492089 0.000000
1.000000 0.485891 0.000000
0.000000 0.735516 0.000000
0.000000 0.726951 0.000000
0.097473 0.717748 0.000000
0.291404 0.708290 0.000000
0.488831 0.698660 0.000000
0.688902 0.688902 0.000000
0.891103 0.679039 0.000000
1.000000 0.669090 0.000000
1.000000 0.662892 0.000000
0.000000 0.914403 0.000000
0.000000 0.905837 0.000000
0.064296 0.896635 0.000000
0.258226 0.887176 0.000000
0.455654 0.877546 0.000000
0.655724 0.867788 0.000000
0.857926 0.857926 0.000000
1.000000 0.847976 0.000000
1.000000 0.841778 0.000000
0.000000 1.000000 0.000000
0.000000 1.000000 0.000000
0.030825 1.000000 0.000000
0.224755 1.000000 0.000000
0.422183 1.000000 0.000000
0.622253 1.000000 0.000000
0.824455 1.000000 0.000000
1.000000 1.000000 0.000000
1.000000 1.000000 0.000000
0.000000 1.000000 0.000000
0.000000 1.000000 0.000000
0.009976 1.000000 0.000000
0.203906 1.000000 0.000000
0.401334 1.000000 0.000000
0.601404 1.000000 0.000000
0.803605 1.000000 0.000000
1.000000 1.000000 0.000000
1.000000 1.000000 0.000000
0.000000 0.000000 0.071276
0.062710 0.000000 0.062710
0.251379 0.000000 0.053508
0.445309 0.000000 0.044049
0.642737 0.000000 0.034419
0.842807 0.000000 0.024661
1.000000 0.000000 0.014799
1.000000 0.000000 0.004849
1.000000 0.000000 0.000000
0.000000 0.042460 0.042460
0.033894 0.033894 0.033894
0.222563 0.024692 0.024692
0.416494 0.015233 0.015233
0.613922 0.005604 0.005604
0.813992 0.000000 0.000000
1.000000 0.000000 0.000000
1.000000 0.000000 0.000000
1.000000 0.000000 0.000000
0.000000 0.209374 0.011503
0.002937 0.200809 0.002937
0.191606 0.191606 0.000000
0.385537 0.182147 0.000000
0.582965 0.172518 0.000000
0.783035 0.162760 0.000000
0.985236 0.152897 0.000000
1.000000 0.142948 0.000000
1.000000 0.136750 0.000000
0.000000 0.380943 0.000000
0.000000 0.372378 0.000000
0.159786 0.363175 0.000000
0.353716 0.353716 0.000000
0.551144 0.344087 0.000000
0.751215 0.334329 0.000000
0.953416 0.324466 0.000000
1.000000 0.314517 0.000000
1.000000 0.308319 0.000000
0.000000 0.555607 0.000000
0.000000 0.547041 0.000000
0.127392 0.537839 0.000000
0.321322 0.528380 0.000000
0.518750 0.518750 0.000000
0.718820 0.508992 0.000000
0.921022 0.499130 0.000000
1.000000 0.489180 0.000000
1.000000 0.482982 0.000000
0.000000 0.732607 0.000000
0.000000 0.724042 0.000000
0.094564 0.714839 0.000000
0.288495 0.705381 0.000000
0.485923 0.695751 0.000000
0.685993 0.685993 0.000000
0.888194 0.676130 0.000000
1.000000 0.666181 0.000000
1.000000 0.659983 0.000000
0.000000 0.911494 0.000000
0.000000 0.902928 0.000000
0.061387 0.893726 0.000000
0.255317 0.884267 0.000000
0.452745 0.874637 0.000000
0.652815 0.864879 0.000000
0.855017 0.855017 0.000000
1.000000 0.845067 0.000000
1.000000 0.838870 0.000000
0.000000 1.000000 0.000000
0.000000 1.000000 0.000000
0.027916 1.000000 0.000000
0.221846 1.000000 0.000000
0.419274 1.000000 0.000000
0.619344 1.000000 0.000000
0.821546 1.000000 0.000000
1.000000 1.000000 0.000000
1.000000 1.000000 0.000000
0.000000 1.000000 0.000000
0.000000 1.000000 0.000000
0.007067 1.000000 0.000000
0.200997 1.000000 0.000000
0.398425 1.000000 0.000000
0.598495 1.000000 0.000000
0.800696 1.000000 0.000000
1.000000 1.000000 0.000000
1.000000 1.000000 0.000000
0.000000 0.000000 0.266022
0.059585 0.000000 0.257456
0.248254 0.000000 0.248254
0.442184 0.000000 0.238795
0.639612 0.000000 0.229166
0.839682 0.000000 0.219407
1.000000 0.000000 0.209545
1.000000 0.000000 0.199595
1.000000 0.000000 0.193398
0.000000 0.039335 0.237206
0.030769 0.030769 0.228640
0.219438 0.021567 0.219438
0.413368 0.012108 0.209979
0.610796 0.002478 0.200350
0.810867 0.000000 0.190592
1.000000 0.000000 0.180729
1.000000 0.000000 0.170780
1.000000 0.000000 0.164582
0.000000 0.206249 0.206249
0.000000 0.197683 0.197683
0.188481 0.188481 0.188481
0.382412 0.179022 0.179022
0.579839 0.169393 0.169393
0.779910 0.159635 0.159635
0.982111 0.149772 0.149772
1.000000 0.139823 0.139823
1.000000 0.133625 0.133625
0.000000 0.377818 0.174429
0.000000 0.369252 0.165863
0.156661 0.360050 0.156661
0.350591 0.350591 0.147202
0.548019 0.340962 0.137573
0.748089 0.331203 0.127814
0.950291 0.321341 0.117952
1.000000 0.311392 0.108002
1.000000 0.305194 0.101805
0.000000 0.552481 0.142035
0.000000 0.543916 0.133469
0.124267 0.534713 0.124267
0.318197 0.525255 0.114808
0.515625 0.515625 0.105179
0.715695 0.505867 0.095420
0.917897 0.496004 0.085558
1.000000 0.486055 0.075608
1.000000 0.479857 0.069411
0.000000 0.729482 0.109207
0.000000 0.720917 0.100641
0.091439 0.711714 0.091439
0.285369 0.702255 0.081980
0.482797 0.692626 0.072351
0.682868 0.682868 0.062593
0.885069 0.673005 0.052730
1.000000 0.663056 0.042781
1.000000 0.656858 0.036583
0.000000 0.908369 0.076030
0.000000 0.899803 0.067464
0.058262 0.890601 0.058262
0.252192 0.881142 0.048803
0.449620 0.871512 0.039173
0.649690 0.861754 0.029415
0.851892 0.851892 0.019553
1.000000 0.841942 0.009603
1.000000 0.835744 0.003406
0.000000 1.000000 0.042559
0.000000 1.000000 0.033993
0.024791 1.000000 0.024791
0.218721 1.000000 0.015332
0.416149 1.000000 0.005702
0.616219 1.000000 0.000000
0.818421 1.000000 0.000000
1.000000 1.000000 0.000000
1.000000 1.000000 0.000000
0.000000 1.000000 0.021710
0.000000 1.000000 0.013144
0.003942 1.000000 0.003942
0.197872 1.000000 0.000000
0.395300 1.000000 0.000000
0.595370 1.000000 0.000000
0.797571 1.000000 0.000000
1.000000 1.000000 0.000000
1.000000 1.000000 0.000000
0.000000 0.000000 0.466199
0.056372 0.000000 0.457633
0.245042 0.000000 0.448431
0.438972 0.000000 0.438972
0.636400 0.000000 0.429342
0.836470 0.000000 0.419584
1.000000 0.000000 0.409722
1.000000 0.000000 0.399772
1.000000 0.000000 0.393575
0.000000 0.036123 0.437383
0.027557 0.027557 0.428817
0.216226 0.018355 0.419615
0.410156 0.008896 0.410156
0.607584 0.000000 0.400527
0.807654 0.000000 0.390768
1.000000 0.000000 0.380906
1.000000 0.000000 0.370957
1.000000 0.000000 0.364759
0.000000 0.203037 0.406426
0.000000 0.194471 0.397860
0.185269 0.185269 0.388658
0.379199 0.175810 0.379199
0.576627 0.166181 0.369570
0.776697 0.156422 0.359811
0.978899 0.146560 0.349949
1.000000 0.136610 0.340000
1.000000 0.130413 0.333802
0.000000 0.374606 0.374606
0.000000 0.366040 0.366040
0.153449 0.356838 0.356838
0.347379 0.347379 0.347379
0.544807 0.337750 0.337750
0.744877 0.327991 0.327991
0.947079 0.318129 0.318129
1.000000 0.308179 0.308179
1.000000 0.301982 0.301982
0.000000 0.549269 0.342212
0.000000 0.540703 0.333646
0.121055 0.531501 0.324444
0.314985 0.522042 0.314985
0.512413 0.512413 0.305355
0.712483 0.502654 0.295597
0.914684 0.492792 0.285735
1.000000 0.482843 0.275785
1.000000 0.476645 0.269588
0.000000 0.726270 0.309384
0.000000 0.717704 0.300818
0.088227 0.708502 0.291616
0.282157 0.699043 0.282157
0.479585 0.689414 0.272528
0.679655 0.679655 0.262769
0.881857 0.669793 0.252907
1.000000 0.659843 0.242958
1.000000 0.653646 0.236760
0.000000 0.905156 0.276207
0.000000 0.896591 0.267641
0.055050 0.887388 0.258439
0.248980 0.877929 0.248980
0.446408 0.868300 0.239350
0.646478 0.858542 0.229592
0.848679 0.848679 0.219730
1.000000 0.838730 0.209780
1.000000 0.832532 0.203583
0.000000 1.000000 0.242736
0.000000 1.000000 0.234170
0.021579 1.000000 0.224968
0.215509 1.000000 0.215509
0.412937 1.000000 0.205879
0.613007 1.000000 0.196121
0.815208 1.000000 0.186259
1.000000 1.000000 0.176309
1.000000 1.000000 0.170112
0.000000 1.000000 0.221886
0.000000 1.000000 0.213321
0.000729 1.000000 0.204118
0.194660 1.000000 0.194660
0.392087 1.000000 0.185030
0.592158 1.000000 0.175272
0.794359 1.000000 0.165409
0.998350 1.000000 0.155460
1.000000 1.000000 0.149262
0.000000 0.000000 0.669986
0.053102 0.000000 0.661420
0.241771 0.000000 0.652218
0.435702 0.000000 0.642759
0.633130 0.000000 0.633130
0.833200 0.000000 0.623371
1.000000 0.000000 0.613509
1.000000 0.000000 0.603559
1.000000 0.000000 0.597362
0.000000 0.032852 0.641170
0.024287 0.024287 0.632605
0.212956 0.015084 0.623402
0.406886 0.005625 0.613943
0.604314 0.000000 0.604314
0.804384 0.000000 0.594556
1.000000 0.000000 0.584693
1.000000 0.000000 0.574744
1.000000 0.000000 0.568546
0.000000 0.199767 0.610213
0.000000 0.191201 0.601648
0.181999 0.181999 0.592445
0.375929 0.172540 0.582986
0.573357 0.162910 0.573357
0.773427 0.153152 0.563599
0.975629 0.143290 0.553736
1.000000 0.133340 0.543787
1.000000 0.127143 0.537589
0.000000 0.371336 0.578393
0.000000 0.362770 0.569827
0.150178 0.353568 0.560625
0.344109 0.344109 0.551166
0.541537 0.334479 0.541537
0.741607 0.324721 0.531778
0.943808 0.314859 0.521916
1.000000 0.304909 0.511967
1.000000 0.298711 0.505769
0.000000 0.545999 0.545999
0.000000 0.537433 0.537433
0.117784 0.528231 0.528231
0.311715 0.518772 0.518772
0.509143 0.509143 0.509143
0.709213 0.499384 0.499384
0.911414 0.489522 0.489522
1.000000 0.479572 0.479572
1.000000 0.473375 0.473375
0.000000 0.723000 0.513171
0.000000 0.714434 0.504605
0.084957 0.705232 0.495403
0.278887 0.695773 0.485944
0.476315 0.686143 0.476315
0.676385 0.676385 0.466557
0.878586 0.666523 0.456694
1.000000 0.656573 0.446745
1.000000 0.650376 0.440547
0.000000 0.901886 0.479994
0.000000 0.893320 0.471428
0.051779 0.884118 0.462226
0.245710 0.874659 0.452767
0.443138 0.865030 0.443138
0.643208 0.855271 0.433379
0.845409 0.845409 0.423517
1.000000 0.835460 0.413567
1.000000 0.829262 0.407370
0.000000 1.000000 0.446523
0.000000 1.000000 0.437957
0.018308 1.000000 0.428755
0.212239 1.000000 0.419296
0.409667 1.000000 0.409667
0.609737 1.000000 0.399908
0.811938 1.000000 0.390046
1.000000 1.000000 0.380096
1.000000 1.000000 0.373899
0.000000 1.000000 0.425674
0.000000 1.000000 0.417108
0.000000 1.000000 0.407906
0.191389 1.000000 0.398447
0.388817 1.000000 0.388817
0.588887 1.000000 0.379059
0.791089 1.000000 0.369197
0.995080 1.000000 0.359247
1.000000 1.000000 0.353049
0.000000 0.000000 0.876500
0.049788 0.000000 0.867935
0.238457 0.000000 0.858732
0.432388 0.000000 0.849274
0.629816 0.000000 0.839644
0.829886 0.000000 0.829886
1.000000 0.000000 0.820024
1.000000 0.000000 0.810074
1.000000 0.000000 0.803876
0.000000 0.029538 0.847685
0.020973 0.020973 0.839119
0.209642 0.011770 0.829917
0.403572 0.002311 0.820458
0.601000 0.000000 0.810828
0.801070 0.000000 0.801070
1.000000 0.000000 0.791208
1.000000 0.000000 0.781258
1.000000 0.000000 0.775061
0.000000 0.196453 0.816728
0.000000 0.187887 0.808162
0.178685 0.178685 0.798960
0.372615 0.169226 0.789501
0.570043 0.159596 0.779872
0.770113 0.149838 0.770113
0.972315 0.139976 0.760251
1.000000 0.130026 0.750301
1.000000 0.123829 0.744104
0.000000 0.368022 0.784908
0.000000 0.359456 0.776342
0.146865 0.350254 0.767140
0.340795 0.340795 0.757681
0.538223 0.331165 0.748051
0.738293 0.321407 0.738293
0.940494 0.311545 0.728431
1.000000 0.301595 0.718481
1.000000 0.295398 0.712283
0.000000 0.542685 0.752513
0.000000 0.534119 0.743948
0.114470 0.524917 0.734745
0.308401 0.515458 0.725287
0.505829 0.505829 0.715657
0.705899 0.496070 0.705899
0.908100 0.486208 0.696037
1.000000 0.476258 0.686087
1.000000 0.470061 0.679889
0.000000 0.719686 0.719686
0.000000 0.711120 0.711120
0.081643 0.701918 0.701918
0.275573 0.692459 0.692459
0.473001 0.682829 0.682829
0.673071 0.673071 0.673071
0.875273 0.663209 0.663209
1.000000 0.653259 0.653259
1.000000 0.647062 0.647062
0.000000 0.898572 0.686508
0.000000 0.890006 0.677943
0.048465 0.880804 0.668740
0.242396 0.871345 0.659282
0.439824 0.861716 0.649652
0.639894 0.851957 0.639894
0.842095 0.842095 0.630031
1.000000 0.832146 0.620082
1.000000 0.825948 0.613884
0.000000 1.000000 0.653037
0.000000 1.000000 0.644472
0.014994 1.000000 0.635269
0.208925 1.000000 0.625811
0.406353 1.000000 0.616181
0.606423 1.000000 0.606423
0.808624 1.000000 0.596560
1.000000 1.000000 0.586611
1.000000 1.000000 0.580413
0.000000 1.000000 0.632188
0.000000 1.000000 0.623622
0.000000 1.000000 0.614420
0.188075 1.000000 0.604961
0.385503 1.000000 0.595332
0.585574 1.000000 0.585574
0.787775 1.000000 0.575711
0.991766 1.000000 0.565762
1.000000 1.000000 0.559564
0.000000 0.000000 1.000000
0.046439 0.000000 1.000000
0.235108 0.000000 1.000000
0.429038 0.000000 1.000000
0.626466 0.000000 1.000000
0.826537 0.000000 1.000000
1.000000 0.000000 1.000000
1.000000 0.000000 1.000000
1.000000 0.000000 1.000000
0.000000 0.026189 1.000000
0.017623 0.017623 1.000000
0.206292 0.008421 1.000000
0.400223 0.000000 1.000000
0.597651 0.000000 1.000000
0.797721 0.000000 1.000000
0.999922 0.000000 0.999922
1.000000 0.000000 0.989973
1.000000 0.000000 0.983775
0.000000 0.193103 1.000000
0.000000 0.184538 1.000000
0.175335 0.175335 1.000000
0.369266 0.165877 0.998215
0.566694 0.156247 0.988586
0.766764 0.146489 0.978828
0.968965 0.136627 0.968965
1.000000 0.126677 0.959016
1.000000 0.120479 0.952818
0.000000 0.364672 0.993622
0.000000 0.356107 0.985056
0.143515 0.346904 0.975854
0.337446 0.337446 0.966395
0.534873 0.327816 0.956766
0.734944 0.318058 0.947007
0.937145 0.308195 0.937145
1.000000 0.298246 0.927195
1.000000 0.292048 0.920998
0.000000 0.539336 0.961228
0.000000 0.530770 0.952662
0.111121 0.521568 0.943460
0.305051 0.512109 0.934001
0.502479 0.502479 0.924372
0.702550 0.492721 0.914613
0.904751 0.482859 0.904751
1.000000 0.472909 0.894801
1.000000 0.466711 0.888604
0.000000 0.716337 0.928400
0.000000 0.707771 0.919834
0.078293 0.698569 0.910632
0.272224 0.689110 0.901173
0.469652 0.679480 0.891544
0.669722 0.669722 0.881786
0.871923 0.659860 0.871923
1.000000 0.649910 0.861974
1.000000 0.643712 0.855776
0.000000 0.895223 0.895223
0.000000 0.886657 0.886657
0.045116 0.877455 0.877455
0.239046 0.867996 0.867996
0.436474 0.858366 0.858366
0.636544 0.848608 0.848608
0.838746 0.838746 0.838746
1.000000 0.828796 0.828796
1.000000 0.822599 0.822599
0.000000 1.000000 0.861752
0.000000 1.000000 0.853186
0.011645 1.000000 0.843984
0.205575 1.000000 0.834525
0.403003 1.000000 0.824895
0.603073 1.000000 0.815137
0.805275 1.000000 0.805275
1.000000 1.000000 0.795325
1.000000 1.000000 0.789128
0.000000 1.000000 0.840903
0.000000 1.000000 0.832337
0.000000 1.000000 0.823135
0.184726 1.000000 0.813676
0.382154 1.000000 0.804046
0.582224 1.000000 0.794288
0.784426 1.000000 0.784426
0.988417 1.000000 0.774476
1.000000 1.000000 0.768278
0.000000 0.000000 1.000000
0.043060 0.000000 1.000000
0.231729 0.000000 1.000000
0.425659 0.000000 1.000000
0.623087 0.000000 1.000000
0.823158 0.000000 1.000000
1.000000 0.000000 1.000000
1.000000 0.000000 1.000000
1.000000 0.000000 1.000000
0.000000 0.022810 1.000000
0.014244 0.014244 1.000000
0.202914 0.005042 1.000000
0.396844 0.000000 1.000000
0.594272 0.000000 1.000000
0.794342 0.000000 1.000000
0.996543 0.000000 1.000000
1.000000 0.000000 1.000000
1.000000 0.000000 1.000000
0.000000 0.189725 1.000000
0.000000 0.181159 1.000000
0.171957 0.171957 1.000000
0.365887 0.162498 1.000000
0.563315 0.152868 1.000000
0.763385 0.143110 1.000000
0.965586 0.133248 1.000000
1.000000 0.123298 1.000000
1.000000 0.117100 1.000000
0.000000 0.361293 1.000000
0.000000 0.352728 1.000000
0.140136 0.343525 1.000000
0.334067 0.334067 1.000000
0.531495 0.324437 1.000000
0.731565 0.314679 1.000000
0.933766 0.304817 1.000000
1.000000 0.294867 1.000000
1.000000 0.288669 1.000000
0.000000 0.535957 1.000000
0.000000 0.527391 1.000000
0.107742 0.518189 1.000000
0.301672 0.508730 1.000000
0.499100 0.499100 1.000000
0.699171 0.489342 1.000000
0.901372 0.479480 1.000000
1.000000 0.469530 1.000000
1.000000 0.463333 1.000000
0.000000 0.712958 1.000000
0.000000 0.704392 1.000000
0.074914 0.695190 1.000000
0.268845 0.685731 1.000000
0.466273 0.676101 1.000000
0.666343 0.666343 1.000000
0.868544 0.656481 1.000000
1.000000 0.646531 1.000000
1.000000 0.640333 1.000000
0.000000 0.891844 1.000000
0.000000 0.883278 1.000000
0.041737 0.874076 1.000000
0.235667 0.864617 1.000000
0.433095 0.854988 1.000000
0.633166 0.845229 1.000000
0.835367 0.835367 1.000000
1.000000 0.825417 1.000000
1.000000 0.819220 1.000000
0.000000 1.000000 1.000000
0.000000 1.000000 1.000000
0.008266 1.000000 1.000000
0.202196 1.000000 1.000000
0.399624 1.000000 1.000000
0.599695 1.000000 1.000000
0.801896 1.000000 1.000000
1.000000 1.000000 1.000000
1.000000 0.999689 0.999689
0.000000 1.000000 1.000000
0.000000 1.000000 1.000000
0.000000 1.000000 1.000000
0.181347 1.000000 1.000000
0.378775 1.000000 1.000000
0.578845 1.000000 1.000000
0.781047 1.000000 0.994987
0.985038 1.000000 0.985038
1.000000 1.000000 0.978840
0.000000 0.000000 1.000000
0.040955 0.000000 1.000000
0.229624 0.000000 1.000000
0.423555 0.000000 1.000000
0.620983 0.000000 1.000000
0.821053 0.000000 1.000000
1.000000 0.000000 1.000000
1.000000 0.000000 1.000000
1.000000 0.000000 1.000000
0.000000 0.020705 1.000000
0.012140 0.012140 1.000000
0.200809 0.002937 1.000000
0.394739 0.000000 1.000000
0.592167 0.000000 1.000000
0.792237 0.000000 1.000000
0.994439 0.000000 1.000000
1.000000 0.000000 1.000000
1.000000 0.000000 1.000000
0.000000 0.187620 1.000000
0.000000 0.179054 1.000000
0.169852 0.169852 1.000000
0.363782 0.160393 1.000000
0.561210 0.150763 1.000000
0.761280 0.141005 1.000000
0.963482 0.131143 1.000000
1.000000 0.121193 1.000000
1.000000 0.114996 1.000000
0.000000 0.359189 1.000000
0.000000 0.350623 1.000000
0.138032 0.341421 1.000000
0.331962 0.331962 1.000000
0.529390 0.322332 1.000000
0.729460 0.312574 1.000000
0.931661 0.302712 1.000000
1.000000 0.292762 1.000000
1.000000 0.286565 1.000000
0.000000 0.533852 1.000000
0.000000 0.525286 1.000000
0.105637 0.516084 1.000000
0.299568 0.506625 1.000000
0.496996 0.496996 1.000000
0.697066 0.487237 1.000000
0.899267 0.477375 1.000000
1.000000 0.467425 1.000000
1.000000 0.461228 1.000000
0.000000 0.710853 1.000000
0.000000 0.702287 1.000000
0.072810 0.693085 1.000000
0.266740 0.683626 1.000000
0.464168 0.673997 1.000000
0.664238 0.664238 1.000000
0.866440 0.654376 1.000000
1.000000 0.644426 1.000000
1.000000 0.638229 1.000000
0.000000 0.889739 1.000000
0.000000 0.881173 1.000000
0.039632 0.871971 1.000000
0.233563 0.862512 1.000000
0.430991 0.852883 1.000000
0.631061 0.843124 1.000000
0.833262 0.833262 1.000000
1.000000 0.823313 1.000000
1.000000 0.817115 1.000000
0.000000 1.000000 1.000000
0.000000 1.000000 1.000000
0.006161 1.000000 1.000000
0.200092 1.000000 1.000000
0.397520 1.000000 1.000000
0.597590 1.000000 1.000000
0.799791 1.000000 1.000000
1.000000 1.000000 1.000000
1.000000 0.997585 1.000000
0.000000 1.000000 1.000000
0.000000 1.000000 1.000000
0.000000 1.000000 1.000000
0.179242 1.000000 1.000000
0.376670 1.000000 1.000000
0.576741 1.000000 1.000000
0.778942 1.000000 1.000000
0.982933 1.000000 1.000000
1.000000 1.000000 1.000000
