apps/web/public/brand-library/luts/vintage-faded.cube
TITLE "Vintage Faded"
LUT_3D_SIZE 33
DOMAIN_MIN 0.0 0.0 0.0
DOMAIN_MAX 1.0 1.0 1.0
0.139674 0.140243 0.143815
0.159471 0.141830 0.145279
0.178964 0.143394 0.146721
0.198233 0.144939 0.148146
0.217326 0.146471 0.149558
0.236273 0.147991 0.150959
0.255096 0.149501 0.152351
0.273812 0.151002 0.153736
0.292433 0.152496 0.155114
0.310970 0.153983 0.156485
0.329431 0.155464 0.157851
0.347822 0.156940 0.159212
0.366149 0.158411 0.160568
0.384418 0.159877 0.161920
0.402631 0.161338 0.163268
0.420794 0.162796 0.164613
0.438908 0.164250 0.165954
0.456978 0.165700 0.167291
0.475005 0.167147 0.168626
0.492991 0.168591 0.169958
0.510939 0.170032 0.171287
0.528851 0.171470 0.172614
0.546728 0.172905 0.173938
0.564572 0.174338 0.175259
0.582383 0.175768 0.176579
0.600165 0.177196 0.177896
0.617916 0.178621 0.179211
0.635640 0.180045 0.180524
0.653336 0.181466 0.181836
0.671005 0.182885 0.183145
0.688649 0.184302 0.184453
0.706268 0.185718 0.185759
0.723864 0.187131 0.187063
0.144859 0.162023 0.148384
0.164664 0.163614 0.149849
0.184164 0.165181 0.151292
0.203440 0.166729 0.152719
0.222539 0.168264 0.154132
0.241492 0.169786 0.155534
0.260321 0.171299 0.156928
0.279043 0.172803 0.158314
0.297670 0.174300 0.159693
0.316212 0.175790 0.161065
0.334678 0.177274 0.162432
0.353074 0.178752 0.163794
0.371406 0.180225 0.165152
0.389679 0.181693 0.166505
0.407897 0.183157 0.167854
0.426064 0.184617 0.169199
0.444182 0.186073 0.170541
0.462256 0.187526 0.171880
0.480286 0.188975 0.173216
0.498276 0.190421 0.174548
0.516227 0.191864 0.175878
0.534142 0.193304 0.177206
0.552022 0.194741 0.178531
0.569868 0.196176 0.179853
0.587683 0.197608 0.181174
0.605466 0.199038 0.182492
0.623220 0.200465 0.183808
0.640945 0.201890 0.185122
0.658643 0.203313 0.186434
0.676314 0.204734 0.187744
0.693960 0.206153 0.189053
0.711580 0.207570 0.190359
0.729177 0.208985 0.191665
0.150047 0.183819 0.152957
0.169859 0.185413 0.154424
0.189366 0.186983 0.155868
0.208648 0.188534 0.157295
0.227753 0.190071 0.158710
0.246712 0.191596 0.160114
0.265547 0.193112 0.161508
0.284275 0.194619 0.162895
0.302907 0.196118 0.164275
0.321454 0.197610 0.165649
0.339925 0.199096 0.167017
0.358326 0.200576 0.168380
0.376662 0.202052 0.169738
0.394940 0.203522 0.171093
0.413162 0.204988 0.172443
0.431332 0.206451 0.173789
0.449454 0.207909 0.175132
0.467531 0.209363 0.176472
0.485565 0.210814 0.177808
0.503558 0.212262 0.179142
0.521512 0.213707 0.180473
0.539429 0.215149 0.181801
0.557312 0.216588 0.183127
0.575160 0.218024 0.184450
0.592977 0.219458 0.185771
0.610762 0.220890 0.187090
0.628518 0.222319 0.188407
0.646245 0.223745 0.189722
0.663944 0.225170 0.191035
0.681617 0.226592 0.192346
0.699263 0.228013 0.193655
0.716885 0.229431 0.194963
0.734482 0.230848 0.196268
0.155238 0.205630 0.157534
0.175056 0.207227 0.159002
0.194570 0.208799 0.160447
0.213858 0.210353 0.161876
0.232969 0.211892 0.163292
0.251934 0.213420 0.164697
0.270774 0.214937 0.166093
0.289507 0.216446 0.167480
0.308144 0.217948 0.168861
0.326696 0.219442 0.170236
0.345172 0.220930 0.171605
0.363577 0.222413 0.172969
0.381917 0.223890 0.174329
0.400198 0.225363 0.175684
0.418424 0.226831 0.177035
0.436598 0.228295 0.178382
0.454723 0.229755 0.179726
0.472803 0.231211 0.181066
0.490840 0.232664 0.182404
0.508836 0.234114 0.183738
0.526793 0.235560 0.185070
0.544712 0.237004 0.186399
0.562597 0.238444 0.187726
0.580448 0.239882 0.189050
0.598266 0.241318 0.190372
0.616053 0.242750 0.191692
0.633810 0.244181 0.193009
0.651538 0.245609 0.194325
0.669239 0.247035 0.195638
0.686912 0.248459 0.196950
0.704560 0.249880 0.198260
0.722182 0.251300 0.199568
0.739779 0.252718 0.200875
0.160432 0.227454 0.162115
0.180256 0.229053 0.163584
0.199776 0.230628 0.165031
0.219070 0.232184 0.166461
0.238187 0.233725 0.167877
0.257157 0.235255 0.169283
0.276002 0.236775 0.170680
0.294739 0.238286 0.172069
0.313381 0.239789 0.173451
0.331938 0.241286 0.174827
0.350417 0.242776 0.176197
0.368826 0.244260 0.177562
0.387171 0.245740 0.178922
0.405455 0.247214 0.180278
0.423684 0.248684 0.181630
0.441861 0.250149 0.182978
0.459990 0.251611 0.184323
0.478073 0.253069 0.185664
0.496112 0.254523 0.187002
0.514110 0.255974 0.188338
0.532069 0.257422 0.189670
0.549991 0.258867 0.191000
0.567877 0.260309 0.192328
0.585730 0.261748 0.193652
0.603550 0.263185 0.194975
0.621338 0.264619 0.196295
0.639096 0.266051 0.197614
0.656826 0.267480 0.198930
0.674527 0.268907 0.200244
0.692201 0.270332 0.201557
0.709849 0.271755 0.202867
0.727471 0.273175 0.204176
0.745069 0.274594 0.205483
0.165628 0.249291 0.166700
0.185459 0.250892 0.168170
0.204984 0.252468 0.169618
0.224284 0.254027 0.171048
0.243405 0.255570 0.172466
0.262380 0.257102 0.173873
0.281230 0.258624 0.175271
0.299972 0.260137 0.176661
0.318618 0.261642 0.178044
0.337179 0.263140 0.179421
0.355662 0.264632 0.180792
0.374075 0.266118 0.182157
0.392423 0.267598 0.183519
0.410710 0.269074 0.184875
0.428943 0.270545 0.186228
0.447122 0.272012 0.187577
0.465254 0.273475 0.188923
0.483339 0.274935 0.190265
0.501380 0.276390 0.191604
0.519380 0.277843 0.192940
0.537341 0.279292 0.194273
0.555265 0.280738 0.195604
0.573153 0.282181 0.196932
0.591007 0.283621 0.198257
0.608828 0.285059 0.199581
0.626617 0.286494 0.200902
0.644376 0.287927 0.202221
0.662106 0.289357 0.203537
0.679808 0.290785 0.204852
0.697482 0.292211 0.206165
0.715130 0.293634 0.207476
0.732752 0.295056 0.208786
0.750350 0.296475 0.210093
0.170827 0.271138 0.171288
0.190664 0.272742 0.172759
0.210194 0.274320 0.174208
0.229499 0.275880 0.175640
0.248625 0.277425 0.177058
0.267605 0.278959 0.178466
0.286459 0.280482 0.179865
0.305205 0.281997 0.181256
0.323855 0.283503 0.182640
0.342419 0.285003 0.184017
0.360906 0.286496 0.185389
0.379322 0.287984 0.186756
0.397673 0.289466 0.188118
0.415964 0.290943 0.189475
0.434198 0.292415 0.190829
0.452381 0.293884 0.192179
0.470514 0.295348 0.193525
0.488601 0.296808 0.194868
0.506645 0.298265 0.196208
0.524647 0.299718 0.197544
0.542609 0.301168 0.198878
0.560534 0.302615 0.200209
0.578423 0.304060 0.201538
0.596278 0.305501 0.202864
0.614100 0.306939 0.204188
0.631890 0.308375 0.205510
0.649650 0.309809 0.206829
0.667380 0.311240 0.208147
0.685082 0.312668 0.209462
0.702756 0.314095 0.210776
0.720404 0.315519 0.212087
0.738026 0.316941 0.213397
0.755623 0.318361 0.214705
0.176029 0.292996 0.175879
0.195870 0.294601 0.177352
0.215406 0.296181 0.178801
0.234715 0.297743 0.180234
0.253846 0.299290 0.181654
0.272830 0.300825 0.183062
0.291688 0.302350 0.184462
0.310438 0.303865 0.185854
0.329091 0.305373 0.187238
0.347659 0.306874 0.188617
0.366149 0.308369 0.189989
0.384568 0.309857 0.191357
0.402921 0.311340 0.192720
0.421214 0.312819 0.194078
0.439452 0.314292 0.195432
0.457636 0.315761 0.196783
0.475771 0.317227 0.198130
0.493860 0.318688 0.199473
0.511905 0.320146 0.200814
0.529909 0.321600 0.202151
0.547873 0.323051 0.203486
0.565799 0.324499 0.204817
0.583689 0.325943 0.206147
0.601544 0.327385 0.207474
0.619367 0.328824 0.208798
0.637157 0.330261 0.210120
0.654917 0.331695 0.211440
0.672647 0.333126 0.212758
0.690348 0.334555 0.214074
0.708022 0.335982 0.215388
0.725670 0.337407 0.216700
0.743291 0.338829 0.218010
0.760887 0.340249 0.219319
0.181232 0.314864 0.180474
0.201079 0.316470 0.181947
0.220619 0.318051 0.183397
0.239932 0.319614 0.184831
0.259067 0.321163 0.186252
0.278055 0.322699 0.187661
0.296917 0.324225 0.189062
0.315670 0.325742 0.190454
0.334327 0.327251 0.191840
0.352897 0.328753 0.193219
0.371390 0.330248 0.194592
0.389811 0.331738 0.195961
0.408167 0.333222 0.197324
0.426463 0.334701 0.198683
0.444702 0.336175 0.200038
0.462888 0.337645 0.201389
0.481025 0.339111 0.202737
0.499116 0.340573 0.204081
0.517162 0.342031 0.205422
0.535167 0.343486 0.206760
0.553131 0.344938 0.208095
0.571058 0.346386 0.209427
0.588949 0.347831 0.210757
0.606804 0.349274 0.212085
0.624627 0.350713 0.213410
0.642417 0.352150 0.214732
0.660177 0.353584 0.216053
0.677907 0.355016 0.217371
0.695608 0.356445 0.218688
0.713281 0.357872 0.220002
0.730927 0.359297 0.221315
0.748548 0.360720 0.222625
0.766142 0.362140 0.223934
0.186438 0.336739 0.185071
0.206289 0.338347 0.186545
0.225833 0.339929 0.187997
0.245151 0.341493 0.189431
0.264289 0.343043 0.190853
0.283280 0.344580 0.192263
0.302146 0.346107 0.193664
0.320902 0.347625 0.195058
0.339562 0.349134 0.196444
0.358135 0.350637 0.197824
0.376630 0.352133 0.199198
0.395053 0.353624 0.200567
0.413411 0.355108 0.201931
0.431709 0.356588 0.203290
0.449950 0.358063 0.204646
0.468137 0.359534 0.205998
0.486276 0.361000 0.207346
0.504367 0.362463 0.208691
0.522414 0.363921 0.210032
0.540420 0.365376 0.211371
0.558385 0.366828 0.212706
0.576312 0.368277 0.214039
0.594203 0.369722 0.215370
0.612059 0.371165 0.216697
0.629881 0.372605 0.218023
0.647671 0.374042 0.219346
0.665430 0.375476 0.220667
0.683159 0.376908 0.221986
0.700860 0.378337 0.223303
0.718532 0.379764 0.224617
0.736177 0.381189 0.225930
0.753796 0.382611 0.227241
0.771389 0.384032 0.228551
0.191645 0.358621 0.189671
0.211500 0.360230 0.191146
0.231048 0.361814 0.192598
0.250370 0.363379 0.194034
0.269512 0.364929 0.195456
0.288506 0.366467 0.196867
0.307374 0.367994 0.198269
0.326133 0.369513 0.199663
0.344795 0.371023 0.201050
0.363371 0.372527 0.202430
0.381868 0.374023 0.203805
0.400293 0.375514 0.205175
0.418653 0.376999 0.206539
0.436952 0.378480 0.207900
0.455194 0.379955 0.209256
0.473383 0.381426 0.210608
0.491522 0.382892 0.211957
0.509615 0.384355 0.213302
0.527662 0.385814 0.214644
0.545668 0.387270 0.215983
0.563633 0.388721 0.217319
0.581561 0.390170 0.218653
0.599451 0.391616 0.219984
0.617307 0.393058 0.221312
0.635129 0.394498 0.222638
0.652918 0.395935 0.223961
0.670676 0.397369 0.225283
0.688405 0.398801 0.226602
0.706104 0.400230 0.227919
0.723774 0.401657 0.229234
0.741418 0.403081 0.230547
0.759035 0.404504 0.231859
0.776627 0.405923 0.233168
0.196854 0.380510 0.194274
0.216713 0.382120 0.195750
0.236265 0.383704 0.197203
0.255589 0.385269 0.198639
0.274734 0.386820 0.200062
0.293731 0.388359 0.201474
0.312602 0.389887 0.202876
0.331363 0.391406 0.204271
0.350028 0.392917 0.205658
0.368605 0.394420 0.207039
0.387104 0.395917 0.208415
0.405531 0.397408 0.209785
0.423892 0.398894 0.211150
0.442192 0.400374 0.212511
0.460435 0.401850 0.213868
0.478625 0.403321 0.215220
0.496765 0.404787 0.216570
0.514858 0.406250 0.217915
0.532906 0.407709 0.219258
0.550911 0.409164 0.220597
0.568877 0.410616 0.221934
0.586804 0.412065 0.223268
0.604694 0.413510 0.224599
0.622549 0.414953 0.225928
0.640370 0.416392 0.227254
0.658158 0.417829 0.228578
0.675915 0.419263 0.229899
0.693642 0.420694 0.231219
0.711340 0.422123 0.232536
0.729009 0.423549 0.233852
0.746651 0.424973 0.235165
0.764266 0.426395 0.236477
0.781855 0.427814 0.237787
0.202065 0.402404 0.198879
0.221927 0.404014 0.200356
0.241482 0.405598 0.201809
0.260809 0.407164 0.203246
0.279957 0.408715 0.204670
0.298956 0.410254 0.206082
0.317829 0.411783 0.207485
0.336593 0.413302 0.208881
0.355259 0.414813 0.210269
0.373838 0.416317 0.211650
0.392338 0.417814 0.213026
0.410766 0.419305 0.214397
0.429128 0.420790 0.215763
0.447429 0.422271 0.217124
0.465673 0.423746 0.218481
0.483863 0.425217 0.219834
0.502003 0.426684 0.221184
0.520096 0.428146 0.222530
0.538144 0.429605 0.223873
0.556150 0.431060 0.225213
0.574115 0.432511 0.226550
0.592041 0.433960 0.227884
0.609930 0.435405 0.229216
0.627784 0.436847 0.230545
0.645604 0.438286 0.231871
0.663391 0.439722 0.233195
0.681147 0.441155 0.234517
0.698872 0.442586 0.235837
0.716568 0.444014 0.237155
0.734235 0.445440 0.238470
0.751874 0.446863 0.239784
0.769487 0.448284 0.241096
0.787074 0.449703 0.242406
0.207276 0.424301 0.203487
0.227142 0.425912 0.204964
0.246699 0.427496 0.206418
0.266029 0.429063 0.207855
0.285179 0.430614 0.209280
0.304181 0.432153 0.210693
0.323056 0.433681 0.212097
0.341821 0.435200 0.213492
0.360488 0.436711 0.214881
0.379068 0.438215 0.216263
0.397570 0.439712 0.217639
0.415999 0.441203 0.219010
0.434362 0.442688 0.220377
0.452663 0.444168 0.221738
0.470907 0.445643 0.223096
0.489098 0.447114 0.224450
0.507238 0.448580 0.225800
0.525330 0.450042 0.227146
0.543378 0.451500 0.228490
0.561383 0.452955 0.229830
0.579347 0.454406 0.231167
0.597272 0.455854 0.232502
0.615160 0.457298 0.233833
0.633013 0.458739 0.235163
0.650831 0.460178 0.236489
0.668617 0.461613 0.237814
0.686371 0.463046 0.239136
0.704094 0.464476 0.240456
0.721787 0.465903 0.241774
0.739452 0.467328 0.243090
0.757089 0.468750 0.244404
0.774699 0.470170 0.245716
0.792283 0.471588 0.247026
0.212489 0.446202 0.208096
0.232357 0.447812 0.209574
0.251917 0.449397 0.211029
0.271249 0.450963 0.212467
0.290401 0.452514 0.213891
0.309405 0.454053 0.215305
0.328281 0.455581 0.216709
0.347047 0.457100 0.218106
0.365716 0.458611 0.219495
0.384297 0.460114 0.220877
0.402799 0.461611 0.222254
0.421229 0.463101 0.223626
0.439592 0.464586 0.224992
0.457893 0.466066 0.226354
0.476138 0.467540 0.227712
0.494328 0.469010 0.229066
0.512467 0.470476 0.230417
0.530559 0.471937 0.231763
0.548606 0.473395 0.233107
0.566610 0.474849 0.234448
0.584573 0.476299 0.235785
0.602497 0.477746 0.237120
0.620384 0.479189 0.238452
0.638235 0.480630 0.239781
0.656051 0.482067 0.241108
0.673835 0.483502 0.242433
0.691587 0.484934 0.243755
0.709307 0.486362 0.245076
0.726998 0.487789 0.246394
0.744661 0.489213 0.247710
0.762295 0.490634 0.249024
0.779902 0.492053 0.250336
0.797483 0.493469 0.251646
0.217703 0.468104 0.212707
0.237574 0.469714 0.214186
0.257135 0.471299 0.215641
0.276469 0.472865 0.217080
0.295623 0.474415 0.218505
0.314627 0.475954 0.219919
0.333505 0.477482 0.221324
0.352272 0.479000 0.222720
0.370942 0.480510 0.224110
0.389523 0.482013 0.225493
0.408026 0.483509 0.226870
0.426456 0.484999 0.228242
0.444819 0.486483 0.229609
0.463120 0.487962 0.230971
0.481364 0.489436 0.232330
0.499554 0.490905 0.233684
0.517692 0.492370 0.235035
0.535783 0.493830 0.236382
0.553829 0.495287 0.237726
0.571832 0.496740 0.239066
0.589793 0.498189 0.240404
0.607716 0.499635 0.241739
0.625601 0.501078 0.243071
0.643450 0.502517 0.244401
0.661264 0.503953 0.245728
0.679045 0.505387 0.247053
0.696795 0.506817 0.248375
0.714513 0.508245 0.249696
0.732201 0.509670 0.251014
0.749860 0.511093 0.252330
0.767491 0.512512 0.253644
0.785095 0.513930 0.254956
0.802672 0.515345 0.256266
0.222918 0.490008 0.217320
0.242790 0.491617 0.218799
0.262354 0.493201 0.220255
0.281689 0.494766 0.221694
0.300844 0.496317 0.223120
0.319849 0.497854 0.224534
0.338728 0.499381 0.225940
0.357495 0.500899 0.227337
0.376165 0.502409 0.228726
0.394747 0.503911 0.230110
0.413250 0.505406 0.231487
0.431680 0.506895 0.232859
0.450042 0.508378 0.234227
0.468343 0.509856 0.235589
0.486586 0.511329 0.236948
0.504775 0.512797 0.238303
0.522913 0.514261 0.239653
0.541003 0.515721 0.241001
0.559047 0.517176 0.242345
0.577048 0.518628 0.243686
0.595008 0.520076 0.245024
0.612928 0.521521 0.246359
0.630811 0.522962 0.247691
0.648658 0.524400 0.249021
0.666470 0.525835 0.250348
0.684248 0.527267 0.251673
0.701994 0.528696 0.252996
0.719710 0.530122 0.254316
0.737395 0.531546 0.255634
0.755051 0.532967 0.256950
0.772678 0.534385 0.258264
0.790278 0.535801 0.259577
0.807852 0.537215 0.260887
0.228133 0.511911 0.221935
0.248007 0.513519 0.223414
0.267572 0.515103 0.224871
0.286908 0.516667 0.226310
0.306064 0.518217 0.227736
0.325070 0.519754 0.229151
0.343949 0.521280 0.230556
0.362717 0.522797 0.231954
0.381387 0.524305 0.233344
0.399969 0.525806 0.234728
0.418471 0.527300 0.236105
0.436900 0.528788 0.237478
0.455262 0.530270 0.238845
0.473562 0.531747 0.240208
0.491804 0.533219 0.241567
0.509992 0.534686 0.242922
0.528128 0.536148 0.244273
0.546216 0.537607 0.245620
0.564259 0.539061 0.246965
0.582258 0.540511 0.248306
0.600215 0.541958 0.249644
0.618134 0.543401 0.250979
0.636014 0.544841 0.252311
0.653858 0.546277 0.253641
0.671667 0.547711 0.254969
0.689443 0.549141 0.256294
0.707186 0.550569 0.257616
0.724898 0.551993 0.258936
0.742579 0.553415 0.260255
0.760232 0.554834 0.261571
0.777855 0.556251 0.262885
0.795452 0.557665 0.264197
0.813021 0.559077 0.265507
0.233348 0.533812 0.226551
0.253223 0.535420 0.228031
0.272789 0.537003 0.229487
0.292127 0.538566 0.230927
0.311283 0.540114 0.232353
0.330289 0.541650 0.233769
0.349168 0.543175 0.235174
0.367936 0.544691 0.236572
0.386606 0.546198 0.237962
0.405187 0.547698 0.239346
0.423689 0.549191 0.240724
0.442117 0.550678 0.242097
0.460478 0.552158 0.243465
0.478777 0.553634 0.244828
0.497017 0.555104 0.246187
0.515203 0.556570 0.247542
0.533338 0.558031 0.248893
0.551424 0.559487 0.250241
0.569465 0.560940 0.251585
0.587462 0.562389 0.252926
0.605417 0.563834 0.254264
0.623332 0.565275 0.255599
0.641210 0.566714 0.256932
0.659051 0.568148 0.258262
0.676857 0.569580 0.259589
0.694629 0.571009 0.260914
0.712369 0.572434 0.262237
0.730077 0.573857 0.263557
0.747755 0.575277 0.264875
0.765403 0.576694 0.266191
0.783023 0.578109 0.267505
0.800615 0.579521 0.268817
0.818179 0.580931 0.270127
0.238564 0.555712 0.231168
0.258440 0.557319 0.232648
0.278006 0.558900 0.234105
0.297344 0.560462 0.235545
0.316500 0.562009 0.236972
0.335507 0.563543 0.238387
0.354386 0.565067 0.239793
0.373153 0.566581 0.241191
0.391822 0.568087 0.242582
0.410403 0.569586 0.243966
0.428903 0.571077 0.245344
0.447331 0.572562 0.246717
0.465690 0.574041 0.248085
0.483987 0.575515 0.249448
0.502226 0.576984 0.250807
0.520410 0.578448 0.252162
0.538543 0.579907 0.253513
0.556627 0.581362 0.254861
0.574665 0.582813 0.256205
0.592659 0.584260 0.257546
0.610611 0.585703 0.258885
0.628524 0.587143 0.260220
0.646398 0.588579 0.261552
0.664236 0.590012 0.262882
0.682039 0.591442 0.264210
0.699808 0.592868 0.265534
0.717543 0.594292 0.266857
0.735248 0.595712 0.268177
0.752921 0.597130 0.269495
0.770565 0.598545 0.270811
0.788180 0.599958 0.272125
0.805768 0.601368 0.273437
0.823328 0.602775 0.274747
0.243780 0.577608 0.235786
0.263656 0.579213 0.237266
0.283223 0.580793 0.238724
0.302561 0.582354 0.240164
0.321717 0.583899 0.241591
0.340723 0.585432 0.243007
0.359601 0.586954 0.244413
0.378368 0.588467 0.245811
0.397036 0.589971 0.247202
0.415615 0.591468 0.248586
0.434114 0.592958 0.249964
0.452540 0.594441 0.251337
0.470898 0.595918 0.252705
0.489193 0.597390 0.254068
0.507430 0.598857 0.255427
0.525612 0.600319 0.256782
0.543742 0.601776 0.258134
0.561823 0.603229 0.259481
0.579859 0.604678 0.260826
0.597850 0.606123 0.262167
0.615799 0.607564 0.263505
0.633709 0.609002 0.264840
0.651580 0.610436 0.266173
0.669414 0.611867 0.267502
0.687212 0.613294 0.268830
0.704977 0.614719 0.270154
0.722709 0.616140 0.271477
0.740409 0.617558 0.272797
0.758078 0.618974 0.274115
0.775717 0.620386 0.275431
0.793328 0.621797 0.276744
0.810910 0.623204 0.278056
0.828465 0.624609 0.279366
0.248996 0.599500 0.240405
0.268872 0.601103 0.241886
0.288439 0.602681 0.243343
0.307776 0.604240 0.244784
0.326932 0.605784 0.246211
0.345937 0.607315 0.247626
0.364814 0.608836 0.249033
0.383580 0.610346 0.250431
0.402246 0.611849 0.251822
0.420824 0.613343 0.253206
0.439322 0.614831 0.254585
0.457746 0.616313 0.255957
0.476102 0.617788 0.257325
0.494395 0.619258 0.258689
0.512629 0.620723 0.260048
0.530808 0.622183 0.261403
0.548936 0.623638 0.262754
0.567014 0.625089 0.264102
0.585046 0.626535 0.265446
0.603034 0.627978 0.266787
0.620980 0.629417 0.268125
0.638886 0.630852 0.269460
0.656753 0.632284 0.270793
0.674583 0.633712 0.272122
0.692378 0.635137 0.273449
0.710138 0.636559 0.274774
0.727865 0.637978 0.276096
0.745561 0.639394 0.277416
0.763225 0.640807 0.278734
0.780859 0.642217 0.280049
0.798465 0.643624 0.281363
0.816042 0.645029 0.282674
0.833591 0.646431 0.283984
0.254211 0.621386 0.245025
0.274087 0.622988 0.246505
0.293653 0.624564 0.247963
0.312990 0.626121 0.249404
0.332145 0.627663 0.250831
0.351149 0.629192 0.252247
0.370025 0.630710 0.253653
0.388789 0.632219 0.255051
0.407454 0.633719 0.256442
0.426030 0.635212 0.257827
0.444525 0.636697 0.259205
0.462947 0.638176 0.260578
0.481301 0.639650 0.261946
0.499591 0.641117 0.263309
0.517823 0.642580 0.264668
0.535999 0.644037 0.266023
0.554123 0.645490 0.267374
0.572198 0.646938 0.268722
0.590227 0.648383 0.270066
0.608211 0.649823 0.271407
0.626153 0.651259 0.272745
0.644055 0.652692 0.274080
0.661918 0.654121 0.275412
0.679744 0.655547 0.276742
0.697534 0.656969 0.278069
0.715290 0.658388 0.279393
0.733013 0.659804 0.280715
0.750703 0.661218 0.282035
0.768362 0.662628 0.283352
0.785991 0.664035 0.284667
0.803591 0.665440 0.285981
0.821162 0.666841 0.287292
0.838706 0.668241 0.288601
0.259426 0.643266 0.249645
0.279302 0.644865 0.251126
0.298867 0.646439 0.252583
0.318202 0.647994 0.254024
0.337356 0.649534 0.255451
0.356358 0.651060 0.256867
0.375233 0.652576 0.258274
0.393995 0.654083 0.259672
0.412658 0.655581 0.261063
0.431232 0.657071 0.262447
0.449725 0.658554 0.263825
0.468144 0.660031 0.265198
0.486495 0.661502 0.266566
0.504782 0.662967 0.267930
0.523011 0.664427 0.269288
0.541184 0.665882 0.270643
0.559305 0.667332 0.271994
0.577376 0.668778 0.273342
0.595401 0.670219 0.274686
0.613382 0.671657 0.276027
0.631320 0.673091 0.277364
0.649217 0.674520 0.278699
0.667076 0.675947 0.280031
0.684897 0.677370 0.281360
0.702682 0.678789 0.282687
0.720433 0.680206 0.284011
0.738151 0.681619 0.285333
0.755836 0.683029 0.286652
0.773489 0.684436 0.287969
0.791113 0.685840 0.289284
0.808707 0.687242 0.290597
0.826272 0.688641 0.291908
0.843810 0.690037 0.293217
0.264641 0.665138 0.254265
0.284515 0.666735 0.255746
0.304079 0.668307 0.257204
0.323413 0.669859 0.258644
0.342565 0.671396 0.260072
0.361566 0.672920 0.261488
0.380438 0.674434 0.262894
0.399198 0.675938 0.264292
0.417859 0.677433 0.265683
0.436430 0.678921 0.267067
0.454920 0.680401 0.268446
0.473337 0.681876 0.269818
0.491684 0.683344 0.271186
0.509969 0.684806 0.272549
0.528194 0.686263 0.273908
0.546363 0.687715 0.275263
0.564480 0.689163 0.276614
0.582548 0.690606 0.277961
0.600569 0.692044 0.279305
0.618545 0.693479 0.280645
0.636478 0.694910 0.281983
0.654371 0.696337 0.283317
0.672225 0.697760 0.284649
0.690041 0.699180 0.285978
0.707821 0.700596 0.287304
0.725567 0.702010 0.288628
0.743279 0.703420 0.289950
0.760958 0.704827 0.291269
0.778606 0.706231 0.292585
0.796224 0.707632 0.293900
0.813812 0.709030 0.295213
0.831371 0.710425 0.296523
0.848902 0.711818 0.297831
0.269854 0.687002 0.258886
0.289727 0.688596 0.260366
0.309289 0.690165 0.261824
0.328622 0.691715 0.263265
0.347771 0.693249 0.264692
0.366770 0.694771 0.266108
0.385640 0.696281 0.267514
0.404398 0.697783 0.268912
0.423056 0.699275 0.270303
0.441624 0.700760 0.271687
0.460111 0.702238 0.273065
0.478524 0.703709 0.274438
0.496869 0.705174 0.275806
0.515149 0.706634 0.277169
0.533371 0.708088 0.278527
0.551536 0.709537 0.279882
0.569649 0.710981 0.281232
0.587712 0.712421 0.282579
0.605729 0.713857 0.283923
0.623700 0.715288 0.285263
0.641629 0.716716 0.286600
0.659517 0.718140 0.287935
0.677366 0.719560 0.289266
0.695177 0.720976 0.290595
0.712951 0.722389 0.291921
0.730691 0.723799 0.293244
0.748397 0.725206 0.294565
0.766071 0.726610 0.295884
0.783713 0.728010 0.297200
0.801324 0.729408 0.298514
0.818905 0.730803 0.299826
0.836458 0.732195 0.301136
0.853982 0.733584 0.302444
0.275067 0.708856 0.263506
0.294938 0.710447 0.264987
0.314498 0.712013 0.266445
0.333828 0.713560 0.267885
0.352976 0.715091 0.269312
0.371972 0.716610 0.270728
0.390839 0.718118 0.272134
0.409594 0.719616 0.273532
0.428249 0.721106 0.274923
0.446814 0.722587 0.276307
0.465298 0.724062 0.277685
0.483707 0.725530 0.279057
0.502048 0.726992 0.280424
0.520325 0.728448 0.281787
0.538542 0.729899 0.283145
0.556703 0.731345 0.284500
0.574811 0.732787 0.285850
0.592870 0.734223 0.287197
0.610882 0.735655 0.288540
0.628848 0.737084 0.289880
0.646772 0.738508 0.291217
0.664654 0.739928 0.292551
0.682498 0.741345 0.293882
0.700303 0.742758 0.295210
0.718072 0.744168 0.296535
0.735806 0.745574 0.297859
0.753506 0.746977 0.299179
