apps/web/public/brand-library/luts/vintage-faded.cube
TITLE "Vintage Faded"
LUT_3D_SIZE 9
DOMAIN_MIN 0.0 0.0 0.0
DOMAIN_MAX 1.0 1.0 1.0
0.139674 0.140243 0.143815
0.217326 0.146471 0.149558
0.292433 0.152496 0.155114
0.366149 0.158411 0.160568
0.438908 0.164250 0.165954
0.510939 0.170032 0.171287
0.582383 0.175768 0.176579
0.653336 0.181466 0.181836
0.723864 0.187131 0.187063
0.160432 0.227454 0.162115
0.238187 0.233725 0.167877
0.313381 0.239789 0.173451
0.387171 0.245740 0.178922
0.459990 0.251611 0.184323
0.532069 0.257422 0.189670
0.603550 0.263185 0.194975
0.674527 0.268907 0.200244
0.745069 0.274594 0.205483
0.181232 0.314864 0.180474
0.259067 0.321163 0.186252
0.334327 0.327251 0.191840
0.408167 0.333222 0.197324
0.481025 0.339111 0.202737
0.553131 0.344938 0.208095
0.624627 0.350713 0.213410
0.695608 0.356445 0.218688
0.766142 0.362140 0.223934
0.202065 0.402404 0.198879
0.279957 0.408715 0.204670
0.355259 0.414813 0.210269
0.429128 0.420790 0.215763
0.502003 0.426684 0.221184
0.574115 0.432511 0.226550
0.645604 0.438286 0.231871
0.716568 0.444014 0.237155
0.787074 0.449703 0.242406
0.222918 0.490008 0.217320
0.300844 0.496317 0.223120
0.376165 0.502409 0.228726
0.450042 0.508378 0.234227
0.522913 0.514261 0.239653
0.595008 0.520076 0.245024
0.666470 0.525835 0.250348
0.737395 0.531546 0.255634
0.807852 0.537215 0.260887
0.243780 0.577608 0.235786
0.321717 0.583899 0.241591
0.397036 0.589971 0.247202
0.470898 0.595918 0.252705
0.543742 0.601776 0.258134
0.615799 0.607564 0.263505
0.687212 0.613294 0.268830
0.758078 0.618974 0.274115
0.828465 0.624609 0.279366
0.264641 0.665138 0.254265
0.342565 0.671396 0.260072
0.417859 0.677433 0.265683
0.491684 0.683344 0.271186
0.564480 0.689163 0.276614
0.636478 0.694910 0.281983
0.707821 0.700596 0.287304
0.778606 0.706231 0.292585
0.848902 0.711818 0.297831
0.285488 0.752530 0.272746
0.363376 0.758740 0.278551
0.438623 0.764728 0.284160
0.512390 0.770587 0.289659
0.585116 0.776353 0.295082
0.657033 0.782045 0.300446
0.728285 0.787674 0.305761
0.798968 0.793249 0.311035
0.869151 0.798776 0.316272
0.306311 0.839718 0.291218
0.384140 0.845864 0.297017
0.459317 0.851788 0.302620
0.533003 0.857581 0.308112
0.605638 0.863280 0.313527
0.677453 0.868902 0.318882
0.748592 0.874461 0.324188
0.819152 0.879963 0.329451
0.889202 0.885414 0.334678
0.141765 0.142241 0.212886
0.219429 0.148472 0.218660
0.294546 0.154499 0.224245
0.368270 0.160415 0.229726
0.441036 0.166256 0.235136
0.513073 0.172039 0.240491
0.584522 0.177777 0.245804
0.655478 0.183476 0.251080
0.726008 0.189143 0.256324
0.162528 0.229467 0.231280
0.240292 0.235740 0.237068
0.315494 0.241805 0.242664
0.389290 0.247755 0.248156
0.462114 0.253627 0.253575
0.534197 0.259439 0.258939
0.605680 0.265203 0.264259
0.676658 0.270925 0.269541
0.747200 0.276612 0.274791
0.183332 0.316886 0.249713
0.261174 0.323185 0.255510
0.336439 0.329273 0.261115
0.410283 0.335244 0.266614
0.483144 0.341133 0.272040
0.555251 0.346960 0.277409
0.626747 0.352735 0.282733
0.697728 0.358467 0.288018
0.768260 0.364161 0.293271
0.204167 0.404430 0.268173
0.282064 0.410741 0.273977
0.357369 0.416838 0.279586
0.431240 0.422814 0.285089
0.504116 0.428706 0.290518
0.576226 0.434533 0.295889
0.647714 0.440306 0.301214
0.718674 0.446033 0.306499
0.789177 0.451720 0.311751
0.225022 0.492034 0.286649
0.302950 0.498341 0.292455
0.378272 0.504431 0.298067
0.452149 0.510399 0.303570
0.525017 0.516280 0.308998
0.597109 0.522093 0.314368
0.668568 0.527850 0.319690
0.739488 0.533558 0.324973
0.809938 0.539225 0.330220
0.245884 0.579629 0.305130
0.323821 0.585917 0.310936
0.399138 0.591986 0.316545
0.472998 0.597931 0.322046
0.545838 0.603786 0.327470
0.617890 0.609571 0.332835
0.689297 0.615298 0.338152
0.760156 0.620975 0.343428
0.830534 0.626606 0.348668
0.266744 0.667148 0.323605
0.344666 0.673403 0.329406
0.419956 0.679436 0.335010
0.493777 0.685343 0.340504
0.566566 0.691158 0.345921
0.638557 0.696902 0.351279
0.709892 0.702585 0.356587
0.780668 0.708215 0.361853
0.850953 0.713798 0.367082
0.287589 0.754526 0.342061
0.365473 0.760731 0.347855
0.440713 0.766714 0.353450
0.514473 0.772568 0.358935
0.587191 0.778330 0.364342
0.659099 0.784017 0.369688
0.730341 0.789642 0.374984
0.801012 0.795212 0.380237
0.871183 0.800734 0.385453
0.308409 0.841693 0.360489
0.386231 0.847834 0.366271
0.461400 0.853752 0.371854
0.535077 0.859540 0.377326
0.607701 0.865233 0.382719
0.679505 0.870850 0.388051
0.750631 0.876403 0.393331
0.821178 0.881899 0.398569
0.891213 0.887345 0.403767
0.143886 0.144269 0.282935
0.221561 0.150501 0.288740
0.296688 0.156530 0.294353
0.370421 0.162448 0.299860
0.443194 0.168290 0.305293
0.515236 0.174075 0.310671
0.586689 0.179814 0.316003
0.657648 0.185515 0.321297
0.728181 0.191183 0.326558
0.164654 0.231508 0.301421
0.242427 0.237782 0.307233
0.317636 0.243848 0.312852
0.391438 0.249800 0.318363
0.464267 0.255672 0.323800
0.536353 0.261485 0.329180
0.607839 0.267249 0.334514
0.678818 0.272971 0.339809
0.749360 0.278659 0.345069
0.185462 0.318936 0.319926
0.263310 0.325236 0.325741
0.338580 0.331324 0.331362
0.412428 0.337295 0.336875
0.485292 0.343184 0.342312
0.557400 0.349010 0.347691
0.628896 0.354784 0.353023
0.699875 0.360516 0.358315
0.770406 0.366209 0.363573
0.206299 0.406485 0.338437
0.284200 0.412795 0.344253
0.359508 0.418891 0.349872
0.433381 0.424866 0.355383
0.506257 0.430757 0.360817
0.578366 0.436583 0.366193
0.649852 0.442354 0.371520
0.720809 0.448080 0.376806
0.791307 0.453766 0.382057
0.227155 0.494087 0.356945
0.305085 0.500393 0.362757
0.380408 0.506481 0.368372
0.454284 0.512447 0.373877
0.527151 0.518326 0.379305
0.599239 0.524137 0.384673
0.670693 0.529891 0.389993
0.741608 0.535598 0.395270
0.812052 0.541262 0.400511
0.248018 0.581677 0.375437
0.325954 0.587962 0.381242
0.401270 0.594029 0.386850
0.475126 0.599970 0.392346
0.547962 0.605823 0.397764
0.620009 0.611605 0.403122
0.691410 0.617329 0.408430
0.762261 0.623002 0.413695
0.832631 0.628631 0.418923
0.268877 0.669185 0.393903
0.346795 0.675436 0.399698
0.422082 0.681466 0.405294
0.495897 0.687369 0.410778
0.568680 0.693181 0.416183
0.640664 0.698920 0.421527
0.711990 0.704599 0.426820
0.782756 0.710225 0.432070
0.853030 0.715805 0.437282
0.289720 0.756547 0.412332
0.367598 0.762747 0.418112
0.442832 0.768726 0.423693
0.516585 0.774576 0.429162
0.589294 0.780332 0.434551
0.661192 0.786015 0.439878
0.732423 0.791635 0.445153
0.803083 0.797200 0.450384
0.873241 0.802717 0.455576
0.310536 0.843694 0.430711
0.388351 0.849829 0.436473
0.463511 0.855741 0.442036
0.537178 0.861524 0.447486
0.609791 0.867211 0.452856
0.681583 0.872823 0.458162
0.752697 0.878370 0.463417
0.823230 0.883861 0.468626
0.893250 0.889300 0.473796
0.146025 0.146313 0.353573
0.223711 0.152548 0.359408
0.298848 0.158578 0.365047
0.372588 0.164498 0.370579
0.445368 0.170342 0.376035
0.517416 0.176128 0.381433
0.588874 0.181868 0.386784
0.659836 0.187570 0.392095
0.730370 0.193239 0.397371
0.166797 0.233567 0.372147
0.244579 0.239841 0.377982
0.319796 0.245908 0.383622
0.393603 0.251860 0.389152
0.466437 0.257734 0.394605
0.538526 0.263547 0.400000
0.610014 0.269311 0.405347
0.680994 0.275034 0.410653
0.751536 0.280722 0.415923
0.187609 0.321003 0.390719
0.265464 0.327303 0.396552
0.340738 0.333391 0.402188
0.414590 0.339361 0.407713
0.487456 0.345250 0.413161
0.559566 0.351076 0.418549
0.631062 0.356850 0.423888
0.702039 0.362581 0.429186
0.772568 0.368274 0.434447
0.208448 0.408556 0.409279
0.286354 0.414865 0.415105
0.361664 0.420960 0.420734
0.435538 0.426934 0.426251
0.508414 0.432824 0.431690
0.580522 0.438648 0.437068
0.652006 0.444419 0.442397
0.722960 0.450143 0.447683
0.793453 0.455827 0.452932
0.229306 0.496157 0.427814
0.307237 0.502461 0.433631
0.382561 0.508547 0.439248
0.456436 0.514511 0.444754
0.529300 0.520388 0.450181
0.601386 0.526197 0.455547
0.672835 0.531949 0.460861
0.743744 0.537653 0.466133
0.814182 0.543315 0.471366
0.250169 0.583740 0.446314
0.328104 0.590023 0.452117
0.403418 0.596087 0.457721
0.477271 0.602025 0.463212
0.550103 0.607875 0.468623
0.622144 0.613654 0.473972
0.693538 0.619375 0.479270
0.764381 0.625045 0.484523
0.834742 0.630670 0.489738
0.271026 0.671238 0.464768
0.348942 0.677485 0.470554
0.424224 0.683511 0.476140
0.498034 0.689410 0.481613
0.570811 0.695218 0.487005
0.642786 0.700953 0.492335
0.714104 0.706628 0.497612
0.784860 0.712250 0.502844
0.855123 0.717826 0.508037
0.291867 0.758583 0.483163
0.369740 0.764779 0.488929
0.444968 0.770753 0.494494
0.518712 0.776598 0.499946
0.591413 0.782350 0.505316
0.663301 0.788027 0.510622
0.734521 0.793643 0.515876
0.805168 0.799203 0.521084
0.875313 0.804715 0.526251
0.312680 0.845709 0.501490
0.390487 0.851838 0.507231
0.465638 0.857745 0.512772
0.539295 0.863522 0.518199
0.611897 0.869204 0.523544
0.683677 0.874809 0.528824
0.754778 0.880351 0.534050
0.825296 0.885836 0.539231
0.895301 0.891270 0.544370
0.148177 0.148370 0.424637
0.225874 0.154606 0.430501
0.301020 0.160639 0.436167
0.374768 0.166560 0.441722
0.447555 0.172406 0.447199
0.519608 0.178194 0.452617
0.591070 0.183935 0.457985
0.662035 0.189638 0.463312
0.732571 0.195308 0.468603
0.168953 0.235637 0.443296
0.246744 0.241913 0.449154
0.321968 0.247980 0.454813
0.395781 0.253934 0.460361
0.468619 0.259808 0.465830
0.540711 0.265621 0.471238
0.612201 0.271386 0.476597
0.683182 0.277109 0.481913
0.753723 0.282798 0.487192
0.189768 0.323082 0.461933
0.267630 0.329382 0.467782
0.342909 0.335470 0.473431
0.416764 0.341440 0.478968
0.489632 0.347329 0.484425
0.561743 0.353154 0.489821
0.633238 0.358928 0.495167
0.704215 0.364658 0.500469
0.774740 0.370350 0.505732
0.210610 0.410638 0.480537
0.288520 0.416946 0.486373
0.363832 0.423040 0.492008
0.437707 0.429013 0.497531
0.510583 0.434902 0.502974
0.582690 0.440725 0.508354
0.654171 0.446494 0.513683
0.725121 0.452217 0.518968
0.795610 0.457900 0.524213
0.231469 0.498238 0.499096
0.309402 0.504540 0.504916
0.384725 0.510624 0.510535
0.458599 0.516586 0.516040
0.531461 0.522461 0.521464
0.603543 0.528267 0.526826
0.674988 0.534018 0.532135
0.745891 0.539720 0.537399
0.816322 0.545379 0.542623
0.252332 0.585815 0.517599
0.330266 0.592095 0.523399
0.405578 0.598155 0.528998
0.479428 0.604091 0.534483
0.552254 0.609938 0.539886
0.624290 0.615714 0.545225
0.695677 0.621431 0.550511
0.766512 0.627098 0.555751
0.836864 0.632720 0.560951
0.273188 0.673301 0.536036
0.351100 0.679544 0.541813
0.426378 0.685566 0.547388
0.500182 0.691461 0.552848
0.572952 0.697265 0.558227
0.644919 0.702997 0.563540
0.716228 0.708668 0.568800
0.786973 0.714286 0.574013
0.857225 0.719857 0.579185
0.294027 0.760629 0.554395
0.371894 0.766820 0.560144
0.447114 0.772789 0.565693
0.520851 0.778630 0.571125
0.593542 0.784377 0.576475
0.665420 0.790050 0.581760
0.736629 0.795660 0.586991
0.807264 0.801216 0.592174
0.877395 0.806722 0.597315
0.314836 0.847734 0.572664
0.392635 0.853857 0.578383
0.467776 0.859758 0.583901
0.541423 0.865529 0.589303
0.614014 0.871205 0.594621
0.685781 0.876805 0.599874
0.756868 0.882341 0.605072
0.827372 0.887820 0.610221
0.897361 0.893248 0.615328
0.150338 0.150437 0.496040
0.228046 0.156675 0.501931
0.303201 0.162709 0.507622
0.376958 0.168633 0.513199
0.449750 0.174479 0.518697
0.521809 0.180269 0.524133
0.593274 0.186011 0.529519
0.664242 0.191716 0.534860
0.734780 0.197387 0.540164
0.171120 0.237717 0.514780
0.248919 0.243994 0.520659
0.324149 0.250062 0.526337
0.397968 0.256016 0.531901
0.470810 0.261891 0.537384
0.542905 0.267705 0.542806
0.614396 0.273470 0.548175
0.685378 0.279194 0.553500
0.755919 0.284882 0.558786
0.191938 0.325171 0.533477
0.269805 0.331470 0.539341
0.345089 0.337558 0.545002
0.418948 0.343528 0.550550
0.491817 0.349416 0.556016
0.563928 0.355241 0.561418
0.635423 0.361015 0.566769
0.706398 0.366744 0.572074
0.776921 0.372436 0.577339
0.212782 0.412730 0.552121
0.290695 0.419037 0.557966
0.366010 0.425130 0.563608
0.439886 0.431102 0.569135
0.512761 0.436989 0.574580
0.584867 0.442811 0.579961
0.656345 0.448579 0.585289
0.727291 0.454300 0.590571
0.797775 0.459981 0.595812
0.233642 0.500328 0.570700
0.311576 0.506628 0.576522
0.386899 0.512710 0.582141
0.460771 0.518670 0.587645
0.533631 0.524542 0.593066
0.605709 0.530347 0.598422
0.677149 0.536095 0.603724
0.748046 0.541794 0.608980
0.818469 0.547451 0.614194
0.254504 0.587897 0.589203
0.332438 0.594174 0.594999
0.407747 0.600232 0.600592
0.481593 0.606165 0.606068
0.554415 0.612008 0.611462
0.626444 0.617781 0.616790
0.697824 0.623496 0.622063
0.768651 0.629160 0.627289
0.838993 0.634778 0.632473
0.275360 0.675372 0.607619
0.353268 0.681611 0.613385
0.428541 0.687629 0.618948
0.502339 0.693521 0.624394
0.575102 0.699321 0.629757
0.647061 0.705048 0.635054
0.718360 0.710715 0.640295
0.789095 0.716329 0.645488
0.859335 0.721896 0.650638
0.296196 0.762683 0.625936
0.374057 0.768869 0.631669
0.449270 0.774834 0.637199
0.522998 0.780669 0.642611
0.595680 0.786411 0.647940
0.667548 0.792079 0.653202
0.738744 0.797685 0.658408
0.809367 0.803235 0.663565
0.879484 0.808737 0.668679
0.317002 0.849766 0.644144
0.394792 0.855883 0.649840
0.469924 0.861778 0.655333
0.543560 0.867544 0.660708
0.616139 0.873214 0.666000
0.687894 0.878808 0.671223
0.758967 0.884338 0.676391
0.829455 0.889811 0.681509
0.899429 0.895233 0.686582
0.152509 0.152512 0.567724
0.230227 0.158752 0.573642
0.305391 0.164788 0.579356
0.379155 0.170713 0.584955
0.451954 0.176561 0.590472
0.524017 0.182352 0.595926
0.595486 0.188096 0.601326
0.666457 0.193801 0.606681
0.736996 0.199474 0.611997
0.173294 0.239805 0.586541
0.251102 0.246083 0.592440
0.326339 0.252152 0.598135
0.400163 0.258107 0.603715
0.473008 0.263982 0.609212
0.545107 0.269796 0.614644
0.616599 0.275562 0.620023
0.687581 0.281286 0.625356
0.758121 0.286975 0.630648
0.194116 0.327267 0.605295
0.271989 0.333566 0.611172
0.347277 0.339654 0.616845
0.421139 0.345624 0.622401
0.494010 0.351512 0.627875
0.566121 0.357336 0.633283
0.637616 0.363109 0.638637
0.708588 0.368838 0.643944
0.779108 0.374529 0.649209
0.214962 0.414829 0.623975
0.292878 0.421135 0.629827
0.368195 0.427226 0.635474
0.442072 0.433198 0.641004
0.514946 0.439084 0.646450
0.587050 0.444904 0.651831
0.658525 0.450670 0.657157
0.729467 0.456390 0.662435
0.799946 0.462070 0.667670
0.235822 0.502425 0.642570
0.313758 0.508722 0.648393
0.389081 0.514803 0.654010
0.462951 0.520760 0.659511
0.535808 0.526631 0.664927
0.607882 0.532433 0.670277
0.679316 0.538179 0.675571
0.750207 0.543876 0.680817
0.820623 0.549530 0.686020
0.256685 0.589987 0.661068
0.334617 0.596261 0.666858
0.409923 0.602316 0.672444
0.483765 0.608246 0.677911
0.556582 0.614086 0.683294
0.628605 0.619856 0.688610
0.699977 0.625567 0.693869
0.770796 0.631227 0.699079
0.841128 0.636843 0.704246
0.277539 0.677449 0.679459
0.355443 0.683684 0.685213
0.430711 0.689699 0.690762
0.504503 0.695586 0.696193
0.577258 0.701382 0.701539
0.649209 0.707105 0.706818
0.720498 0.712768 0.712039
0.791222 0.718378 0.717211
0.861451 0.723941 0.722338
0.298372 0.764743 0.697731
0.376227 0.770924 0.703445
0.451433 0.776884 0.708955
0.525152 0.782714 0.714346
0.597824 0.788452 0.719652
0.669681 0.794115 0.724890
0.740866 0.799715 0.730070
0.811475 0.805260 0.735200
0.881579 0.810757 0.740285
0.319174 0.851803 0.715872
0.396956 0.857915 0.721543
0.472078 0.863804 0.727010
0.545703 0.869564 0.732358
0.618270 0.875228 0.737621
0.690012 0.880817 0.742815
0.761071 0.886340 0.747950
0.831544 0.891807 0.753035
0.901501 0.897224 0.758074
0.154686 0.154594 0.639650
0.232415 0.160836 0.645593
0.307588 0.166874 0.651329
0.381359 0.172800 0.656948
0.454164 0.178650 0.662484
0.526232 0.184442 0.667953
0.597704 0.190187 0.673368
0.668677 0.195894 0.678736
0.739217 0.201567 0.684062
0.175476 0.241900 0.658540
0.253292 0.248179 0.664458
0.328535 0.254249 0.670169
0.402364 0.260204 0.675762
0.475213 0.266080 0.681271
0.547314 0.271895 0.686714
0.618807 0.277660 0.692101
0.689789 0.283385 0.697441
0.760328 0.289073 0.702738
0.196301 0.329369 0.677346
0.274180 0.335669 0.683236
0.349472 0.341756 0.688919
0.423336 0.347726 0.694483
0.496208 0.353613 0.699963
0.568320 0.359437 0.705375
0.639813 0.365210 0.710731
0.710784 0.370938 0.716039
0.781300 0.376628 0.721304
0.217149 0.416934 0.696059
0.295068 0.423239 0.701916
0.370387 0.429329 0.707567
0.444264 0.435299 0.713099
0.517138 0.441184 0.718546
0.589239 0.447003 0.723924
0.660711 0.452768 0.729247
0.731649 0.458486 0.734520
0.802121 0.464164 0.739749
0.238010 0.504527 0.714665
0.315946 0.510823 0.720487
0.391268 0.516901 0.726103
0.465137 0.522857 0.731599
0.537990 0.528725 0.737009
0.610060 0.534525 0.742351
0.681489 0.540268 0.747636
0.752373 0.545963 0.752871
0.822781 0.551615 0.758061
0.258872 0.592082 0.733155
0.336802 0.598353 0.738938
0.412105 0.604405 0.744514
0.485943 0.610332 0.749971
0.558755 0.616169 0.755342
0.630771 0.621935 0.760644
0.702136 0.627643 0.765888
0.772945 0.633300 0.771082
0.843268 0.638912 0.776230
0.279724 0.679531 0.751516
0.357625 0.685762 0.757256
0.432887 0.691773 0.762791
0.506672 0.697656 0.768205
0.579420 0.703448 0.773533
0.651362 0.709168 0.778792
0.722641 0.714826 0.783992
0.793354 0.720432 0.789141
0.863571 0.725990 0.794245
0.300555 0.766808 0.769738
0.378403 0.772984 0.775432
0.453601 0.778938 0.780921
0.527312 0.784764 0.786290
0.599974 0.790496 0.791571
0.671820 0.796154 0.796783
0.742993 0.801750 0.801936
0.813589 0.807290 0.807038
0.883678 0.812781 0.812093
0.321353 0.853845 0.787809
0.399126 0.859951 0.793453
0.474238 0.865834 0.798893
0.547852 0.871588 0.804213
0.620407 0.877246 0.809445
0.692135 0.882829 0.814607
0.763179 0.888347 0.819710
0.833637 0.893808 0.824760
0.903578 0.899218 0.829764
0.156684 0.156504 0.705640
0.234422 0.162748 0.711605
0.309603 0.168788 0.717361
0.383381 0.174715 0.722998
0.456191 0.180566 0.728548
0.528263 0.186360 0.734032
0.599738 0.192106 0.739459
0.670712 0.197814 0.744837
0.741253 0.203488 0.750172
0.177478 0.243822 0.724594
0.255300 0.250101 0.730528
0.330550 0.256172 0.736253
0.404383 0.262128 0.741858
0.477235 0.268004 0.747377
0.549338 0.273819 0.752828
0.620832 0.279585 0.758222
0.691814 0.285310 0.763566
0.762351 0.290999 0.768867
0.198305 0.331298 0.743445
0.276189 0.337597 0.749345
0.351485 0.343684 0.755036
0.425351 0.349654 0.760606
0.498224 0.355541 0.766090
0.570336 0.361365 0.771505
0.641828 0.367136 0.776863
0.712797 0.372864 0.782170
0.783309 0.378553 0.787433
0.219155 0.418865 0.762183
0.297077 0.425169 0.768045
0.372397 0.431258 0.773698
0.446274 0.437227 0.779231
0.519147 0.443110 0.784676
0.591246 0.448928 0.790052
0.662715 0.454692 0.795370
0.733648 0.460409 0.800638
0.804116 0.466085 0.805859
0.240017 0.506455 0.780797
0.317953 0.512749 0.786617
0.393275 0.518826 0.792229
0.467141 0.524779 0.797720
0.539992 0.530645 0.803124
0.612057 0.536443 0.808458
0.683481 0.542184 0.813733
0.754359 0.547876 0.818957
0.824759 0.553526 0.824135
0.260879 0.594003 0.799274
0.338807 0.600271 0.805050
0.414107 0.606320 0.810617
0.487941 0.612244 0.816064
0.560747 0.618078 0.821422
0.632757 0.623842 0.826711
0.704115 0.629547 0.831940
0.774916 0.635201 0.837117
0.845229 0.640810 0.842248
0.281729 0.681440 0.817605
0.359626 0.687668 0.823332
0.434882 0.693674 0.828851
0.508662 0.699554 0.834250
0.581402 0.705342 0.839560
0.653335 0.711058 0.844800
0.724605 0.716712 0.849980
0.795308 0.722314 0.855107
0.865513 0.727869 0.860187
0.302557 0.768700 0.835778
0.380399 0.774872 0.841452
0.455590 0.780822 0.846920
0.529292 0.786643 0.852267
0.601945 0.792371 0.857526
0.673780 0.798024 0.862714
0.744942 0.803614 0.867841
0.815525 0.809150 0.872915
0.885601 0.814636 0.877941
0.323352 0.855716 0.853780
0.401115 0.861816 0.859399
0.476218 0.867694 0.864813
0.549822 0.873442 0.870105
0.622365 0.879096 0.875309
0.694081 0.884673 0.880441
0.765112 0.890185 0.885512
0.835556 0.895640 0.890530
0.905481 0.901045 0.895500
