apps/web/public/brand-library/luts/vintage-faded.cube
TITLE "Vintage Faded"
LUT_3D_SIZE 5
DOMAIN_MIN 0.0 0.0 0.0
DOMAIN_MAX 1.0 1.0 1.0
0.139674 0.140243 0.143815
0.292433 0.152496 0.155114
0.438908 0.164250 0.165954
0.582383 0.175768 0.176579
0.723864 0.187131 0.187063
0.181232 0.314864 0.180474
0.334327 0.327251 0.191840
0.481025 0.339111 0.202737
0.624627 0.350713 0.213410
0.766142 0.362140 0.223934
0.222918 0.490008 0.217320
0.376165 0.502409 0.228726
0.522913 0.514261 0.239653
0.666470 0.525835 0.250348
0.807852 0.537215 0.260887
0.264641 0.665138 0.254265
0.417859 0.677433 0.265683
0.564480 0.689163 0.276614
0.707821 0.700596 0.287304
0.848902 0.711818 0.297831
0.306311 0.839718 0.291218
0.459317 0.851788 0.302620
0.605638 0.863280 0.313527
0.748592 0.874461 0.324188
0.889202 0.885414 0.334678
0.143886 0.144269 0.282935
0.296688 0.156530 0.294353
0.443194 0.168290 0.305293
0.586689 0.179814 0.316003
0.728181 0.191183 0.326558
0.185462 0.318936 0.319926
0.338580 0.331324 0.331362
0.485292 0.343184 0.342312
0.628896 0.354784 0.353023
0.770406 0.366209 0.363573
0.227155 0.494087 0.356945
0.380408 0.506481 0.368372
0.527151 0.518326 0.379305
0.670693 0.529891 0.389993
0.812052 0.541262 0.400511
0.268877 0.669185 0.393903
0.422082 0.681466 0.405294
0.568680 0.693181 0.416183
0.711990 0.704599 0.426820
0.853030 0.715805 0.437282
0.310536 0.843694 0.430711
0.463511 0.855741 0.442036
0.609791 0.867211 0.452856
0.752697 0.878370 0.463417
0.893250 0.889300 0.473796
0.148177 0.148370 0.424637
0.301020 0.160639 0.436167
0.447555 0.172406 0.447199
0.591070 0.183935 0.457985
0.732571 0.195308 0.468603
0.189768 0.323082 0.461933
0.342909 0.335470 0.473431
0.489632 0.347329 0.484425
0.633238 0.358928 0.495167
0.774740 0.370350 0.505732
0.231469 0.498238 0.499096
0.384725 0.510624 0.510535
0.531461 0.522461 0.521464
0.674988 0.534018 0.532135
0.816322 0.545379 0.542623
0.273188 0.673301 0.536036
0.426378 0.685566 0.547388
0.572952 0.697265 0.558227
0.716228 0.708668 0.568800
0.857225 0.719857 0.579185
0.314836 0.847734 0.572664
0.467776 0.859758 0.583901
0.614014 0.871205 0.594621
0.756868 0.882341 0.605072
0.897361 0.893248 0.615328
0.152509 0.152512 0.567724
0.305391 0.164788 0.579356
0.451954 0.176561 0.590472
0.595486 0.188096 0.601326
0.736996 0.199474 0.611997
0.194116 0.327267 0.605295
0.347277 0.339654 0.616845
0.494010 0.351512 0.627875
0.637616 0.363109 0.638637
0.779108 0.374529 0.649209
0.235822 0.502425 0.642570
0.389081 0.514803 0.654010
0.535808 0.526631 0.664927
0.679316 0.538179 0.675571
0.820623 0.549530 0.686020
0.277539 0.677449 0.679459
0.430711 0.689699 0.690762
0.577258 0.701382 0.701539
0.720498 0.712768 0.712039
0.861451 0.723941 0.722338
0.319174 0.851803 0.715872
0.472078 0.863804 0.727010
0.618270 0.875228 0.737621
0.761071 0.886340 0.747950
0.901501 0.897224 0.758074
0.156684 0.156504 0.705640
0.309603 0.168788 0.717361
0.456191 0.180566 0.728548
0.599738 0.192106 0.739459
0.741253 0.203488 0.750172
0.198305 0.331298 0.743445
0.351485 0.343684 0.755036
0.498224 0.355541 0.766090
0.641828 0.367136 0.776863
0.783309 0.378553 0.787433
0.240017 0.506455 0.780797
0.393275 0.518826 0.792229
0.539992 0.530645 0.803124
0.683481 0.542184 0.813733
0.824759 0.553526 0.824135
0.281729 0.681440 0.817605
0.434882 0.693674 0.828851
0.581402 0.705342 0.839560
0.724605 0.716712 0.849980
0.865513 0.727869 0.860187
0.323352 0.855716 0.853780
0.476218 0.867694 0.864813
0.622365 0.879096 0.875309
0.765112 0.890185 0.885512
0.905481 0.901045 0.895500
