apps/web/public/brand-library/luts/warm-editorial.cube
TITLE "Warm Editorial"
LUT_3D_SIZE 33
DOMAIN_MIN 0.0 0.0 0.0
DOMAIN_MAX 1.0 1.0 1.0
0.028431 0.020588 0.015196
0.052415 0.021227 0.015677
0.088173 0.022180 0.016394
0.123373 0.023119 0.017101
0.158177 0.024049 0.017800
0.192671 0.024971 0.018494
0.226909 0.025888 0.019184
0.260929 0.026799 0.019870
0.294759 0.027707 0.020553
0.328419 0.028611 0.021233
0.361925 0.029511 0.021911
0.395291 0.030409 0.022586
0.428527 0.031304 0.023260
0.461642 0.032197 0.023932
0.494644 0.033088 0.024602
0.527540 0.033977 0.025271
0.560335 0.034865 0.025939
0.593034 0.035750 0.026605
0.625641 0.036634 0.027271
0.658160 0.037517 0.027935
0.690595 0.038399 0.028598
0.722948 0.039279 0.029260
0.755223 0.040158 0.029922
0.787421 0.041036 0.030582
0.819546 0.041913 0.031242
0.851599 0.042789 0.031901
0.883581 0.043664 0.032560
0.915495 0.044539 0.033218
0.924602 0.044788 0.033406
0.924602 0.044788 0.033406
0.924602 0.044788 0.033406
0.924602 0.044788 0.033406
0.924602 0.044788 0.033406
0.028431 0.020588 0.015196
0.051326 0.021198 0.015655
0.087084 0.022151 0.016372
0.122285 0.023090 0.017079
0.157089 0.024020 0.017778
0.191584 0.024942 0.018473
0.225823 0.025859 0.019162
0.259843 0.026770 0.019848
0.293674 0.027678 0.020531
0.327334 0.028581 0.021211
0.360841 0.029482 0.021889
0.394207 0.030380 0.022564
0.427444 0.031275 0.023238
0.460560 0.032168 0.023910
0.493563 0.033059 0.024580
0.526459 0.033948 0.025249
0.559254 0.034835 0.025917
0.591954 0.035721 0.026583
0.624562 0.036605 0.027249
0.657082 0.037488 0.027913
0.689517 0.038369 0.028576
0.721871 0.039250 0.029238
0.754147 0.040129 0.029900
0.786346 0.041007 0.030560
0.818471 0.041884 0.031220
0.850525 0.042760 0.031879
0.882508 0.043635 0.032538
0.914423 0.044509 0.033196
0.924602 0.044788 0.033406
0.924602 0.044788 0.033406
0.924602 0.044788 0.033406
0.924602 0.044788 0.033406
0.924602 0.044788 0.033406
0.031596 0.052752 0.017247
0.053347 0.052932 0.017659
0.089042 0.053491 0.018352
0.124181 0.054043 0.019036
0.158924 0.054589 0.019712
0.193358 0.055131 0.020384
0.227537 0.055670 0.021050
0.261498 0.056207 0.021714
0.295268 0.056741 0.022374
0.328870 0.057273 0.023031
0.362318 0.057804 0.023687
0.395626 0.058334 0.024340
0.428804 0.058862 0.024991
0.461863 0.059389 0.025641
0.494808 0.059915 0.026289
0.527648 0.060440 0.026936
0.560387 0.060965 0.027581
0.593030 0.061489 0.028225
0.625582 0.062012 0.028868
0.658047 0.062535 0.029511
0.690427 0.063057 0.030152
0.722727 0.063579 0.030792
0.754949 0.064100 0.031431
0.787094 0.064621 0.032070
0.819166 0.065142 0.032708
0.851167 0.065662 0.033345
0.883099 0.066182 0.033981
0.914962 0.066702 0.034617
0.926179 0.066661 0.034827
0.926154 0.066313 0.034804
0.926140 0.066110 0.034791
0.926140 0.066110 0.034791
0.926140 0.066110 0.034791
0.034819 0.085405 0.019334
0.055466 0.085552 0.019725
0.091134 0.086105 0.020420
0.126246 0.086649 0.021105
0.160961 0.087188 0.021782
0.195367 0.087723 0.022454
0.229517 0.088255 0.023122
0.263449 0.088785 0.023786
0.297191 0.089312 0.024447
0.330762 0.089837 0.025106
0.364180 0.090360 0.025762
0.397457 0.090882 0.026416
0.430604 0.091403 0.027069
0.463631 0.091922 0.027719
0.496544 0.092441 0.028368
0.529351 0.092959 0.029016
0.562056 0.093476 0.029663
0.594666 0.093992 0.030308
0.627184 0.094507 0.030952
0.659613 0.095022 0.031595
0.691959 0.095536 0.032237
0.724223 0.096050 0.032878
0.756408 0.096563 0.033518
0.788517 0.097076 0.034158
0.820551 0.097589 0.034797
0.852514 0.098101 0.035435
0.884407 0.098613 0.036072
0.916232 0.099124 0.036709
0.928506 0.099109 0.036941
0.928481 0.098762 0.036919
0.928466 0.098560 0.036905
0.928466 0.098560 0.036905
0.928466 0.098560 0.036905
0.038049 0.118010 0.021425
0.057592 0.118125 0.021795
0.093232 0.118669 0.022491
0.128316 0.119206 0.023176
0.163003 0.119738 0.023855
0.197379 0.120265 0.024528
0.231500 0.120789 0.025197
0.265402 0.121311 0.025862
0.299113 0.121830 0.026524
0.332654 0.122347 0.027184
0.366040 0.122863 0.027841
0.399286 0.123377 0.028496
0.432401 0.123890 0.029149
0.465394 0.124401 0.029801
0.498275 0.124912 0.030451
0.531047 0.125421 0.031100
0.563719 0.125930 0.031747
0.596294 0.126438 0.032393
0.628776 0.126945 0.033038
0.661170 0.127451 0.033682
0.693479 0.127957 0.034325
0.725706 0.128462 0.034967
0.757854 0.128967 0.035609
0.789925 0.129471 0.036249
0.821922 0.129975 0.036889
0.853846 0.130478 0.037528
0.885700 0.130981 0.038166
0.917485 0.131484 0.038804
0.930811 0.131494 0.039059
0.930787 0.131148 0.039036
0.930773 0.130946 0.039023
0.930773 0.130946 0.039023
0.930773 0.130946 0.039023
0.041284 0.150564 0.023520
0.059725 0.150647 0.023868
0.095336 0.151183 0.024564
0.130391 0.151712 0.025251
0.165048 0.152235 0.025931
0.199395 0.152754 0.026605
0.233485 0.153270 0.027275
0.267356 0.153783 0.027941
0.301036 0.154294 0.028604
0.334545 0.154803 0.029265
0.367899 0.155310 0.029923
0.401112 0.155816 0.030579
0.434194 0.156320 0.031233
0.467154 0.156823 0.031886
0.500000 0.157325 0.032537
0.532738 0.157825 0.033186
0.565374 0.158325 0.033835
0.597913 0.158824 0.034482
0.630360 0.159323 0.035128
0.662717 0.159820 0.035773
0.694989 0.160317 0.036417
0.727178 0.160813 0.037060
0.759288 0.161309 0.037702
0.791320 0.161804 0.038344
0.823278 0.162298 0.038984
0.855162 0.162792 0.039624
0.886976 0.163286 0.040264
0.918720 0.163779 0.040902
0.933097 0.163814 0.041180
0.933073 0.163469 0.041157
0.933059 0.163267 0.041144
0.933059 0.163267 0.041144
0.933059 0.163267 0.041144
0.044525 0.183065 0.025617
0.061865 0.183115 0.025944
0.097446 0.183643 0.026641
0.132471 0.184163 0.027329
0.167097 0.184677 0.028010
0.201413 0.185188 0.028685
0.235472 0.185695 0.029356
0.269312 0.186199 0.030023
0.302959 0.186701 0.030687
0.336436 0.187201 0.031349
0.369757 0.187699 0.032008
0.402936 0.188196 0.032665
0.435983 0.188691 0.033320
0.468909 0.189185 0.033974
0.501720 0.189677 0.034626
0.534422 0.190169 0.035276
0.567023 0.190659 0.035926
0.599525 0.191149 0.036574
0.631934 0.191638 0.037221
0.664254 0.192126 0.037867
0.696488 0.192613 0.038512
0.728639 0.193099 0.039156
0.760709 0.193585 0.039799
0.792702 0.194071 0.040441
0.824620 0.194556 0.041083
0.856464 0.195040 0.041724
0.888236 0.195524 0.042364
0.919939 0.196007 0.043004
0.935363 0.196066 0.043304
0.935338 0.195721 0.043281
0.935324 0.195520 0.043268
0.935324 0.195520 0.043268
0.935324 0.195520 0.043268
0.047772 0.215509 0.027717
0.064013 0.215528 0.028023
0.099563 0.216046 0.028721
0.134556 0.216557 0.029410
0.169151 0.217062 0.030092
0.203435 0.217563 0.030768
0.237462 0.218061 0.031440
0.271269 0.218555 0.032108
0.304883 0.219048 0.032773
0.338326 0.219538 0.033436
0.371613 0.220027 0.034096
0.404757 0.220514 0.034754
0.437770 0.220999 0.035410
0.470660 0.221484 0.036065
0.503435 0.221966 0.036718
0.536101 0.222448 0.037369
0.568664 0.222929 0.038020
0.601129 0.223409 0.038669
0.633500 0.223888 0.039317
0.665782 0.224366 0.039963
0.697976 0.224843 0.040609
0.730088 0.225319 0.041254
0.762118 0.225795 0.041899
0.794071 0.226270 0.042542
0.825947 0.226744 0.043185
0.857750 0.227218 0.043826
0.889480 0.227692 0.044468
0.921140 0.228165 0.045108
0.937608 0.228246 0.045431
0.937584 0.227902 0.045408
0.937570 0.227701 0.045395
0.937570 0.227701 0.045395
0.937570 0.227701 0.045395
0.051025 0.247895 0.029821
0.066168 0.247882 0.030105
0.101686 0.248390 0.030805
0.136647 0.248891 0.031494
0.171210 0.249386 0.032177
0.205461 0.249877 0.032854
0.239454 0.250365 0.033527
0.273227 0.250850 0.034196
0.306808 0.251332 0.034862
0.340216 0.251813 0.035526
0.373468 0.252291 0.036187
0.406577 0.252768 0.036846
0.439553 0.253244 0.037503
0.472407 0.253717 0.038159
0.505145 0.254190 0.038813
0.537773 0.254662 0.039465
0.570299 0.255132 0.040117
0.602725 0.255601 0.040767
0.635058 0.256070 0.041415
0.667300 0.256537 0.042063
0.699454 0.257004 0.042710
0.731525 0.257469 0.043356
0.763515 0.257934 0.044001
0.795426 0.258399 0.044646
0.827261 0.258862 0.045289
0.859021 0.259325 0.045932
0.890708 0.259788 0.046574
0.922325 0.260250 0.047216
0.939833 0.260353 0.047561
0.939809 0.260010 0.047539
0.939795 0.259809 0.047525
0.939795 0.259809 0.047525
0.939795 0.259809 0.047525
0.054284 0.280219 0.031928
0.068331 0.280175 0.032190
0.103816 0.280673 0.032891
0.138743 0.281163 0.033582
0.173273 0.281648 0.034265
0.207490 0.282128 0.034943
0.241449 0.282605 0.035617
0.275188 0.283080 0.036287
0.308733 0.283552 0.036955
0.342105 0.284022 0.037619
0.375321 0.284490 0.038281
0.408394 0.284956 0.038941
0.441334 0.285420 0.039600
0.474150 0.285883 0.040256
0.506850 0.286345 0.040911
0.539440 0.286806 0.041565
0.571927 0.287265 0.042217
0.604314 0.287724 0.042868
0.636606 0.288181 0.043518
0.668808 0.288637 0.044166
0.700922 0.289093 0.044814
0.732952 0.289547 0.045461
0.764900 0.290001 0.046107
0.796768 0.290454 0.046753
0.828560 0.290907 0.047397
0.860277 0.291358 0.048041
0.891921 0.291809 0.048684
0.923493 0.292259 0.049326
0.942037 0.292383 0.049695
0.942014 0.292041 0.049672
0.942000 0.291841 0.049659
0.942000 0.291841 0.049659
0.942000 0.291841 0.049659
0.057549 0.312478 0.034038
0.070501 0.312404 0.034278
0.105952 0.312891 0.034980
0.140845 0.313370 0.035672
0.175340 0.313843 0.036357
0.209523 0.314313 0.037036
0.243447 0.314779 0.037711
0.277150 0.315243 0.038382
0.310659 0.315703 0.039050
0.343995 0.316162 0.039716
0.377174 0.316619 0.040379
0.410209 0.317074 0.041040
0.443111 0.317527 0.041699
0.475889 0.317979 0.042356
0.508550 0.318430 0.043012
0.541101 0.318879 0.043667
0.573548 0.319327 0.044320
0.605895 0.319774 0.044972
0.638147 0.320219 0.045623
0.670307 0.320664 0.046273
0.702379 0.321108 0.046921
0.734367 0.321551 0.047569
0.766272 0.321993 0.048216
0.798098 0.322434 0.048863
0.829846 0.322874 0.049508
0.861518 0.323314 0.050153
0.893118 0.323753 0.050797
0.924645 0.324191 0.051440
0.944222 0.324335 0.051832
0.944198 0.323993 0.051809
0.944185 0.323794 0.051796
0.944185 0.323794 0.051796
0.944185 0.323794 0.051796
0.060820 0.344671 0.036151
0.072679 0.344567 0.036370
0.108094 0.345042 0.037073
0.142953 0.345509 0.037766
0.177413 0.345971 0.038451
0.211559 0.346429 0.039131
0.245447 0.346884 0.039807
0.279114 0.347335 0.040480
0.312586 0.347785 0.041149
0.345885 0.348232 0.041815
0.379026 0.348677 0.042479
0.412023 0.349120 0.043141
0.444886 0.349561 0.043802
0.477624 0.350001 0.044460
0.510246 0.350440 0.045117
0.542757 0.350877 0.045772
0.575163 0.351313 0.046426
0.607468 0.351748 0.047079
0.639679 0.352182 0.047731
0.671797 0.352614 0.048382
0.703827 0.353046 0.049032
0.735771 0.353477 0.049681
0.767633 0.353906 0.050329
0.799414 0.354335 0.050976
0.831117 0.354763 0.051622
0.862745 0.355190 0.052268
0.894299 0.355617 0.052913
0.925780 0.356043 0.053557
0.946386 0.356204 0.053972
0.946363 0.355864 0.053949
0.946349 0.355665 0.053935
0.946349 0.355665 0.053935
0.946349 0.355665 0.053935
0.064097 0.376793 0.038268
0.074864 0.376660 0.038464
0.110244 0.377123 0.039168
0.145067 0.377578 0.039862
0.179490 0.378028 0.040549
0.213600 0.378474 0.041230
0.247451 0.378916 0.041907
0.281080 0.379356 0.042580
0.314514 0.379793 0.043250
0.347774 0.380228 0.043918
0.380877 0.380660 0.044583
0.413834 0.381091 0.045246
0.446658 0.381520 0.045907
0.479356 0.381948 0.046567
0.511937 0.382374 0.047224
0.544407 0.382799 0.047881
0.576771 0.383223 0.048536
0.609035 0.383645 0.049190
0.641202 0.384066 0.049843
0.673277 0.384486 0.050494
0.705264 0.384905 0.051145
0.737164 0.385323 0.051795
0.768981 0.385740 0.052444
0.800717 0.386156 0.053092
0.832375 0.386571 0.053739
0.863957 0.386985 0.054386
0.895464 0.387398 0.055032
0.926898 0.387811 0.055677
0.948530 0.387989 0.056115
0.948507 0.387650 0.056092
0.948494 0.387451 0.056079
0.948494 0.387451 0.056079
0.948494 0.387451 0.056079
0.067380 0.408844 0.040387
0.077058 0.408682 0.040562
0.112401 0.409132 0.041267
0.147186 0.409574 0.041962
0.181572 0.410011 0.042650
0.215644 0.410444 0.043332
0.249457 0.410874 0.044010
0.283048 0.411301 0.044684
0.316443 0.411725 0.045355
0.349664 0.412147 0.046024
0.382727 0.412567 0.046690
0.415644 0.412985 0.047354
0.448427 0.413402 0.048016
0.481084 0.413816 0.048676
0.513624 0.414230 0.049335
0.546051 0.414641 0.049993
0.578373 0.415052 0.050649
0.610594 0.415461 0.051303
0.642718 0.415869 0.051957
0.674749 0.416276 0.052610
0.706691 0.416681 0.053262
0.738546 0.417086 0.053912
0.770318 0.417489 0.054562
0.802008 0.417892 0.055211
0.833620 0.418294 0.055860
0.865154 0.418694 0.056507
0.896614 0.419094 0.057154
0.928000 0.419493 0.057801
0.950653 0.419687 0.058261
0.950631 0.419349 0.058238
0.950617 0.419151 0.058225
0.950617 0.419151 0.058225
0.950617 0.419151 0.058225
0.070669 0.440819 0.042510
0.079259 0.440630 0.042663
0.114564 0.441066 0.043369
0.149311 0.441495 0.044065
0.183659 0.441919 0.044754
0.217693 0.442338 0.045437
0.251467 0.442755 0.046116
0.285018 0.443168 0.046791
0.318374 0.443579 0.047463
0.351554 0.443988 0.048133
0.384576 0.444395 0.048800
0.417453 0.444799 0.049465
0.450194 0.445202 0.050128
0.482809 0.445604 0.050789
0.515306 0.446003 0.051449
0.547690 0.446402 0.052107
0.579969 0.446798 0.052764
0.612146 0.447194 0.053420
0.644225 0.447588 0.054075
0.676211 0.447981 0.054729
0.708108 0.448373 0.055381
0.739917 0.448764 0.056033
0.771643 0.449154 0.056684
0.803286 0.449542 0.057334
0.834851 0.449930 0.057983
0.866337 0.450316 0.058632
0.897749 0.450702 0.059280
0.929086 0.451087 0.059927
0.952757 0.451295 0.060411
0.952734 0.450958 0.060388
0.952721 0.450760 0.060374
0.952721 0.450760 0.060374
0.952721 0.450760 0.060374
0.073964 0.472717 0.044636
0.081468 0.472500 0.044767
0.116735 0.472922 0.045474
0.151443 0.473337 0.046171
0.185751 0.473747 0.046861
0.219745 0.474153 0.047545
0.253479 0.474556 0.048225
0.286990 0.474956 0.048901
0.320305 0.475353 0.049574
0.353445 0.475748 0.050245
0.386425 0.476140 0.050913
0.419259 0.476531 0.051579
0.451958 0.476920 0.052243
0.484530 0.477307 0.052905
0.516984 0.477693 0.053566
0.549324 0.478077 0.054225
0.581558 0.478460 0.054883
0.613690 0.478841 0.055540
0.645725 0.479221 0.056196
0.677665 0.479600 0.056850
0.709515 0.479977 0.057504
0.741278 0.480354 0.058157
0.772956 0.480729 0.058809
0.804552 0.481103 0.059460
0.836068 0.481476 0.060110
0.867506 0.481848 0.060759
0.898868 0.482219 0.061408
0.930156 0.482589 0.062056
0.954840 0.482811 0.062564
0.954818 0.482474 0.062540
0.954805 0.482278 0.062527
0.954805 0.482278 0.062527
0.954805 0.482278 0.062527
0.077265 0.504534 0.046766
0.083686 0.504291 0.046874
0.118912 0.504698 0.047582
0.153580 0.505099 0.048280
0.187849 0.505495 0.048971
0.221802 0.505886 0.049656
0.255495 0.506274 0.050337
0.288965 0.506660 0.051014
0.322238 0.507042 0.051688
0.355336 0.507423 0.052360
0.388273 0.507801 0.053029
0.421065 0.508177 0.053696
0.453720 0.508552 0.054361
0.486248 0.508925 0.055024
0.518657 0.509296 0.055686
0.550953 0.509665 0.056346
0.583142 0.510033 0.057005
0.615228 0.510400 0.057663
0.647216 0.510765 0.058320
0.679110 0.511129 0.058975
0.710913 0.511492 0.059630
0.742628 0.511853 0.060284
0.774258 0.512214 0.060936
0.805805 0.512573 0.061588
0.837272 0.512931 0.062239
0.868660 0.513288 0.062890
0.899972 0.513644 0.063540
0.931210 0.513998 0.064189
0.956903 0.514231 0.064719
0.956881 0.513896 0.064696
0.956868 0.513700 0.064683
0.956868 0.513700 0.064683
0.956868 0.513700 0.064683
0.080572 0.536267 0.048898
0.085912 0.536000 0.048984
0.121097 0.536392 0.049693
0.155724 0.536777 0.050392
0.189951 0.537158 0.051084
0.223863 0.537534 0.051770
0.257514 0.537908 0.052452
0.290942 0.538278 0.053131
0.324173 0.538646 0.053806
0.357227 0.539011 0.054478
0.390121 0.539375 0.055148
0.422869 0.539736 0.055816
0.455480 0.540095 0.056482
0.487963 0.540453 0.057147
0.520327 0.540809 0.057809
0.552577 0.541163 0.058471
0.584719 0.541516 0.059130
0.616759 0.541868 0.059789
0.648700 0.542218 0.060447
0.680546 0.542566 0.061103
0.712301 0.542913 0.061759
0.743967 0.543260 0.062413
0.775548 0.543604 0.063067
0.807046 0.543948 0.063720
0.838462 0.544290 0.064372
0.869800 0.544632 0.065024
0.901062 0.544972 0.065674
0.932247 0.545311 0.066324
0.958945 0.545554 0.066879
0.958923 0.545219 0.066855
0.958911 0.545024 0.066842
0.958911 0.545024 0.066842
0.958911 0.545024 0.066842
0.083884 0.567915 0.051034
0.088146 0.567623 0.051097
0.123289 0.568000 0.051808
0.157875 0.568369 0.052508
0.192059 0.568734 0.053201
0.225929 0.569095 0.053888
0.259537 0.569453 0.054571
0.292921 0.569808 0.055250
0.326109 0.570160 0.055926
0.359119 0.570510 0.056600
0.391969 0.570858 0.057271
0.424672 0.571204 0.057940
0.457237 0.571548 0.058607
0.489675 0.571890 0.059272
0.521992 0.572230 0.059936
0.554196 0.572569 0.060598
0.586291 0.572906 0.061259
0.618283 0.573241 0.061918
0.650176 0.573576 0.062577
0.681973 0.573908 0.063234
0.713679 0.574240 0.063891
0.745296 0.574570 0.064547
0.776827 0.574899 0.065201
0.808274 0.575226 0.065855
0.839640 0.575553 0.066508
0.870927 0.575878 0.067161
0.902136 0.576202 0.067812
0.933269 0.576525 0.068463
0.960968 0.576775 0.069041
0.960946 0.576442 0.069018
0.960933 0.576247 0.069004
0.960933 0.576247 0.069004
0.960933 0.576247 0.069004
0.087203 0.599475 0.053172
0.090389 0.599159 0.053214
0.125489 0.599519 0.053925
0.160031 0.599873 0.054626
0.194173 0.600222 0.055320
0.227999 0.600567 0.056008
0.261564 0.600908 0.056692
0.294904 0.601247 0.057373
0.328046 0.601584 0.058050
0.361012 0.601917 0.058724
0.393816 0.602249 0.059396
0.426473 0.602579 0.060066
0.458993 0.602906 0.060734
0.491384 0.603232 0.061400
0.523654 0.603556 0.062065
0.555810 0.603879 0.062728
0.587857 0.604200 0.063390
0.619800 0.604519 0.064051
0.651644 0.604837 0.064710
0.683392 0.605153 0.065369
0.715048 0.605468 0.066026
0.746615 0.605782 0.066683
0.778095 0.606094 0.067338
0.809490 0.606405 0.067993
0.840804 0.606715 0.068647
0.872039 0.607023 0.069301
0.903195 0.607331 0.069953
0.934275 0.607637 0.070605
0.962970 0.607894 0.071206
0.962948 0.607562 0.071183
0.962936 0.607367 0.071170
0.962936 0.607367 0.071170
0.962936 0.607367 0.071170
0.090528 0.630943 0.055314
0.092640 0.630605 0.055334
0.127696 0.630948 0.056046
0.162195 0.631285 0.056748
0.196292 0.631617 0.057443
0.230074 0.631946 0.058132
0.263594 0.632271 0.058817
0.296889 0.632593 0.059498
0.329986 0.632912 0.060176
0.362905 0.633230 0.060852
0.395664 0.633545 0.061525
0.428274 0.633858 0.062196
0.460746 0.634169 0.062865
0.493089 0.634478 0.063532
0.525312 0.634785 0.064198
0.557419 0.635091 0.064862
0.589417 0.635395 0.065525
0.621311 0.635698 0.066186
0.653105 0.635999 0.066847
0.684803 0.636298 0.067506
0.716408 0.636596 0.068165
0.747923 0.636893 0.068822
0.779351 0.637188 0.069479
0.810695 0.637482 0.070134
0.841956 0.637774 0.070789
0.873137 0.638066 0.071444
0.904239 0.638356 0.072097
0.935265 0.638644 0.072750
0.964951 0.638907 0.073375
0.964930 0.638575 0.073352
0.964918 0.638382 0.073338
0.964918 0.638382 0.073338
0.964918 0.638382 0.073338
0.093858 0.662317 0.057459
0.094900 0.661958 0.057456
0.129911 0.662284 0.058170
0.164364 0.662603 0.058873
0.198417 0.662918 0.059569
0.232153 0.663229 0.060259
0.265627 0.663537 0.060945
0.298876 0.663842 0.061627
0.331927 0.664145 0.062306
0.364800 0.664445 0.062983
0.397511 0.664743 0.063657
0.430073 0.665039 0.064328
0.462497 0.665332 0.064998
0.494792 0.665624 0.065667
0.526966 0.665914 0.066333
0.559024 0.666203 0.066998
0.590972 0.666489 0.067662
0.622815 0.666775 0.068325
0.654559 0.667058 0.068986
0.686205 0.667340 0.069647
0.717758 0.667621 0.070306
0.749221 0.667900 0.070965
0.780596 0.668177 0.071622
0.811887 0.668453 0.072279
0.843094 0.668728 0.072935
0.874221 0.669002 0.073590
0.905269 0.669274 0.074245
0.936240 0.669545 0.074898
0.966913 0.669810 0.075547
0.966892 0.669480 0.075524
0.966880 0.669288 0.075510
0.966880 0.669288 0.075510
0.966880 0.669288 0.075510
0.097195 0.693595 0.059608
0.097168 0.693216 0.059582
0.132133 0.693523 0.060297
0.166541 0.693825 0.061001
0.200547 0.694122 0.061698
0.234237 0.694415 0.062389
0.267665 0.694705 0.063076
0.300867 0.694993 0.063759
0.333870 0.695278 0.064439
0.366695 0.695560 0.065117
0.399358 0.695840 0.065792
0.431872 0.696118 0.066464
0.464247 0.696394 0.067135
0.496493 0.696668 0.067804
0.528616 0.696941 0.068472
0.560624 0.697211 0.069138
0.592521 0.697480 0.069803
0.624313 0.697747 0.070467
0.656005 0.698013 0.071129
0.687599 0.698277 0.071790
0.719099 0.698539 0.072451
0.750509 0.698800 0.073110
0.781831 0.699060 0.073769
0.813067 0.699318 0.074426
0.844220 0.699574 0.075083
0.875292 0.699830 0.075739
0.906284 0.700084 0.076395
0.937199 0.700336 0.077050
0.968038 0.700587 0.077704
0.968834 0.700274 0.077699
0.968822 0.700082 0.077685
0.968822 0.700082 0.077685
0.968822 0.700082 0.077685
0.100537 0.724773 0.061759
0.100497 0.724395 0.061733
0.134364 0.724664 0.062426
0.168724 0.724947 0.063132
0.202684 0.725226 0.063830
0.236326 0.725501 0.064522
0.269706 0.725773 0.065210
0.302860 0.726042 0.065894
0.335815 0.726308 0.066575
0.368592 0.726572 0.067254
0.401206 0.726834 0.067930
0.433670 0.727094 0.068603
0.465995 0.727352 0.069275
0.498190 0.727608 0.069945
0.530263 0.727862 0.070614
0.562219 0.728114 0.071281
0.594065 0.728364 0.071947
0.625805 0.728613 0.072611
0.657443 0.728860 0.073275
0.688985 0.729106 0.073937
0.720431 0.729350 0.074598
0.751787 0.729592 0.075259
0.783054 0.729833 0.075918
0.814236 0.730072 0.076577
0.845333 0.730310 0.077235
0.876349 0.730546 0.077892
0.907285 0.730782 0.078548
0.938143 0.731015 0.079204
0.968924 0.731247 0.079859
0.970755 0.730954 0.079877
0.970743 0.730762 0.079863
0.970743 0.730762 0.079863
0.970743 0.730762 0.079863
0.103886 0.755850 0.063914
0.103845 0.755473 0.063888
0.136602 0.755703 0.064560
0.170915 0.755967 0.065266
0.204826 0.756227 0.065965
0.238420 0.756483 0.066658
0.271752 0.756736 0.067347
0.304857 0.756987 0.068032
0.337763 0.757234 0.068714
0.370490 0.757480 0.069394
0.403053 0.757723 0.070071
0.435467 0.757964 0.070745
0.467741 0.758203 0.071418
0.499885 0.758440 0.072090
0.531906 0.758675 0.072759
0.563810 0.758908 0.073427
0.595603 0.759140 0.074094
0.627290 0.759369 0.074759
0.658875 0.759597 0.075424
0.690362 0.759824 0.076087
0.721754 0.760049 0.076749
0.753055 0.760272 0.077411
0.784267 0.760493 0.078071
0.815392 0.760714 0.078731
0.846433 0.760932 0.079389
0.877392 0.761149 0.080048
0.908271 0.761365 0.080705
0.939071 0.761579 0.081362
0.969794 0.761792 0.082018
0.972656 0.761516 0.082058
0.972644 0.761326 0.082044
0.972644 0.761326 0.082044
0.972644 0.761326 0.082044
0.107240 0.786821 0.066072
0.107200 0.786446 0.066046
0.138848 0.786639 0.066696
0.173112 0.786883 0.067403
0.206974 0.787123 0.068103
0.240520 0.787360 0.068797
0.273801 0.787594 0.069487
0.306857 0.787825 0.070174
0.339712 0.788053 0.070857
0.372389 0.788279 0.071537
0.404901 0.788503 0.072215
0.437264 0.788725 0.072891
0.469486 0.788944 0.073565
0.501578 0.789162 0.074237
0.533546 0.789377 0.074907
0.565397 0.789591 0.075576
0.597136 0.789803 0.076244
0.628769 0.790013 0.076910
0.660300 0.790222 0.077576
0.691732 0.790429 0.078240
0.723069 0.790634 0.078903
0.754314 0.790837 0.079565
0.785469 0.791039 0.080227
0.816537 0.791240 0.080887
0.847521 0.791439 0.081547
0.878422 0.791636 0.082206
0.909243 0.791832 0.082865
0.939984 0.792026 0.083522
0.970648 0.792219 0.084179
0.974537 0.791960 0.084243
0.974525 0.791770 0.084229
0.974525 0.791770 0.084229
0.974525 0.791770 0.084229
0.110601 0.817685 0.068233
0.110560 0.817311 0.068207
0.141102 0.817468 0.068835
0.175316 0.817692 0.069543
0.209129 0.817912 0.070244
0.242624 0.818129 0.070940
0.275855 0.818343 0.071631
0.308860 0.818554 0.072318
0.341664 0.818762 0.073002
0.374289 0.818968 0.073683
0.406750 0.819172 0.074362
0.439060 0.819374 0.075039
0.471230 0.819573 0.075714
0.503268 0.819771 0.076387
0.535182 0.819967 0.077059
0.566979 0.820160 0.077729
0.598664 0.820352 0.078397
0.630242 0.820543 0.079065
0.661717 0.820731 0.079731
0.693094 0.820918 0.080396
0.724374 0.821103 0.081060
0.755562 0.821286 0.081724
0.786660 0.821468 0.082386
0.817671 0.821648 0.083047
0.848597 0.821826 0.083708
0.879439 0.822003 0.084368
0.910200 0.822179 0.085027
