apps/web/public/brand-library/luts/warm-editorial.cube
TITLE "Warm Editorial"
LUT_3D_SIZE 9
DOMAIN_MIN 0.0 0.0 0.0
DOMAIN_MAX 1.0 1.0 1.0
0.028431 0.020588 0.015196
0.158177 0.024049 0.017800
0.294759 0.027707 0.020553
0.428527 0.031304 0.023260
0.560335 0.034865 0.025939
0.690595 0.038399 0.028598
0.819546 0.041913 0.031242
0.924602 0.044788 0.033406
0.924602 0.044788 0.033406
0.038049 0.118010 0.021425
0.163003 0.119738 0.023855
0.299113 0.121830 0.026524
0.432401 0.123890 0.029149
0.563719 0.125930 0.031747
0.693479 0.127957 0.034325
0.821922 0.129975 0.036889
0.930811 0.131494 0.039059
0.930773 0.130946 0.039023
0.051025 0.247895 0.029821
0.171210 0.249386 0.032177
0.306808 0.251332 0.034862
0.439553 0.253244 0.037503
0.570299 0.255132 0.040117
0.699454 0.257004 0.042710
0.827261 0.258862 0.045289
0.939833 0.260353 0.047561
0.939795 0.259809 0.047525
0.064097 0.376793 0.038268
0.179490 0.378028 0.040549
0.314514 0.379793 0.043250
0.446658 0.381520 0.045907
0.576771 0.383223 0.048536
0.705264 0.384905 0.051145
0.832375 0.386571 0.053739
0.948530 0.387989 0.056115
0.948494 0.387451 0.056079
0.077265 0.504534 0.046766
0.187849 0.505495 0.048971
0.322238 0.507042 0.051688
0.453720 0.508552 0.054361
0.583142 0.510033 0.057005
0.710913 0.511492 0.059630
0.837272 0.512931 0.062239
0.956903 0.514231 0.064719
0.956868 0.513700 0.064683
0.090528 0.630943 0.055314
0.196292 0.631617 0.057443
0.329986 0.632912 0.060176
0.460746 0.634169 0.062865
0.589417 0.635395 0.065525
0.716408 0.636596 0.068165
0.841956 0.637774 0.070789
0.964951 0.638907 0.073375
0.964918 0.638382 0.073338
0.103886 0.755850 0.063914
0.204826 0.756227 0.065965
0.337763 0.757234 0.068714
0.467741 0.758203 0.071418
0.595603 0.759140 0.074094
0.721754 0.760049 0.076749
0.846433 0.760932 0.079389
0.969794 0.761792 0.082018
0.972644 0.761326 0.082044
0.117340 0.879081 0.072565
0.213456 0.879156 0.074537
0.345575 0.879839 0.077302
0.474713 0.880485 0.080022
0.601705 0.881098 0.082713
0.726959 0.881681 0.085384
0.850711 0.882236 0.088039
0.973114 0.882765 0.090683
0.980046 0.882359 0.090802
0.124881 0.946990 0.077410
0.216773 0.948299 0.079403
0.348543 0.950150 0.082277
0.477295 0.951930 0.085103
0.603865 0.953652 0.087899
0.728656 0.955323 0.090675
0.851905 0.956947 0.093435
0.973765 0.958526 0.096182
0.984609 0.958666 0.096428
0.029110 0.021173 0.078264
0.158472 0.024612 0.079377
0.295018 0.028258 0.080698
0.428749 0.031844 0.082000
0.560521 0.035393 0.083291
0.690743 0.038916 0.084575
0.819657 0.042419 0.085856
0.925024 0.045293 0.086684
0.925020 0.045288 0.086177
0.038649 0.118175 0.080073
0.163221 0.119881 0.081018
0.299296 0.121962 0.082260
0.432548 0.124010 0.083484
0.563832 0.126040 0.084699
0.693557 0.128056 0.085908
0.821965 0.130063 0.087114
0.931165 0.131580 0.087953
0.931123 0.131028 0.087413
0.051583 0.248003 0.084025
0.171387 0.249473 0.084900
0.306949 0.251408 0.086161
0.439659 0.253308 0.087404
0.570369 0.255185 0.088638
0.699490 0.257046 0.089867
0.827262 0.258893 0.091093
0.940142 0.260382 0.092037
0.940101 0.259834 0.091498
0.064613 0.376843 0.088035
0.179626 0.378058 0.088842
0.314614 0.379811 0.090123
0.446722 0.381528 0.091387
0.576800 0.383219 0.092642
0.705259 0.384890 0.093892
0.832337 0.386545 0.095140
0.948798 0.387962 0.096191
0.948758 0.387420 0.095655
0.077737 0.504526 0.092110
0.187943 0.505468 0.092850
0.322297 0.507005 0.094153
0.453744 0.508503 0.095439
0.583131 0.509974 0.096717
0.710869 0.511422 0.097990
0.837195 0.512851 0.099261
0.957131 0.514149 0.100424
0.957093 0.513614 0.099890
0.090956 0.630879 0.096256
0.196345 0.631536 0.096929
0.330004 0.632820 0.098256
0.460730 0.634067 0.099566
0.589368 0.635283 0.100869
0.716326 0.636474 0.102167
0.841843 0.637643 0.103463
0.965143 0.638773 0.104739
0.965106 0.638245 0.104209
0.104269 0.755732 0.100478
0.204838 0.756093 0.101085
0.337740 0.757091 0.102438
0.467686 0.758050 0.103775
0.595516 0.758978 0.105103
0.721637 0.759878 0.106428
0.846287 0.760754 0.107751
0.969620 0.761605 0.109075
0.972798 0.761142 0.108617
0.117678 0.878913 0.104783
0.213426 0.878974 0.105324
0.345512 0.879649 0.106705
0.474618 0.880287 0.108070
0.601581 0.880892 0.109426
0.726807 0.881467 0.110780
0.850532 0.882015 0.112132
0.972911 0.882537 0.113485
0.980167 0.882134 0.113121
0.125213 0.947131 0.105594
0.216738 0.948426 0.106165
0.348475 0.950268 0.107663
0.477195 0.952040 0.109144
0.603735 0.953754 0.110616
0.728498 0.955417 0.112085
0.851721 0.957033 0.113553
0.973556 0.958605 0.115021
0.984723 0.958746 0.114784
0.030340 0.022232 0.192449
0.159262 0.025662 0.193440
0.295765 0.029311 0.194634
0.429451 0.032899 0.195805
0.561174 0.036450 0.196962
0.691345 0.039975 0.198108
0.820204 0.043480 0.199246
0.925920 0.046366 0.199961
0.925916 0.046361 0.199454
0.039843 0.118783 0.193952
0.163975 0.120480 0.194771
0.300005 0.122563 0.195877
0.433210 0.124613 0.196964
0.564442 0.126644 0.198038
0.694114 0.128662 0.199103
0.822465 0.130671 0.200160
0.932011 0.132201 0.200876
0.931968 0.131648 0.200338
0.052787 0.248570 0.197476
0.172147 0.250031 0.198216
0.307659 0.251966 0.199324
0.440315 0.253866 0.200413
0.570969 0.255743 0.201489
0.700031 0.257604 0.202557
0.827741 0.259453 0.203618
0.940958 0.260952 0.204420
0.940917 0.260404 0.203885
0.065825 0.377360 0.201006
0.180393 0.378564 0.201668
0.315325 0.380316 0.202779
0.447374 0.382031 0.203872
0.577391 0.383721 0.204953
0.705785 0.385391 0.206026
0.832796 0.387045 0.207093
0.949584 0.388470 0.207982
0.949544 0.387928 0.207449
0.078958 0.504981 0.204546
0.188718 0.505912 0.205132
0.323010 0.507446 0.206250
0.454392 0.508942 0.207348
0.583713 0.510410 0.208436
0.711381 0.511855 0.209515
0.837635 0.513282 0.210590
0.957887 0.514586 0.211568
0.957849 0.514051 0.211038
0.092185 0.631263 0.208104
0.197128 0.631908 0.208616
0.330719 0.633188 0.209740
0.461375 0.634430 0.210847
0.589941 0.635642 0.211943
0.716824 0.636829 0.213031
0.842264 0.637994 0.214114
0.965869 0.639127 0.215183
0.965833 0.638600 0.214656
0.105508 0.756033 0.211684
0.205629 0.756383 0.212124
0.338459 0.757375 0.213258
0.468329 0.758328 0.214374
0.596081 0.759250 0.215480
0.722122 0.760145 0.216578
0.846689 0.761015 0.217673
0.969936 0.761861 0.218764
0.973494 0.761404 0.218311
0.118925 0.879122 0.215294
0.214227 0.879171 0.215663
0.346235 0.879839 0.216808
0.475260 0.880469 0.217935
0.602140 0.881067 0.219053
0.727279 0.881635 0.220164
0.850916 0.882176 0.221271
0.973203 0.882691 0.222375
0.980834 0.882293 0.222008
0.126509 0.947679 0.215719
0.217588 0.948961 0.216110
0.349240 0.950792 0.217354
0.477873 0.952553 0.218579
0.604323 0.954257 0.219793
0.728994 0.955909 0.221001
0.852121 0.957515 0.222204
0.973858 0.959077 0.223405
0.985393 0.959222 0.223151
0.031600 0.023316 0.309200
0.160071 0.026738 0.310063
0.296530 0.030388 0.311123
0.430169 0.033979 0.312158
0.561841 0.037532 0.313174
0.691958 0.041059 0.314174
0.820760 0.044566 0.315163
0.926834 0.047465 0.315758
0.926830 0.047460 0.315252
0.041066 0.119406 0.310383
0.164746 0.121094 0.311071
0.300730 0.123179 0.312037
0.433885 0.125231 0.312980
0.565065 0.127263 0.313906
0.694682 0.129283 0.314819
0.822975 0.131294 0.315721
0.932873 0.132837 0.316309
0.932830 0.132284 0.315773
0.054019 0.249151 0.313460
0.172926 0.250601 0.314058
0.308385 0.252537 0.315008
0.440987 0.254437 0.315936
0.571583 0.256315 0.316848
0.700584 0.258176 0.317748
0.828230 0.260025 0.318637
0.941790 0.261534 0.319290
0.941749 0.260987 0.318758
0.067066 0.377888 0.316487
0.181179 0.379081 0.316999
0.316053 0.380832 0.317935
0.448041 0.382546 0.318850
0.577995 0.384234 0.319750
0.706322 0.385903 0.320638
0.833264 0.387556 0.321516
0.950385 0.388990 0.322235
0.950345 0.388448 0.321706
0.080208 0.505446 0.319471
0.189512 0.506365 0.319898
0.323740 0.507896 0.320822
0.455056 0.509389 0.321726
0.584307 0.510855 0.322616
0.711903 0.512298 0.323494
0.838082 0.513721 0.324364
0.958658 0.515032 0.325149
0.958620 0.514497 0.324623
0.093444 0.631653 0.322416
0.197930 0.632287 0.322763
0.331452 0.633563 0.323677
0.462036 0.634800 0.324571
0.590527 0.636008 0.325452
0.717333 0.637191 0.326323
0.842692 0.638352 0.327185
0.966609 0.639489 0.328037
0.966573 0.638962 0.327515
0.106776 0.756339 0.325330
0.206440 0.756678 0.325598
0.339194 0.757663 0.326504
0.468987 0.758611 0.327391
0.596659 0.759527 0.328266
0.722617 0.760416 0.329130
0.847098 0.761280 0.329987
0.970256 0.762121 0.330837
0.974204 0.761671 0.330388
0.120202 0.879333 0.328218
0.215048 0.879371 0.328410
0.346974 0.880031 0.329310
0.475916 0.880654 0.330192
0.602710 0.881244 0.331061
0.727761 0.881805 0.331922
0.851306 0.882339 0.332775
0.973500 0.882847 0.333622
0.981513 0.882455 0.333248
0.127837 0.948236 0.328237
0.218458 0.949505 0.328444
0.350023 0.951325 0.329423
0.478567 0.953075 0.330383
0.604924 0.954768 0.331331
0.729500 0.956410 0.332268
0.852529 0.958005 0.333197
0.974164 0.959556 0.334120
0.986076 0.959705 0.333848
0.032879 0.024417 0.427589
0.160892 0.027830 0.428320
0.297306 0.031482 0.429241
0.430896 0.035075 0.430132
0.562517 0.038630 0.431002
0.692579 0.042160 0.431852
0.821323 0.045669 0.432685
0.927757 0.048581 0.433155
0.927753 0.048576 0.432649
0.042308 0.120038 0.428442
0.165530 0.121717 0.428996
0.301466 0.123804 0.429815
0.434571 0.125857 0.430608
0.565697 0.127892 0.431381
0.695257 0.129914 0.432137
0.823490 0.131927 0.432879
0.933745 0.133482 0.433332
0.933702 0.132930 0.432799
0.055270 0.249740 0.431054
0.173717 0.251181 0.431508
0.309122 0.253116 0.432293
0.441667 0.255017 0.433055
0.572204 0.256895 0.433797
0.701143 0.258756 0.434523
0.828724 0.260606 0.435235
0.942630 0.262126 0.435732
0.942590 0.261579 0.435203
0.068326 0.378423 0.433561
0.181977 0.379606 0.433919
0.316791 0.381355 0.434673
0.448718 0.383067 0.435404
0.578606 0.384755 0.436117
0.706866 0.386423 0.436815
0.833736 0.388075 0.437499
0.951195 0.389517 0.438040
0.951155 0.388976 0.437514
0.081477 0.505917 0.435969
0.190318 0.506825 0.436234
0.324480 0.508352 0.436959
0.455729 0.509843 0.437661
0.584910 0.511305 0.438347
0.712432 0.512745 0.439018
0.838535 0.514166 0.439677
0.959437 0.515484 0.440261
0.959399 0.514949 0.439739
0.094723 0.632049 0.438283
0.198745 0.632670 0.438460
0.332195 0.633942 0.439157
0.462706 0.635175 0.439833
0.591121 0.636378 0.440493
0.717847 0.637557 0.441140
0.843124 0.638713 0.441774
0.967106 0.639850 0.442398
0.967321 0.639328 0.441883
0.108063 0.756648 0.440509
0.207264 0.756975 0.440602
0.339941 0.757954 0.441273
0.469655 0.758896 0.441925
0.597245 0.759806 0.442562
0.723118 0.760689 0.443185
0.847511 0.761548 0.443798
0.970579 0.762383 0.444400
0.974921 0.761940 0.443952
0.121499 0.879545 0.442654
0.215881 0.879571 0.442666
0.347725 0.880224 0.443314
0.476581 0.880838 0.443943
0.603288 0.881421 0.444558
0.728249 0.881975 0.445160
0.851701 0.882502 0.445752
0.973798 0.883003 0.446335
0.982199 0.882616 0.445954
0.129185 0.948798 0.442250
0.219343 0.950054 0.442269
0.350818 0.951863 0.442977
0.479270 0.953602 0.443664
0.605534 0.955283 0.444337
0.730012 0.956914 0.444996
0.852941 0.958499 0.445644
0.974473 0.960039 0.446282
0.986765 0.960192 0.445988
0.034172 0.025531 0.547178
0.161723 0.028934 0.547772
0.298090 0.032589 0.548549
0.431631 0.036184 0.549293
0.563199 0.039741 0.550010
0.693205 0.043273 0.550705
0.821889 0.046784 0.551378
0.928688 0.049709 0.551717
0.928684 0.049705 0.551212
0.043564 0.120678 0.547692
0.166323 0.122348 0.548108
0.302210 0.124436 0.548775
0.435263 0.126492 0.549414
0.566335 0.128528 0.550029
0.695837 0.130552 0.550624
0.824009 0.132567 0.551199
0.934623 0.134135 0.551512
0.934581 0.133583 0.550983
0.056535 0.250336 0.549824
0.174516 0.251766 0.550129
0.309867 0.253702 0.550745
0.442355 0.255603 0.551335
0.572831 0.257481 0.551902
0.701706 0.259343 0.552449
0.829221 0.261193 0.552978
0.943477 0.262724 0.553315
0.943437 0.262178 0.552788
0.069601 0.378964 0.551794
0.182785 0.380135 0.551994
0.317538 0.381883 0.552561
0.449401 0.383594 0.553103
0.579223 0.385281 0.553623
0.707414 0.386948 0.554125
0.834212 0.388598 0.554610
0.952010 0.390049 0.554968
0.951971 0.389509 0.554445
0.082761 0.506391 0.553609
0.191134 0.507288 0.553708
0.325229 0.508813 0.554228
0.456409 0.510300 0.554724
0.585518 0.511760 0.555200
0.712965 0.513197 0.555658
0.838990 0.514616 0.556100
0.960221 0.515939 0.556478
0.960183 0.515405 0.555959
0.096016 0.632447 0.555273
0.199569 0.633056 0.555277
0.332947 0.634323 0.555752
0.463383 0.635552 0.556204
0.591720 0.636751 0.556638
0.718366 0.637925 0.557054
0.843560 0.639078 0.557455
0.967455 0.640210 0.557842
0.968074 0.639696 0.557336
0.109366 0.756959 0.556793
0.208098 0.757273 0.556708
0.340696 0.758247 0.557139
0.470329 0.759182 0.557550
0.597836 0.760086 0.557942
0.723623 0.760964 0.558319
0.847927 0.761816 0.558681
0.970904 0.762646 0.559029
0.975643 0.762211 0.558582
0.122810 0.879756 0.558176
0.216724 0.879771 0.558006
0.348484 0.880416 0.558396
0.477254 0.881023 0.558766
0.603871 0.881598 0.559120
0.728741 0.882145 0.559458
0.852098 0.882664 0.559783
0.974098 0.883158 0.560095
0.982890 0.882777 0.559704
0.130548 0.949363 0.557334
0.220237 0.950605 0.557161
0.351622 0.952403 0.557590
0.479981 0.954130 0.557999
0.606149 0.955801 0.558390
0.730528 0.957421 0.558765
0.853355 0.958995 0.559125
0.974782 0.960524 0.559472
0.987459 0.960681 0.559154
0.035478 0.026654 0.667708
0.162561 0.030048 0.668163
0.298882 0.033706 0.668789
0.432372 0.037303 0.669381
0.563886 0.040863 0.669942
0.693835 0.044396 0.670476
0.822458 0.047910 0.670983
0.929623 0.050848 0.671187
0.929619 0.050844 0.670682
0.044832 0.121324 0.667876
0.167124 0.122984 0.668151
0.302961 0.125074 0.668661
0.435961 0.127132 0.669140
0.566976 0.129170 0.669593
0.696420 0.131196 0.670021
0.824530 0.133213 0.670426
0.935505 0.134795 0.670594
0.935463 0.134243 0.670067
0.057812 0.250937 0.669512
0.175324 0.252357 0.669666
0.310619 0.254292 0.670107
0.443048 0.256194 0.670520
0.573462 0.258072 0.670906
0.702273 0.259935 0.671270
0.829720 0.261785 0.671612
0.944328 0.263328 0.671781
0.944288 0.262781 0.671258
0.070887 0.379509 0.670930
0.183600 0.380669 0.670968
0.318291 0.382416 0.671343
0.450090 0.384126 0.671691
0.579845 0.385811 0.672014
0.707965 0.387476 0.672315
0.834690 0.389126 0.672595
0.952830 0.390586 0.672763
0.952791 0.390046 0.672244
0.084057 0.506869 0.672135
0.191957 0.507754 0.672065
0.325985 0.509276 0.672375
0.457094 0.510760 0.672659
0.586130 0.512218 0.672921
0.713501 0.513652 0.673161
0.839447 0.515068 0.673381
0.961009 0.516398 0.673545
0.960972 0.515864 0.673030
0.097321 0.632847 0.673133
0.200401 0.633445 0.672962
0.333705 0.634707 0.673209
0.464065 0.635931 0.673431
0.592323 0.637125 0.673633
0.718888 0.638296 0.673814
0.843997 0.639444 0.673977
0.967805 0.640572 0.674121
0.968831 0.640067 0.673622
0.110680 0.757270 0.673930
0.208939 0.757573 0.673664
0.341458 0.758539 0.673850
0.471009 0.759469 0.674013
0.598431 0.760367 0.674156
0.724131 0.761239 0.674281
0.848345 0.762085 0.674387
0.971228 0.762909 0.674476
0.976368 0.762481 0.674027
0.124134 0.879967 0.674533
0.217576 0.879971 0.674178
0.349250 0.880607 0.674304
0.477932 0.881207 0.674410
0.604459 0.881775 0.674497
0.729235 0.882314 0.674566
0.852497 0.882826 0.674618
0.974398 0.883312 0.674654
0.983583 0.882937 0.674251
0.131924 0.949929 0.673236
0.221141 0.951157 0.672869
0.352433 0.952944 0.673014
0.480698 0.954660 0.673138
0.606768 0.956319 0.673241
0.731047 0.957928 0.673326
0.853771 0.959491 0.673393
0.975092 0.961010 0.673442
0.988156 0.961170 0.673096
0.036794 0.027787 0.789008
0.163406 0.031171 0.789319
0.299678 0.034831 0.789791
0.433117 0.038430 0.790225
0.564576 0.041992 0.790625
0.694467 0.045528 0.790993
0.823029 0.049044 0.791330
0.930561 0.051996 0.791393
0.930557 0.051991 0.790889
0.046110 0.121975 0.788822
0.167930 0.123626 0.788952
0.303716 0.125718 0.789301
0.436663 0.127777 0.789616
0.567622 0.129818 0.789901
0.697005 0.131846 0.790158
0.825052 0.133865 0.790388
0.936391 0.135459 0.790405
0.936349 0.134908 0.789882
0.059100 0.251542 0.789947
0.176138 0.252951 0.789946
0.311376 0.254888 0.790208
0.443745 0.256789 0.790439
0.574097 0.258668 0.790641
0.702842 0.260531 0.790816
0.830220 0.262382 0.790966
0.945182 0.263936 0.790963
0.945142 0.263390 0.790443
0.072184 0.380057 0.790797
0.184421 0.381206 0.790672
0.319050 0.382951 0.790850
0.450784 0.384660 0.790998
0.580470 0.386344 0.791119
0.708519 0.388009 0.791214
0.835170 0.389657 0.791285
0.953652 0.391126 0.791257
0.953613 0.390586 0.790742
0.085363 0.507350 0.791377
0.192787 0.508223 0.791136
0.326746 0.509742 0.791231
0.457784 0.511223 0.791298
0.586746 0.512678 0.791340
0.714040 0.514110 0.791357
0.839906 0.515523 0.791351
0.961800 0.516859 0.791294
0.961762 0.516326 0.790783
0.098636 0.633248 0.791693
0.201240 0.633834 0.791344
0.334469 0.635091 0.791358
0.464752 0.636311 0.791346
0.592930 0.637501 0.791310
0.719412 0.638667 0.791251
0.844435 0.639811 0.791170
0.968154 0.640935 0.791067
0.969589 0.640438 0.790574
0.112005 0.757581 0.791751
0.209788 0.757872 0.791302
0.342226 0.758832 0.791236
0.471694 0.759755 0.791147
0.599030 0.760648 0.791036
0.724641 0.761514 0.790902
0.848764 0.762355 0.790748
0.971552 0.763173 0.790573
0.977095 0.762752 0.790120
0.125468 0.880177 0.791557
0.218435 0.880169 0.791015
0.350021 0.880798 0.790872
0.478615 0.881389 0.790708
0.605050 0.881950 0.790523
0.729732 0.882481 0.790317
0.852897 0.882986 0.790091
0.974697 0.883465 0.789845
0.984279 0.883096 0.789428
0.133311 0.950496 0.789789
0.222052 0.951710 0.789226
0.353251 0.953485 0.789081
0.481420 0.955190 0.788914
0.607391 0.956838 0.788725
0.731569 0.958436 0.788513
0.854188 0.959987 0.788280
0.975401 0.961495 0.788026
0.988854 0.961660 0.787651
0.037937 0.028770 0.894208
0.164096 0.032158 0.895806
0.300339 0.035833 0.897497
0.433744 0.039447 0.899118
0.565165 0.043023 0.900681
0.695014 0.046573 0.902192
0.823529 0.050103 0.903656
0.931445 0.053081 0.904860
0.931445 0.053081 0.904860
0.047260 0.122516 0.897930
0.168626 0.124171 0.899337
0.304379 0.126277 0.900888
0.437288 0.128351 0.902375
0.568205 0.130405 0.903808
0.697543 0.132447 0.905194
0.825540 0.134480 0.906535
0.937255 0.136100 0.907675
0.937217 0.135553 0.907657
0.060304 0.252079 0.902786
0.176885 0.253490 0.904042
0.312082 0.255438 0.905477
0.444407 0.257352 0.906850
0.574709 0.259243 0.908171
0.703401 0.261118 0.909445
0.830720 0.262980 0.910675
0.946038 0.264548 0.910737
0.945998 0.264002 0.910221
0.073444 0.380575 0.907275
0.185221 0.381725 0.908386
0.319801 0.383480 0.909706
0.451481 0.385198 0.910902
0.581098 0.386880 0.910816
0.709074 0.388544 0.910701
0.835650 0.390191 0.910557
0.954476 0.391669 0.910328
0.954437 0.391130 0.909816
0.086677 0.507832 0.911213
0.193623 0.508694 0.910799
0.327512 0.510209 0.910673
0.458478 0.511688 0.910519
0.587364 0.513139 0.910336
0.714580 0.514569 0.910125
0.840365 0.515979 0.909888
0.962592 0.517323 0.909605
0.962554 0.516790 0.909098
0.099960 0.633650 0.910832
0.202085 0.634224 0.910303
0.335239 0.635477 0.910078
0.465443 0.636692 0.909827
0.593540 0.637878 0.909549
0.719938 0.639040 0.909245
0.844874 0.640179 0.908915
0.968503 0.641299 0.908559
0.970350 0.640811 0.908071
0.113338 0.757892 0.910134
0.210642 0.758171 0.909500
0.342999 0.759125 0.909178
0.472382 0.760042 0.908832
0.599632 0.760929 0.908461
0.725153 0.761788 0.908065
0.849183 0.762624 0.907644
0.971876 0.763436 0.907199
0.977823 0.763022 0.906741
0.126811 0.880386 0.909128
0.219300 0.880366 0.908396
0.350798 0.880987 0.907979
0.479302 0.881571 0.907540
0.605645 0.882123 0.907077
0.730231 0.882647 0.906592
0.853297 0.883145 0.906083
0.974996 0.883616 0.905550
0.984975 0.883253 0.905116
0.134707 0.951062 0.906873
0.222970 0.952263 0.906112
0.354074 0.954026 0.905672
0.482146 0.955719 0.905208
0.608017 0.957356 0.904720
0.732092 0.958943 0.904207
0.854605 0.960483 0.903668
0.975709 0.961980 0.903105
0.989553 0.962148 0.902699
