apps/web/public/brand-library/luts/warm-editorial.cube
TITLE "Warm Editorial"
LUT_3D_SIZE 5
DOMAIN_MIN 0.0 0.0 0.0
DOMAIN_MAX 1.0 1.0 1.0
0.028431 0.020588 0.015196
0.294759 0.027707 0.020553
0.560335 0.034865 0.025939
0.819546 0.041913 0.031242
0.924602 0.044788 0.033406
0.051025 0.247895 0.029821
0.306808 0.251332 0.034862
0.570299 0.255132 0.040117
0.827261 0.258862 0.045289
0.939795 0.259809 0.047525
0.077265 0.504534 0.046766
0.322238 0.507042 0.051688
0.583142 0.510033 0.057005
0.837272 0.512931 0.062239
0.956868 0.513700 0.064683
0.103886 0.755850 0.063914
0.337763 0.757234 0.068714
0.595603 0.759140 0.074094
0.846433 0.760932 0.079389
0.972644 0.761326 0.082044
0.124881 0.946990 0.077410
0.348543 0.950150 0.082277
0.603865 0.953652 0.087899
0.851905 0.956947 0.093435
0.984609 0.958666 0.096428
0.030340 0.022232 0.192449
0.295765 0.029311 0.194634
0.561174 0.036450 0.196962
0.820204 0.043480 0.199246
0.925916 0.046361 0.199454
0.052787 0.248570 0.197476
0.307659 0.251966 0.199324
0.570969 0.255743 0.201489
0.827741 0.259453 0.203618
0.940917 0.260404 0.203885
0.078958 0.504981 0.204546
0.323010 0.507446 0.206250
0.583713 0.510410 0.208436
0.837635 0.513282 0.210590
0.957849 0.514051 0.211038
0.105508 0.756033 0.211684
0.338459 0.757375 0.213258
0.596081 0.759250 0.215480
0.846689 0.761015 0.217673
0.973494 0.761404 0.218311
0.126509 0.947679 0.215719
0.349240 0.950792 0.217354
0.604323 0.954257 0.219793
0.852121 0.957515 0.222204
0.985393 0.959222 0.223151
0.032879 0.024417 0.427589
0.297306 0.031482 0.429241
0.562517 0.038630 0.431002
0.821323 0.045669 0.432685
0.927753 0.048576 0.432649
0.055270 0.249740 0.431054
0.309122 0.253116 0.432293
0.572204 0.256895 0.433797
0.828724 0.260606 0.435235
0.942590 0.261579 0.435203
0.081477 0.505917 0.435969
0.324480 0.508352 0.436959
0.584910 0.511305 0.438347
0.838535 0.514166 0.439677
0.959399 0.514949 0.439739
0.108063 0.756648 0.440509
0.339941 0.757954 0.441273
0.597245 0.759806 0.442562
0.847511 0.761548 0.443798
0.974921 0.761940 0.443952
0.129185 0.948798 0.442250
0.350818 0.951863 0.442977
0.605534 0.955283 0.444337
0.852941 0.958499 0.445644
0.986765 0.960192 0.445988
0.035478 0.026654 0.667708
0.298882 0.033706 0.668789
0.563886 0.040863 0.669942
0.822458 0.047910 0.670983
0.929619 0.050844 0.670682
0.057812 0.250937 0.669512
0.310619 0.254292 0.670107
0.573462 0.258072 0.670906
0.829720 0.261785 0.671612
0.944288 0.262781 0.671258
0.084057 0.506869 0.672135
0.325985 0.509276 0.672375
0.586130 0.512218 0.672921
0.839447 0.515068 0.673381
0.960972 0.515864 0.673030
0.110680 0.757270 0.673930
0.341458 0.758539 0.673850
0.598431 0.760367 0.674156
0.848345 0.762085 0.674387
0.976368 0.762481 0.674027
0.131924 0.949929 0.673236
0.352433 0.952944 0.673014
0.606768 0.956319 0.673241
0.853771 0.959491 0.673393
0.988156 0.961170 0.673096
0.037937 0.028770 0.894208
0.300339 0.035833 0.897497
0.565165 0.043023 0.900681
0.823529 0.050103 0.903656
0.931445 0.053081 0.904860
0.060304 0.252079 0.902786
0.312082 0.255438 0.905477
0.574709 0.259243 0.908171
0.830720 0.262980 0.910675
0.945998 0.264002 0.910221
0.086677 0.507832 0.911213
0.327512 0.510209 0.910673
0.587364 0.513139 0.910336
0.840365 0.515979 0.909888
0.962554 0.516790 0.909098
0.113338 0.757892 0.910134
0.342999 0.759125 0.909178
0.599632 0.760929 0.908461
0.849183 0.762624 0.907644
0.977823 0.763022 0.906741
0.134707 0.951062 0.906873
0.354074 0.954026 0.905672
0.608017 0.957356 0.904720
0.854605 0.960483 0.903668
0.989553 0.962148 0.902699
